/* XPM */
static char *out[] = {
/* columns rows colors chars-per-pixel */
"128 128 256 2 ",
"   c #180E10",
".  c #1A1419",
"X  c #360B16",
"o  c #28171B",
"O  c #311118",
"+  c #1D1D28",
"@  c #291B25",
"#  c #371B26",
"$  c #321D31",
"%  c #29242B",
"&  c #372429",
"*  c #3A2835",
"=  c #302D39",
"-  c #4A1D1E",
";  c #6A2917",
":  c #46262B",
">  c #472837",
",  c #523036",
"<  c #69312F",
"1  c #76372C",
"2  c #783934",
"3  c #774633",
"4  c #352B43",
"5  c #393549",
"6  c #3D3952",
"7  c #4E324B",
"8  c #483849",
"9  c #5B344B",
"0  c #58364A",
"q  c #593952",
"w  c #5E3A52",
"e  c #612F49",
"r  c #67384C",
"t  c #763A4B",
"y  c #623B54",
"u  c #693C55",
"i  c #773D54",
"p  c #703F60",
"a  c #2C5168",
"s  c #51484E",
"d  c #4A4558",
"f  c #55485A",
"g  c #6B424C",
"h  c #76454B",
"j  c #694756",
"k  c #6D4D5D",
"l  c #774657",
"z  c #724D5C",
"x  c #715552",
"c  c #78535C",
"v  c #554A64",
"b  c #594E65",
"n  c #544F6B",
"m  c #5A5267",
"M  c #674C63",
"N  c #724F60",
"B  c #7B4A64",
"V  c #675567",
"C  c #745163",
"Z  c #7A5365",
"A  c #7D556A",
"S  c #7C596A",
"D  c #665B78",
"F  c #755E75",
"G  c #636766",
"H  c #736E72",
"J  c #913616",
"K  c #A53C1A",
"L  c #8D3C2C",
"P  c #A43E23",
"I  c #B1471E",
"U  c #894638",
"Y  c #954F34",
"T  c #9C5A34",
"R  c #AE512D",
"E  c #B66736",
"W  c #B36B36",
"Q  c #C65E38",
"!  c #C97039",
"~  c #893D4E",
"^  c #863D54",
"/  c #884649",
"(  c #974D49",
")  c #864558",
"_  c #8B455C",
"`  c #974859",
"'  c #885659",
"]  c #985759",
"[  c #AC534A",
"{  c #A85749",
"}  c #A64C5B",
"|  c #A9545A",
" . c #B25659",
".. c #95685B",
"X. c #B06B4E",
"o. c #B76658",
"O. c #874B66",
"+. c #984C64",
"@. c #885566",
"#. c #81566B",
"$. c #83596D",
"%. c #8B5B6D",
"&. c #93566B",
"*. c #945B6C",
"=. c #995969",
"-. c #894E73",
";. c #984F70",
":. c #8D5275",
">. c #865B71",
",. c #8C5D73",
"<. c #8D5179",
"1. c #8D5E78",
"2. c #965775",
"3. c #935D73",
"4. c #93557C",
"5. c #96597C",
"6. c #9B5B7C",
"7. c #A64E63",
"8. c #B34F60",
"9. c #A85367",
"0. c #AC546C",
"q. c #B35464",
"w. c #B6586B",
"e. c #A85A77",
"r. c #B75C75",
"t. c #976867",
"y. c #91706E",
"u. c #8D6177",
"i. c #936175",
"p. c #94637A",
"a. c #9B6678",
"s. c #9B657B",
"d. c #A8666A",
"f. c #B66967",
"g. c #AA766A",
"h. c #B57A6B",
"j. c #A8677A",
"k. c #A36A7D",
"l. c #B76779",
"z. c #A97776",
"x. c #B7767A",
"c. c #CA7354",
"v. c #C05C6E",
"b. c #C7796C",
"n. c #C3657B",
"m. c #71837C",
"M. c #CD853D",
"N. c #AF855A",
"B. c #B08574",
"V. c #B98574",
"C. c #DD8546",
"Z. c #D18E50",
"A. c #E18B46",
"S. c #E49648",
"D. c #E29056",
"F. c #D38C6A",
"G. c #C78877",
"H. c #CA977A",
"J. c #D4987A",
"K. c #E29567",
"L. c #D8A36E",
"P. c #D6A27C",
"I. c #397C97",
"U. c #287CA1",
"Y. c #4A7B8D",
"T. c #746C8C",
"R. c #995984",
"E. c #9B5B84",
"W. c #A15E87",
"Q. c #966C86",
"!. c #A46C83",
"~. c #AB6D83",
"^. c #A5628B",
"/. c #AA648D",
"(. c #A86888",
"). c #B76986",
"_. c #AC7289",
"`. c #B27283",
"'. c #B8778B",
"]. c #AD6992",
"[. c #B36D94",
"{. c #AB7593",
"}. c #B87596",
"|. c #B47B93",
" X c #BB7C93",
".X c #C56B82",
"XX c #C77889",
"oX c #C47B97",
"OX c #C67EA1",
"+X c #33849B",
"@X c #1985AC",
"#X c #0C87B7",
"$X c #1486B4",
"%X c #2785A8",
"&X c #358FAF",
"*X c #508893",
"=X c #4D96AD",
"-X c #639AA3",
";X c #70A8B5",
":X c #68ADC3",
">X c #919093",
",X c #B68E86",
"<X c #BA8397",
"1X c #A59DA4",
"2X c #ADB0B0",
"3X c #C88788",
"4X c #CA9985",
"5X c #D79988",
"6X c #C88797",
"7X c #D28993",
"8X c #CC9596",
"9X c #D69899",
"0X c #E19E94",
"qX c #CDA287",
"wX c #D7A688",
"eX c #CDAB96",
"rX c #DBA698",
"tX c #E2A78C",
"yX c #E3B28D",
"uX c #E5AC94",
"iX c #E4A99A",
"pX c #E6B596",
"aX c #EAB49C",
"sX c #ECBA9D",
"dX c #F1BC9D",
"fX c #CC89A1",
"gX c #D89AA3",
"hX c #DBABA5",
"jX c #E4ABA4",
"kX c #EBB4A3",
"lX c #EDBBA3",
"zX c #EAB7A8",
"xX c #F0B0A1",
"cX c #F1BDA4",
"vX c #F2BDAB",
"bX c #F2BCB0",
"nX c #BBC5BC",
"mX c #F3C39E",
"MX c #F1CB9D",
"NX c #D4C7B4",
"BX c #EAC3A8",
"VX c #F3C3A4",
"CX c #F6CBA5",
"ZX c #F8CCA7",
"AX c #F3C4AB",
"SX c #F6CBAC",
"DX c #F9CDAC",
"FX c #F9D1AB",
"GX c #F8D7A9",
"HX c #F7CBB1",
"JX c #F1D2B3",
"KX c #F9E1AE",
"LX c #FAE2B1",
"PX c #D1D2D2",
"IX c #E7CEC1",
"UX c #E8E9E9",
/* pixels */
"A.A.A.A.S.D.S.A.S.S.S.S.S.S.A.A.S.S.S.S.S.A.! A.! S.S.yXGXZXGXZXZXFXGXGXGXMXBXKXLXLXLXLXLXLXKXLXKXKXKXKXKXKXGXKXKXGXKXGXGXGXGXMXMXJ.P.mXdXdXF.XXn..XXXn.n.n.n.n.v.n.n.n.w.v.8.v.v.v.v.w.8.q.w.v.w. .v. .q.[ 8.q.q.q. .q.8. .8.o.F.K.c.8.8.[ c.Q K I I I I I I Q ",
"A.C.A.A.S.D.A.A.A.S.S.S.S.S.A.A.S.S.S.S.S.S.A.! ! D.L.GXZXFXZXGXZXZXZXZXFXpXGXLXLXLXLXLXLXLXKXLXLXKXKXLXKXKXGXKXGXKXGXKXKXGXGXGXMXK.mXMXMXxXXX.XXX.Xn.XXn.n.n.n.n.n.v.n.w.v.w.8.v.v.v.8.8.q.v.q.w.v.w. .q.8.8.q.q. .8. .| 8.q. .b.K.F. .[ 8.c.c.P I I I I Q I I ",
"A.A.c.c.S.A.A.A.A.S.A.S.S.S.A.A.S.S.S.S.S.A.A.C.A.D.MXZXZXGXZXGXFXFXFXDXpXSXLXLXLXLXLXLXKXLXLXLXGXLXLXGXKXKXKXGXKXGXGXKXMXKXKXGX5X5XZXMXMX0XXXn..X.Xn.n.n.n.v.v.n.v.n.n.q.w.8.v.w.v.v.v.8.8.w.w. .w. .w. .} 8.q.8.9.q.8.q.q.|  . .K.D.c.[ } [ c.Q P I I I I I Q ",
"C.A.D.A.! A.! A.A.A.c.A.A.A.A.S.S.S.S.S.S.S.A.C.D.xXFXZXGXZXFXZXFXDXDXVXmXLXLXLXLXLXLXLXLXLXLXKXLXLXKXKXGXGXKXKXKXGXGXGXKXMXMXyXG.yXMXGXdXXXXXXX.Xn..X.Xn.n.v.v.n.n.r.v.8.w.8.8.v.r.v.w.8.8.q.w.w.w.w.w.q.8.} 8. .8.9. .}  .8.| 8.v.K.F.[ 8.[ [ c.R I I I I I I ",
"! A.! C.A.A.A.D.D.c.c.A.S.S.S.S.S.S.S.S.S.S.M.C.K.GXGXFXZXZXFXFXFXDXDXpXLXLXLXLXLXLXLXLXLXLXKXKXKXKXKXKXKXGXKXGXKXGXGXKXGXFXZX0X7XdXMXGXwXXXXXn..X.X.X.X.Xn.v.v.r.n.v.w.8.w.7.q.w.v.r.v.8.8.q.w.w.w.w.q.q. .} 8.9. .8.| q.| 8. .8. .b.K.c.} [ } v.Q R I I I I I ",
"! ! C.C.A.c.A.K.K.c.D.D.Z.Z.S.S.S.S.S.S.M.M.A.Z.MXGXZXZXGXZXFXFXDXSXsXBXLXLXLXLXLXLXLXLXLXLXLXLXKXKXKXKXKXKXKXKXGXGXGXGXGXFXxXXX5XmXCXmX3XXX.XXX.X.X.X.Xn.v.v.n.n.n.r.w.q.r.8.q.w.r.w.w.8.8.8.q.w.w.q.w.q.q.} }  .9.9.8.8.7.8.} | | c.F.b.[ } } [ v.Q I I I K K ",
"! ! ! C.C.C.D.K.K.K.K.K.L.S.Z.S.S.S.S.S.A.M.Z.MXGXFXFXFXZXFXFXGXHXAXzXJXLXLXLXLXLXLXLXLXLXLXLXLXKXKXKXKXKXKXGXKXGXGXGXGXGXGX0Xb.uXCXMXaXXXXXn..X.X.Xv..X.Xw.v.v.n.r.r.q.w.l.8.q.q.r.w.r.0.} 8.w.q.w.w.q.8.} } } 7.q.q.} 7.| } q.} }  .b.b. .} [ [ c.Q I K K K K ",
"Q ! g.*XH m.H x.J.K.L.L.S.S.S.S.S.S.S.S.N.m.-X>X2XGXZXFXFXFXFXZXAXpXLXLXLXLXLXGXLXLXGXLXGXKXGXGXGXGXGXGXGXGXGXGXGXGXGXGXGXmX5XXXcXZXZXwXXX.XXXn..Xv..X.X.Xv.v.v.n.n.w.q.q.l.8.8.8.r.v.r.0.8.7.8.w.0.q.0.q.8.} } 8.8.9.9.7.8.| } 8.| | c.D.c.[ } }  .v.P P K K K ",
"Q o.Y.U.U.%X#XY.V.3X4XH.Z.L.L.Z.L.L.S.*X#X@X$X#X+XJXCXSXGXFXDXDXzXBXGXFXFXFXFXCXCXFXFXFXGXGXZXZXMXZXMXZXMXZXmXMXMXMXmXZXdX0XXX5XcXxXxXXX.X.X.X.X.X.Xr..Xr.8.r.n.r.r.w.q.r.l.q.9.0.w.r.w.8.} 7.8.0.w.0.0.q.0.} } 8.7.8.7.9.| 7.7.7.} } [ b.D.( ( } [ c.Q P P P J ",
"Q c.#X#XY.%X#XY.Y.+X%X+X*Xm.%X+X+X+Xm.@X#X;X&X#X=XJXGXGXDXJXGXDXpXSXFXDXFXDXDXFXFXZXFXFXLXFXZXZXCXMXMXZXZXZXCXmXmXmXmXdXdXXXXXuXdXxX0XOX.Xn..X.X.X.X.X.Xr.0.r.r.l.r.q.9.n.l.r.8.8.w.r.0.0.7.8.7.w.0.q.0.9.q.9.~ } } 7.7.7.} } | } 8.~ } c.b. .} } ~ o.c.P P P J ",
"Q H #XU.Y.@X@X*X%X%X=X#X+X&X#X+X@X#X=X#X$X2X$X#X2XJXGXCXDXFXSXlXsXDXFXZXCXDXDXDXZXFXFXFXFXSXZXZXZXmXmXZXZXmXCXVXmXVXmXdX0XXXXXuXdXxX.X.X[.n.n.n.).r.).r.r.0.r.n.r.w.q.w.x.l.l.7.7.w.r.r.w.7.7.7.0.0.q.0.q.9.} ` } 7.7.} } } 7.} } } } }  .b.c.} } ( } c.R P J P ",
"[ Y.#X#X@X#XI.H Y.*X=X#X=X&X@X-X@X@X=X#X&X:X=X:XNXGXGXJXFXFXBXpXFXFXFXFXFXFXDXDXDXCXFXFXDXZXZXZXZXaXZXZXVXZXmXCXVXmXmXdX0XXX5XdXdXtXOX.Xn.n.[..X.X.X.Xr.0.r.r.r.r.w.9.l.x.n.f.9.0.0.w.w.0.8.} } 9.q.w.9.9.9.9.} } } 7.7.=.} } } 7.} } ( 8.b.b.[ ( } } [ [ J L I ",
"X.I.#XI.U.#XI.H %XU.#X$X-X$X@X-X@X+X&X#X:X&X#X=XJXFXHXFXFXFXBXAXGXSXDXMXDXSXSXGXDXFXFXGXSXZXZXVXdXdXZXmXZXZXmXmXmXmXdXxX3XXX0XxXdX5Xn.n.n.n.n..X.X/.n.r.8.r.r.r.r.9.0.x.x.l.l.0.8.0.w.r.w.7.7.} 9.q.0.9.0.9.9.` ~ } } 7.` } ` 7.} +.} ` ` o.b.[ } ( ` { o.P I R ",
"..@X$XY.@X#XI.@X@X*X$X%X*X#X*X-X#X=X%X#X&X&X#X:XJXFXFXHXDXHXlXSXSXGXJXnXhXGXSXSXFXCXFXFXCXSXCXVXaXVXVXZXVXmXVXmXmXmXdX0XXXXXtXdXyX7XXXn.v.r./.n..Xn.r.r.0.0.r.r.w.w.d.l.x.l.l.0.7.0.0.0.0.7.7.} 7.9.9.0.9.9.9.7.~ } 7.7.} ` } 7.` } ` ` ` [ b.X.( ` ` [ c.Y I E ",
"H $X#XU.#X@XY.$X@X+X#X+X%X@X-X+X#X-X@X#X#X#X#X2XJXFXDXFXGXSXBXCXGXJXnX@X;XJXCXDXDXCXFXCXCXCXSXcXiXZXVXVXZXZXmXVXmXmXcX7XXXb.xXdXiXXXXXn.r.r..X.X[.n./.r.0.0.r.r.0.0.l.n.l.x.l.0.7.7.0.r.0.0.7.} } 9.9.9.0.9.9.7.` } 7.7.+.` ` ` } } } ` ` } c.v.~ ` ( ` X.W R W ",
"N.+XI.I.I.G H Y.Y.I.Y.H *X*X1X*X*X2X-X=X=X=X;XNXJXJXJXNXJXhXJXJXGXNX&X#X2XBXGXCXDXFXGXFXCXCXCXxXlXVXVXZXmXVXVXmXmXmXxXXXXX0XdXdX0X.X.Xv.r.r./.n./.n.r.0.0.r.r.r.0.0.x.x.`.l.).r.7.7.0.0.w.0.^ 7.+.9.0.0.9.=.9.+.` ~ ^ 0.7.` ` 7.` ` ` ` / ` | b.L ` ` ` { Z.I W ",
"M.W H I.I.I.+Xm.G I.I.*X*X>X-X=X*X-X;XnX=X=X=X;XnX-X:X=X=X=X=X;XPX2X#X#X=XnXSXDXCXFXFXSXZXCXVXiXcXmXZXVXVXVXVXmXmXxX0XXXXXiXdXdX7X.X.Xr.0.r..X.X.X).8.0.0.0.r.0.0.r.x..Xx.x.l.l.7.7.9.e.0.9.} ` +.7.0.9.7.7.7.7.} ` ` 7.+.7.~ +.` } +.` ~ ` } b.( ~ ` ` ( c.E E ",
"! X.%X#X+X%X#X+X+X#X+X@X@X*X@X@X@X#X&X+X#X=X#X#X:X#X$X&X$X:X#X%XnX&X#X#X@XNXDXDXSXFXDXCXZXVXvXiXcXCXmXVXVXVXmXVXdXxX7XXXXXxXpXuXXX).r.r.0.).).).).).r.7.0.0.0.0.0./.l.x.`.l.l.j.7.7.9.0.0.0.} +.} ` ;.9.;.7.;.7.` ~ ~ +.7.7.~ } +.` ` ` / ` ` f.[ ` / ` ` o.E R ",
"M...@X$XG @X#X*X%X$Xm.m.Y.*X#X&X&X#X:X:X:X:X#X$X:X#X:X=X=X:X#X=X2X#X#X#X;XJXCXSXGXJXSXCXSXCXiX0XVXVXVXCXmXVXVXmXmXxXXXXX7XdXaX0X.Xl.r.r.r.r.)..X.X).0.0.r.0.0.0.).r.).`.x.l.l.j.9.7.;.0.e.0.` ` +.` 7.7.7.+.7.;.+.~ ~ 7.` +.~ +.+.` +.` ) _ ` |  .~ ` ` ` { X.I ",
"M.m.$X%X*X#X@X*X#X+XX.! X.+X#X@X@X%X;X+X@X@X#X:X@X#X:X%X:X&X@X:X&X#X#X&XNXCXGXSXSXSXCXSXSXvX0X0XZXVXCXVXVXmXdXVXdX0XXXXX0XdXaX7Xl.l.r.l.r.w.).).)./.0.0.0.0.0.e.).).).l.l.x.l.j.e.+.+.0.0.0.+.` ` +.+.0.7.+.+.7.7.^ ^ ` +.` ~ ~ ` +.+.` ( ) ` ` f./ / ` ` ( X.T ",
"Z.Y.#X+XI.#X%X+X#XG X.W N.%X#X*X=X;X:X#X&X&X#X=X$X$X;X@X*Xa a nXnX=X#X;XSXSXZXSXDXDXSXCXCXkX0XxXVXVXCXVXVXVXdXmXxX7XXXoXiXdXuXXX).l.e..Xe.).).).).e.0.0.0.0.0.j.`.`.`.`.x.x.l.j.l.` 7.9.;.e.+.` ` ` ` 7.;.7.7.7.7.^ ^ ` ` ` _ ^ ` ` ] _ _ / ` ( f.~ / ` ) ` o.Y ",
"N.+X@X+X+X#X+X+X@XH E ! H @X$X%X@X&X&X#X=X#X$X=X@X&XG a a a a nXnX%X$XNXDXDXZXSXSXCXVXSXCXjX7XcXVXVXVXVXVXmXmXdXkXXXXX7XuXaX0X.Xr.r.)..Xe.r.).).).r.0.0.e.0.0.).`.l.x.l.~.j.l.j.j.9.+.7.0.0.7.` ` +.+.+.7.+.+.;.+.^ ` ^ _ +.` ^ _ +.+._ _ ^ _ ` | ` / _ / / o.R ",
"..@X#X*X@X@X*XY.+X{ R Q ..+X%X%X&X;X-X&X&X%X=X*Xa *XG a Y.a =X&X;X&X2XSXSXCXSXZXSXCXSXCXAXiX7XcXVXVXCXVXVXVXcXcX9XoXXX6XsXaX7Xl.r.).oX[.w.W.).).).0.0.0.0.;.l.`.`.x.x.`.`.~.~.j.j.9.+.+.;.0.+.+._ ` ` +.7.+.+.;.+.` ^ ^ ` ` ` ^ ) ` ` ` _ ~ / _ ` ` / ) _ / ] { ",
"m.@X#X%X#X@XN.N.X.E R E X.T ..H.MXKXKXNX2Xm.H.2X2XB.m.B.B.1X&X#X$X;XJXSXSXDXSXZXSXCXCXAXcX9X9XcXVXVXVXVXVXcXmXdX7XXXXX7XaXaXXX).r.)..X).r.0.).).).e.;.0.0.e.`.`.`.).`.`.j.x.l.j.l.e.+.+.7.;.;.+.` +.` _ +.+.` 7.+.7.^ ^ ) _ _ ^ ^ _ _ _ _ ~ i _ ) / ~ ) _ / | X.",
"..m.m.m.G m.T T W W W ! W ; X.N.MXGXKX1XeX,XB.JXL.H.eXeX,XNX&X#X#X2XJXAXAXSXSXSXSXZXZXSXbX7XiXVXVXVXVXVXVXcXdXaXoXXXXX0XxXiX).r.j.'. X'.e.).).).r.0.7.e.0.l.`.`.`.x.~.~.x.~.j.j.j.j.+.` +.9.=.+.;._ +._ +.+.+.+.+.O.^ ^ ^ _ +.^ ^ _ _ _ O.^ ^ ^ _ / t ^ _ t ( o.",
"W W I ! T ; T W W W T W 3 Y 3 y.eXG B.H.eXB.B.eX1XeXB.eXMXJX;X&X&X2XJXBXAXSXSXSXHXSXAXAXjX7XxXVXVXVXVXVXVXmXcXiXXX}.oXaXaXXXl.r.).oXoX'.e.r./.).W.0.;.0.e.`.`.`.`.`.~.x.j.`.x.j.j.e.+.7.+.;.9.+.7.` _ ` ` +.+._ +.+.^ ^ ^ ^ _ ) ^ ) _ _ _ ^ t ^ ) ) i / ) ~ ) f.",
"W E E E W 3 W ; T W T T W 3 N.B.qXN.y.B.B.eXBXAXMXpXBXSXSXZXPXNXNXBXSXzXSXSXSXSXAXZXSXvX7X7XxXAXCXVXCXVXVXmXxX9XXXXXXXxX9X).r.). XXX'.'.e.e.r./.W.0.7.e.~.).`.`.x.`.~.j.`.j.j.x.j.j.;.+.+.+.;.` ;.+._ _ ^ +._ _ +.+._ ^ ^ ^ O._ t ^ _ O.` ) t ^ ) ^ t ) ) t / o.",
"R E E E 3 T 3 3 T 3 N.T M.T N.N.NXB.,XJXeXJXJXHXGXBXJXJXDXDXDXFXHXSXHXkXHXDXSXSXZXAXAXbX7X7XvXVXVXVXVXcXdXVXdX7X).oX7XjX3X).).'.<X X'.'.e.e.).).W.0.7.W.~.`.`.`.`.~.`.`.j.~.~.j.j.e.j.` +.+.9.O.e.+._ ^ _ _ +._ +.+._ ) ^ ) ^ _ t ^ ^ O._ ) t t ) l t ^ / ) i ] ",
"I W W W T W 3 M.T 3 T M.M.Z.P.JX,X..MXKXHXFXHXHXHXlXSXHXFXHXHXFXHXSXzXzXSXAXCXSXAXZXVXxX7X7XbXVXVXVXVXVXVXmXsX6X.XoX9X9X).l.l. X'.'.'.'.e.e.e.).r.7.e.~.`.`.`.`.~.~.`.x.~.k.x.k.j.e.j.+.` +.;.+.=.=.^ O._ _ +._ _ +.O.O.i ^ ^ O.i i ^ _ ) ) i i ) i t ^ l i t | ",
"W W W T W W T 3 T N.T M.Z.Z.MXBXx NXJXJXHXFXJXJXkXAXHXHXHXHXHXFXHXHXjXkXAXSXSXAXSXVXSXgXfX7XvXvXAXVXVXdXcXsXjXXX).}.gXXX[.j. X X X<X X'.e.e.).W.W.;.~.`.`._._.`.`.`.~.`.j.~.j.j.j.a.j.=.O._ ;.O.&.0.;.^ _ _ _ _ O.+._ ) _ i i _ ^ i ^ ^ ) O.i t i i t t ^ h t ] ",
"W W T 3 T W W W W W M.M.S.Z.CXSXBXDXGXSXHXHXJXHXpXzXSXDXDXHXHXFXSXAX9XvXZXZXSXCXAXAXcXgXfX9XlXVXVXVXVXVXcXcX9XXXXXoXoXXX).'. X<X'. X'.'.j.W.W.).0.0./.`.`.`.~.`.~.~.x.j.~.k.j.j.j.j.a.=.` +.+.+.@.=.;.O.O._ _ _ ^ O.O.) O.^ i ^ ^ t i O.) ) i t i ^ t i ) l t / ",
"W ; 3 W W W W M.M.W M.M.Z.L.DXFXHXFXHXJXHXJXDXBXzXkXHXHXHXSXHXHXAXbX5XvXHXAXAXcXSXSXxX9X7X9XlXVXVXVXcXVXsXcX7X}.}.XX}.}.). X X X<X'.'.'.e.e.r./.e.W.).`._.`.`.~.~.~.!.k.x.!.k.k.j.a.e.a.+.O.O.+.+.a.;.-.^ _ ^ _ ) _ O.^ @.) ^ i i t i i ) ) i t i i t i i l i / ",
"I W W E W T E W ! M.M.M.Z.L.KXGXDXFXJXJXHXHXHXzXbXcXSXHXAXAXHXJXAXjX9XHXSXCXAXaXAXVXxXfX7XgXvXcXBXVXVXVXsXlXXX[.XXXX[.).'. X X'. X|.'.'.W.e.r.W.e.(.`.`.`.~._.`.`.j.!.!.j.j.k.j.j.j.e.a.;.O.O.+._ *.=.=.) ) i O.^ i -.^ O.O.t i ) t t i ) B i t i i t t i i i ^ ",
"W T W I R W E E W M.M.M.Z.yXGXJXFXHXHXHXHXDXHXzXkXAXHXSXzXHXHXAXAXhXjXAXAXSXvXkXVXAXjXfXOX0XcXcXVXVXcXdXcXjXoXXX}.[.).[. X X<X X|.'.|.'.(.e.e.).;.j._.~.`._.`.z.~.~.k.x.~.k.k.k.a.j.i.a.2._ _ +.O.&.i.=.*.) i ^ _ ^ O.^ ) @.i i i i t t ^ p i i r i r i ^ i t t ",
"T I R W R E E W W M.M.M.Z.mXSXSXDXHXHXHXAXHXAXzXrXHXSXHXzXAXSXSXHX9XjXAXSXAXzXkXAXAXgX7XOX0XcXVXmXlXVXcXdX0XoX[.oX[.). X'.}. X|.|.'.'.{.).0.e.W.9.(._._._._.k.`.~.~.k.!.k.k.k.j.j.a.a.e.j.&.O.O.+.=.*.=.*.O.^ O.^ p p _ i ' ) i i i r i ^ _ ^ i r t e i l i t h ",
"Y T R T E R E E ! W W M.N.VXAXGXDXHXDXHXlXHXAXzXjXHXHXbXjXAXHXSXvX9XzXSXSXAXjXzXVXAXgXOXoX0XcXVXVXVXcXlXcX9X}.).[.}.}. X X{.`.`.{.'.'.{.[.2.e.W.;.~.`._.~._._.~.~.!.~.~.~.k.k.k.j.a.j.2.a.=._ O.O.O.*.t.*.&.) i ^ p ^ O.l O.@.l i i r i i p i r t r e i l i t l ",
"J T R E E R E E W W E W N.ZXFXDXFXHXJXHXzXHXkXkXAXSXHXjXjXHXHXAXzX7XvXAXSXAXiXvXcXbX7XOXoX0XvXvXVXcXcXcXkX7X).XX).'.'.<X|. X'.{.~.(.).`.[.6.e.e.2.!.`.~.~.~.~._.~._.~.k.k.k.j.j.j.a.j.a.j.3.&.O.) O.*.t.*.*.@.l ) i i _ l l @.l i i t i i i ^ i r r e u i h t i ",
"Y T E X.W { E E W { W W J.ZXDXDXHXHXHXHXaXHXiXjXHXSXHXgXzXHXSXAXjX9XAXAXAXAXjXvXvXbX7XOXXX0XcXVXVXcXmXdXkX6X[.}.).}.<X|. X|.|.'.|._.(.j.~.e.;.2.e.(.~.~._._.~.!.!.k.k.k.k.k.k.s.a.a.j.a.=.a.*.) O.O.*.*.*.*.*.@.l i i i i ) @.O.i r e i r i p i e t r r l i r t ",
"Y T o.X.W W W E X.c.W Z.yXSXDXDXHXFXHXvXjXBXjXkXHXHXzXgXbXAXHXbXjX9XAXAXAXvXrXvXvXjXOXOXXX9XcXcXVXlXVXdXkXoX).'.'.<X6X<X<X|.|.|.'.{._.~.(.e.;.;.;.~.~.~.~.!.!.!.!.!.!.k.k.k.k.s.j.p.a.3.a.=.i.&.i O.&.*.*.*.*.&.@.l i i i i @.@.i u r e r i i r e t e i i i h i ",
"L R  .{ E { T X.o.c.X.X.mXSXDXHXHXSXHXpXzXaXbXjXAXHXgXgXbXHXAXHXgXfXAXAXAXvXgXvXvX0XOXoX'.0XcXcXcXcXcXdXjX'.[.).}.<X9X<X|.|.|.'.'.|.`.{._.(.;.;.;.2.!.(._.~.!.~.!.k.k.k.k.k.a.k.p.j.a.a.=.a.i.3.O.i @.*.%.*.*.%.@.-.l i i i l @.O.i i e e r i p e r e r l l r h ",
"L L L U { R E X.F.c.c.X.FXSXHXFXHXHXDXrXAXjXzXzXHXbXgXgXHXAXAXbXfX9XAXAXAXzX9XAXvX9XoXoXoX9XvXcXcXcXmXlXrX'.'.'.<X8XeX|.|.,X_.<X|._.'._._._.!.;.;.e.3.2.e.s.k.!.z.!.k.k.k.k.s.a.s.a.a.i.a.i.a.=.3.O.l *.%.%.*.%.@.&.@.l u t l @.O.l r e r r r i e t e i i i u i ",
"2 2 2 L Y Y Y  .h.o.X.Z.HXFXHXHXHXDXAXiXvXkXjXbXbXbXgXgXAXHXAXbXfX9XVXAXAXzXgXvXzX7XoXoXoX7XlXcXlXVXlXsXgX).`.<X,XrX9X<X|.{.<X{._.|.{.'._._.~.:.2.!.~.!.2.2.2.2.p.k.s.k.s.s.k.s.s.s.i.a.i.*.i.i.3.&.i %.*.%.%.&.%.' @.@.O.u u l l i i r u r u i r e e r i u u h ",
"2 < 1 L U Y Y Y { X.W G.DXSXFXHXHXFXlXjXzXzX9XbXHXjXfXgXAXAXAXzXfX0XBXAXVXjXgXlXzXfXoXoXoX9XlXcXcXsXcXkX9X~.}.<X9XlX8X<X|.{._.|.{.{._._._.{.~.!.3.!.!.!.!.k.2.2.2.&.3.e.a.s.s.s.s.i.a.a.a.t.3.i.3.*.%.@.*.%.%.%.@.@.@.' O.B r i l B c r r u r r r e e r i i r h ",
"1 1 1 L U U U U T X.W H.SXDXDXHXHXSXzXpXzXkXrXHXHXgXfXgXAXHXbXjXfXgXAXAXAXjX9XcXjX6XoXoX6X8XcXcXVXsXsXsX9X'.<X6XsXzX4X'.|.|.<X{.|._._.{._.(._.(.p.k._.!.!.!.!.k.s.6.2.2.2.2.3.*.2.&.&.3.i.i.i.*.*.,.,.&.@.%.%.@.@.@.O.l i l l C ' Z B l r i r r r e r i u u i h ",
"< < < L L U U Y { X.X.wXSXDXSXHXHXAXzXhXzXgXjXAXHXgXOXjXHXAXAXhX6XgXvXAXAXjX9XvXjXoXoX}.6X9XkXcXVXlXsXlX7X X<XrXBXpX<X<X|.'._.{.{._._._._._.!.!.!.!.!.!.!.k.Q.k.Q.!.s.k.2.2.&.&.;.3.3.3.i.i.i.*.i.%.%.%.@.' O.l l O.l l O.@.Z ' Z ' C l l l r r r e e u l i u h ",
"< L < < 1 2 2 U { X.X.wXAXSXSXHXHXAXzXzXjXgXbXHXbXfXOXgXAXAXAXgX6XgXAXVXcXgXfXvXgXoXoXoXoX7XkXcXlXsXlXsX6X<X,XhXmXyX,X_.'.{._._.~.!.Q.s.s.!.k.Q.!.k.k.!.k.k.k.!.s.s.!.s.s.s.s.s.a.3.a.a.i.i.i.i.%.i.i.%.%.O.O.O.' Z Z @.Z @.@.@.c Z c @.c z z u r e e r i u u / ",
"< 1 L < 1 2 2 U U { X.pXSXSXHXJXHXAXkXvXjX9XbXHXzXfXoXjXAXAXAXgXoXgXvXcXvXjXfXzXgXoX}. X6X6XkXcXsXVXsXxX3X|.4XkXmXrXy.k._._.~.!.s.a.i.t.,.@.@.@.@.@.@.i.s.!.s.k.k.s.s.s.s.s.s.s.p.a.p.i.i.i.i.3.i.,.,.%.%.%.@.@.@.@.@.@.@.@.' c c O.B c O.c c z y e e r i u r / ",
"< < e L 1 2 2 2 U Y X.aXAXAXHXSXHXvXkXAXrX9XbXHXgXOXoXjXAXAXvX9X6X9XAXVXAX9XfXbXgXoXoX}.<X6XkXdXcXdXsXaX<X|.,XBXpXpX_.h g B @.#.@.%.%.%.i.i.a.p.a.a.a.i.i.a.!.s.s.s.Q.s.s.s.s.6.p.p.i.3.t.i.i.%.*.%.%.%.$.@.#.c z z z z z c C B Z c Z c Z l c z l 9 9 r j l r ' ",
"< < < ~ 1 L L ~ Y T g.sXCXBXHXHXHXzXzXAX9XhXAXAXgXOXoXgXAXAXvXfXOXfXAXBXvX9X6XzXgX}.}.}.fX<XxXcXlXlXsXkX'.'.4XJ.qXV.) r , , , , , , 7 7 e 9 r r j j O.,.p.s.s.s.s.s.s.Q.a.p.p.a.p.p.i.i.i.3.%.i.,.%.%.%.@.C z z z l l x j l j N c c z c c c z B z 9 9 y j u r ] ",
"< < < L L 1 U ( ( X.g.MXAXFXHXAXHXpXzXAX9XgXHXbXfXoXoXgXAXAXvXgXfX7XbXlXcXgX6XbXfX}.}.}.6X XjXdXdXxXxXkX<X'.5Xh.U U < 0 , , > > > > , , 7 e , , > > > > r ,.s.Q.s.s.s.s.a.a.p.a.i.i.i.i.i.,.i.%.%.%.%.$.$.@.@.C z z k l j j j M j g g z c z c l g 9 9 r u t r d.",
"; < < 1 1 U 3 U { X.G.SXSXHXHXHXAXjXlXbX9XgXbXbXfXoXoX9XlXAXzXfXOX6XbXVXzXgXoXzX6X}.}.|.<X XjXsXsXdXsXxX'.d.( ( U h z S k 7 7 8 5 8 8 * 7 4 7 > * * > * > j p.a.s.Q.s.s.p.s.p.p.u.i.i.i.%.i.i.,.i.$.%.%.S g , > * : * & & $ $ $ & > k z c c c z g 9 e r u u r X.",
"< < < 1 3 1 3 U Y { G.BXHXBXJXAXBXzXkXAX9XgXAXzXfXOX6X8XvXAXzX6XoXoXzXlXlXgX}.jXfX}.}.}.<X}.9XlXlXsXaXaXx.| ( ( ' >X<X8XS m V b q 8 8 8 7 4 4 4 * * * > , , z p.s.p.s.Q.p.p.p.p.i.i.i.,.i.,.,.%.%.%.@.A j & % % @ % * * * # $ + @ % , j l z z k r 9 e u u u t ..",
"< < 1 1 1 1 3 Y T ( H.SXAXHXSXHXzXAXcXbX9XgXAXzXfXoXoX6XvXBXzXfXoXoXzXcXvXgX<XgXOX[.}.}. X|.9XkXsXsXaXaX,Xf.o.k.1XeXzX1X{.2X2X1XQ.n n T.q 6 6 4 4 6 4 * j g k A s.p.s.p.p.p.p.p.i.i.i.%.i.,.%.,.%.,.@.k > * * & * % $ @ + + + + % @ @ 7 l z k g r 9 9 r g t h ..",
"< ; 3 3 1 1 3 Y { { wXJXAXAXHXAXkXAXlXbX9X8XbXjX6X XoX6XzXAXzX<XOX[.jXcXvXgX}.gXOX}.[.}.<X|.6XkXsXsXxXaXXXf.h.,XhXBXNX,X1X2XfX2X1XT.n T.v v 6 4 7 q 7 8 y.%.r ,.p.p.p.s.s.p.p.u.i.i.i.,.,.,.u.%.,.@.#.j 8 s H D d 4 5 4 = + + + 8 d % @ 7 x k g 0 9 e u u u / ] ",
"< < 3 < < 2 1 U | ..pXAXSXSXAXHXkXBXkXbXgX8XbXjXfX[.<XoXjXBXzXfX}.[.9XvXvXjX}.OX}.}.[.|.<X}.'.kXsXaXaXaX3Xf.f.wXNXBXjXT.T.1X1X1XT.T.T.6 4 4 n v v 7 d 8 y.,X$.B p.p.p.p.p.p.p.3.u.i.u.i.%.,.%.,.%.%.#.g c Q.>X>X>X6 m 6 = + + + * y.s % & s l r 9 9 e u g r ' U ",
"; < < < < 2 3 / f.h.lXAXSXSXSXAXlXAXkXbX8XfXzXjX6X}.fX}.jXvXzXfX}.).6XzXzXjX}.}.[.}.[.{.<X<X`.rXaXaXaXaX8Xf.f.5XBXzXbXp n D D n T.T.v $ 4 4 v T.n 6 v 8 y.,Xa.a.p.p.s.p.p.p.p.p.,.,.,.3.i.%.,.%.$.$.c c ,XV >X>XT.n d 5 5 4 4 4 * B.H , * g j e 9 9 9 u u 0 ] U ",
"< < < , < 2 / 9.x.b.HXAXSXAXSXvXzXAXlXvX9XoXjXjXfX XfX{.gXzXzX8XOX].'.kXlXjX}.[.}.}.[.}.{.<X{.8XaXsXaXaX8Xx.d.G.BXBXNXc v D M v n T.n $ 4 4 v n n d n v !.,Xs.Q.s.p.p.p.p.p.i.3.i.,.%.u.>.%.%.%.>.$.#.y.z.5 m V n n + 4 6 6 4 4 = B.g.s 8 j g 9 9 e 9 u u r ] 1 ",
"< < < < < 2 ) d.G.V.HXAXSXAXSXBXBXAXlXvX9XoXfXjXOX}.fX}.fXbXzXfX}.].'.gXlXzX6X}.[.[.].}.<X|.{.6XaXaXaXaXrX`.8Xh.zXBXBXB.M D D n D n T.6 4 d n T.n n n n ,X_.p.p.p.p.p.p.p.p.i.,.,.u.i.,.u.u.>.%.>.%.$.y.y.8 d 6 n 6 + + 4 6 4 4 * B.B., 0 l j , 0 e r r u r { ; ",
"2 2 < < 2 t ( l.'.G.HXAXAXAXSXzXBXBXzXvXfXoXOXzXfX{.<X<X}.zXbXfX}.}.[.8XlXjXfX}.}.[.[.{.|.<X|.'.iXaXaXaXrX_.8X4X,XBXNX4XV T.T.n D D n T.T.n Y.n n n n V ,Xa.a.p.s.p.p.i.p.p.u.u.u.,.,.%.%.%.y.$.$.$.S t.y.d d 6 d d + + 6 6 5 5 = V.B., x j 0 0 0 0 9 u j 3 ' ; ",
"U t 2 2 h 2 ' x.x.4XAXAXAXSXSXkXAXAXzXcXgXOXoXgXOXOX<X<X}.gXbXgX}.[.}.6XjXzX6X[.[.[.[.{.<X|.<X_.9XaXuXaXiX_.3XhXB.eXBXeXF T.D D n D n T.T.T.T.T.T.T.n Q.Q.Q.p.p.p.p.p.p.i.u.u.i.3.,.u.%.%.u.$.,.%.$.$.$.k.d a 6 d a 6 5 a 6 5 6 s V...s k l 0 e e e 9 r r x Y - ",
"U ~ / ( t t ] d.h.5XAXSXAXSXAXkXAXVXlXvXjX X[.fXfX{.OXOX].OXbXgX}.[.}.{.jXzX9X}.[.[.].}.}.1X<X_.8XaXaXuXaX'.,XrX,X,XqXhX>XF D D T.T.T.T.T.T.T.T.>XT.D y.a.s.p.p.p.p.p.p.p.i.,.i.u.,.,.%.%.%.,.$.$.$.#.@.u.d d d d a d d a 6 6 d x B.x x k j 0 7 9 e r u g ..1 ; ",
"L 2 h / t 2 ) f.h.iXAXSXAXAXAXjXAXAXkXvXjX}.oXoXfX}.OX1X{.{.gXhX}.[.<X{.fXjXiX}.[.[.].{.}.fX<X'.'.iXaXaXaX3X`.rXeX_.i.z.eXC D T.D T.T.T.Q.T.T.T.{.>XF u.Q.p.p.p.p.p.u.u.u.,.u.,.,.,.,.>.%.$.$.$.S #.#.#.S f d d n n n n v d v d B.B.x k k g 0 0 9 7 y u h d.; ; ",
"( 2 2 / U t ( j.x.zXAXAXSXAXAXpXAXAXlXcXzX6X}.}.fX[.}.fXOX].<XhX}.[.|.}.|.iXzX<X[.[.].].|.gX1X|._.4XaXaXaX9Xx.rXrX_._.i.p.i.C A p T.D T.F T.F D T.Q.Q.Q.Q.p.p.p.p.i.p.u.,.,.,.u.u.,.,.%.$.$.%.$.$.$.#.#.A V d n n n D n n n H V z...k x k r 9 7 9 9 y r h ( L J ",
"( ( ` ` / / ] l.x.lXBXAXAXAXkXlXAXBXkXcXvXgX}.[.[.OX[.<X<X{.}.gX<X[.{.|.].7XaX9X[.[.].].|.gXzX<X[.'.iXuXyXiX~.4XiX,X!.!.!.s.s.p.R.R.<.<.1.1.1.Q.R.Q.p.p.p.p.p.p.u.p.i.3.u.u.u.,.%.>.,.>.%.%.$.$.$.S #.#.Z C V v n n G m n n G H S g k k z 0 e e 7 e y g ] U ; Y ",
"( ( 9.] / ` 9.x.3XlXBXAXAXAXhXAXAXAXsXcXAXjXoX}./.[.].|.<X}.~.}.fX{.].{.(.'.iXjX|.[.].(.<XeXzXeX|.~.8XuXuXuX3X,XtX3Xk.k.a.j.a.s.R.5.p.p.p.p.p.p.p.p.p.p.p.p.p.p.u.p.u.,.u.,.,.,.,.,.$.>.%.$.$.$.S $.#.#.Z #.Z c N j q s 8 8 7 g g k x k z r 0 e 7 e g u ] - ; 1 ",
"U ( ] ` / / d.`.8XAXAXVXAXvXrXAXBXAXaXvXvXvXfX}.[./.[.[.|.<X^.[.}.{.^.(.{.].8XjX6X[.].(.{.<XpXpX6X_.'.iXuXaX7X`.rX,Xj.j.j.k.2.k.<.2.3.3.i.3.6.a.6.p.p.p.p.p.p.u.p.u.,.i.,.u.,.%.,.>.>.%.>.$.$.$.$.S S Z Z Z Z Z B C z z z j k x j j z j x r 9 7 0 e r r / # - # ",
"U / ] ] / / ] x.8XAXAXAXAXzXrXAXAXAXkXBXBXvXzX6X}.W.].].}.|.(.].].].].{.|.{._.jX9X[.].].!.<XpXpXrX,X`.8XaXuXtXx.5X3Xd.i.=.2.=.=.=.3.*.*.*.3.3.3.i.p.p.5.p.5.u.p.5.u.u.,.,.,.,.,.$.,.>.%.%.$.$.#.@.@.S @.@.Z Z Z c c z z l l j l l l j x z e 9 9 7 r r h 3 # o o ",
"( | e.] / / =.x.9XcXAXAXSXjXjXAXAXAXkXlXAXlXcXgXoX[.].{.].}.{.(.].].].].|.{._.<XhX}.[.[.!.<XpXmXpX8X`.`.9XuXtX<X'.V.j.e.t.e.=.=.=.=.*.=.*.*.*.3.3.3.p.p.p.1.p.u.u.u.,.u.u.,.,.,.,.>.>.%.$.%.%.$.S #.S Z Z Z Z Z c z l z g l h j g g j h g e e 9 e e r ' 2 ; O   ",
"c.b.x.9.' ` d.x.rXAXAXAXAXhXzXAXAXcXkXlXAXlXlXzX7X}.[.[.{.^.|.!.].].].^.{.{.{.].9X9X].].^.<XhXpXsXpX,X(.XXrXuX5Xd.'.d.=.=.2.=.=.*.=.&.&.&.@.&.&.3.3.i.u.1.5.u.u.u.,.,.,.,.%.>.,.$.,.$.$.%.%.z.t.#.#.A A Z A Z B z z l j h l g h g g g h x , e > 9 r t ] L ; -   ",
"v.b.3Xl.| =.9.x.rXAXAXAXAXrXvXAXAXAXsXzXVXAXAXzXzX6X}.[.|.~.{.{.^.^.].].{.}.{.].'.gX'.].(._.eXsXpXsXrX,X~.3XiXrXx.k.d.3.d.=.=.=.=.=.] &.&.] =.&.%.3.,.5.p.1.u.u.u.1.u.,.,.,.,.$.>.$.,.$.%.g.H.z.$.Z @.A Z Z Z c B z l l j g g g g g g h h 0 e 7 9 r h U L 1 - O ",
"c.b.7X'.d.0.d.'.jXVXVXAXbX9XvXAXAXAXlXkXBXcXcXlXlXfX}.<X|._.|.|.{._.R.Q.Q.{.{.{.(.3X9X].].!.8XpXpXBXpXrXz.`.8XiX7X6.2.9.i.=.=.=.=.=.O.&.&.&.&.@.*.,.,.p.p.u.u.1.u.,.,.u.>.,.$.,.$.>.$.%.$.V.H.H...A A Z O.Z Z C z l l l g g h g g g g h h 9 0 e 9 r ' 1 J L ; O ",
"b.G.3XXXf.d.9.x.zXBXAXcXzXrXVXAXAXVXlXaXcXcXcXAXlXfX}.gX6X^._.{.{.{.{.4.^.(.{.{.(.(.6X'.].Q.,XsXpXpXpXpX8Xj.`.5XwXx.=.i.9.;.=.&.&.&.&.&.&.O.] %.%.*.3.,.,.5.u.1.,.,.,.>.>.%.>.>.>.$.#.$.$.t.V.G.t.Z A Z Z Z Z c c z j g l g r l g t g / r , 7 , w h / 1 I I ; - ",
"c.b.3XXXf.9.d.x.vXAXAXvXjXrXAXVXVXvXzXrXcXvXcXlXlX9X}.9XgX}.^.!.{.{.{.{.^.E._.(.{.!.(.oX~.(.`.rXpXMXyXyXyX,XQ.,X5X3X2.=.=.=.=.&.&.&.+.&.=.@.&.&.&.3.,.i.,.,.u.,.1.,.>.,.>.>.>.>.%.$.$.$.S #.%.%.$.Z A Z Z Z Z B C z l l h g h g g g r ..e e > 9 y h U J I P < - ",
"c.b.7XXXl.d.d.4XAXAXAXvXgXjXAXVXAXVXpXrXcXlXVXlXcX9X_.oXjX'.[./.Q.^.{.{.{.Q.Q.Q.u.u.Q.^.}.^.k.8XpXyXMXpXpXpXx.j.x.7Xj.O.2.3.=.*.&.&.&.@.&.&.3.3.3.,.u.i.,.,.,.1.,.,.,.>.,.>.$.>.$.$.$.$.#.@.S A x A A Z Z C C N z z z j g g r g t r h ..> > > e r 2 L K I P J ; ",
"b.XX7XXXf.9.0.rXAXBXlXzX8XjXBXAXlXBXjX9XcXBXlXlXlXgX).}.gX'.[.].^.E.W.{.{.{.].{.{.{._.E.W.(.!.,XpXpXyXpXpXyXrXV.k.'.!.+.2.=.=.=.*.*.*.3.:.*.3.,.,.,.3.5.1.1.,.,.,.>.,.$.$.>.$.>.$.S #.#.#.#.#.A j A Z Z Z Z Z Z z z z h l g g j g 3 h ..: > 7 e r L J K I P L J ",
"b.XX7XXXj.d.d.lXvXlXAXjX3XzXVXBXVXlXrX7XvXlXcXlXsXjX|.[.fX X].]./.W.W.p.Q.{.{.{.{.{.{.{.Q.W.^._.eXpXpXpXpXpXyXrXx.a.e.;.O.3.6.i.*.*.*.3.3.,.,.3.2.u.,.,.,.1.,.1.,.,.>.>.>.%.>.$.>.S S $.#.#.A Z Z Z Z Z C Z B N c z z z l g j g g g l ) : > e e h 1 ; K P I I P ",
"3X7X7XXXl.d.f.HXcXcXlX9X8XvXVXBXAXBXgX3XlXcXcXlXsXkX X(.OXOX].].].R.^.^.<.Q._.{.{.{.{._.!.^.k.(.4XpXpXpXyXyXyXpXuX,X&.-.O.B 3.3.i.3.i.3.3.u.u.,.u.,.,.1.1.1.,.>.1.>.>.>.>.>.$.#.$.A S $.A A A A Z Z Z Z Z N N Z C z z l z j j h g g ' 3 > > e e ; ; J J K K K I ",
"3X7X6X'.j.d.x.vXlXAXzX9X9XcXcXAXlXlX9X'.jXcXlXlXkXkX6X/.[.}.]./.^.^.^.R.^.R.Q.^.{.{.Q.{.{._._.`.z.eXyXpXmXyXyXyXyXwXz.:.-.-.&.,.p.i.p.5.5.u.,.p.,.u.1.,.,.,.1.>.>.>.>.>.>.S -.$.A $.A $.A Z Z Z A Z Z Z C Z Z M N C N z k l l g g j t., $ e e > - ; J J K K K I ",
"XXXXXXd.d.d.5XlXcXcXjX6XkXcXcXlXcXzX7XoXiXlXsXlXkXkX8X/.].].]./.^.R.].R.^.^.R.<.^.Q._.].Q.{.{.,X3Xg.yXyXyXmXpXyXyXyX4Xa.-.O.O.-.p.u.u.u.i.u.u.p.p.p.1.,.,.u.>.>.>.>.>.$.$.$.$.$.S A $.A A A Z Z C Z Z Z C C C C N C z l z j x j x h .., > e e > - ; ; J J J K K ",
"x.f.f.| | 9.9XAXlXcXiX6XvXcXcXcXcXkX6XoX9XsXlXsXaXkXgX].].].]./.^.^.R.R.^.^.W.W.5.R.Q.Q.!.Q.!.z.9X4XqXyXyXyXpXyXpXwXqXk.s.-.-.B #.5.1.p.p.u.u.Q._.u.u.1.>.>.1.>.>.>.$.$.>.$.>.A $.-.#.A A Z A A Z Z Z Z Z C C C N C z z k l k j k ' ] : > > > > - ; ; J J J J J ",
"f.o.o.{ }  .pXBXlXcX9X8XzXVXcXlXzXjX6XoX7XsXsXcXsXaXjX)./.]././.^.R.R.^.^.R.^.^.R.R.R.R.R.R.^.R.,XtXyXyXpXyXpXyXyXyXwXk.s.Q.i.#.B -.u.u.u.u.p.Q.>.u.1.u.>.>.,.>.>.$.$.>.#.#.#.#.$.A $.A A Z C Z Z A C C C M C N N N z z l z j x h ../ , e $ # # - - ; ; ; ; ; ; ",
"b.X.{ ( ( d.kXlXcXzX6X9XcXlXcXlXkXjX}.).3XkXkXsXaXsXjX'./.]././.^.R.R.^.^.^.^.R.R.].R.].^.R.R.^.s.4XuXyXyXpXyXyXyXyXeXB.a.Q.s.p.1.B B u.u.1.,.1.Q.u.>.>.>.1.>.>.>.>.$.$.F -.S A #.A A A A Z A B Z C C C C C C C N N C z k k z l c g.g 7 $ # # # - X X - X - - X ",
"wXG.h.[ ( b.BXlXlXjX6XiXlXVXlXlXlX9X}.).oXjXsXsXsXsXkX6X/./././.^.R.R.R.^.R.R.^.R.^.R.R.R.^.R.^.E.k.5XuXyXpXyXpXyXyXwX,Xk.s.p.p.p.u.>.>.u.u.1.,.>.u.>.1.>.u.>.,.>.>.>.>.F A $.A A A A A Z Z Z Z C C C C C c N N N N z k k k z x ..d., > # # # @ O O O X - : - - ",
"zXwXG.o.[ 4XcXsXcX9X6XiXlXlXlXlXkX6XoX).XXrXsXlXaXaXsX9X^./././.^.R.R.^.^.R.^.R.^.R.^.R.^.R.R.R.W.E.z.wXyXyXyXyXwXyXwX4Xs.p.Q.p.p.5.5.u.1.1.u.>.,.>.1.>.>.>.>.F >.A A F -.>.A A S A Z A A Z Z Z C Z C C C C C N N N k k k x z ' g.h , > $ # # # o o @ : 0 r , : ",
"hXwXG.o.{ iXsXVXkX6X6XkXlXlXlXlXkX X[./.}.9XaXaXsXaXkXrX_.W./.^.^.R.R.^.R.^.R.^.R.^.R.R.R.R.R.R.R.s.6.,XwXyXyXyXyXyXwXqXz.p.Q.p.p.p.1.u.1.u.1.,.,.,.>.>.>.>.$.>.>.>.>.S #.#.A A Z A Z Z C C Z C Z C C C N C N N N z k k k k x ..g.< 9 * # # # # O @ * e i O.O.i ",
"rX4Xb.o.o.BXlXsXjX6X8XlXlXlXsXlXjX'.[.).[.6XkXaXaXaXaXiXoXW././.].R.R.R.^.R.^.^.^.R.R.R.R.R.R.R.R.6.5.3.,XwXyXyXtXyXyXP.z.p.p.p.u.u.u.u.,.,.u.>.,.>.>.>.>.:.F >.#.F A A S A A A A C C C C C C C C C C C C N N N z z k z j z ' g.c j 9 $ # # $ O o # , l 4.W.W.-.",
"5XJ.b. .G.VXlXlXrXoXrXkXlXlXlXsX9X}.'./.).XXaXaXaXaXiXiX3XW./.W.^.^.R.R.R.R.^.R.R.R.R.R.R.R.R.R.R.R.6.6.i.3XwXyXwXyXwXwX,Xp.p.p.p.1.u.,.1.u.,.>.,.>.>.>.>.>.A >.A $.S >.A A A C C N M k j k M C N N N N N N N z z k x k j c g...g y 0 : # $ # @ @ : r B 6.!.W.2.",
"8XG.v.o.9XVXlXlX9X'.kXlXsXkXsXkX7X[.].[.[.`.iXaXaXaXpXaX9X~.W./.^.R.R.R.^.R.R.R.R.R.R.R.R.R.R.R.5.R.6.6.3.i.3XwXyXwXyXwX,Xs.p.p.p.u.u.1.1.>.1.>.>.:.>.>.>.>.>.>.>.A S A A A A C j 0 s q s s 7 j N C N N N N N z z z z k x ..h.h r y 0 $ # # # X @ $ , z $.i.y.i.",
"jX9XG.h.kXsXsXkX6X3XlXxXlXsXsXaXoX[.(.[.[.[.7XuXaXaXaXuXiX`.e.^.^.^.R.R.R.R.R.R.R.R.R.R.<.<.R.R.R.4.4.R.5.2.=.4XwXyXyXwX4Xy.p.u.1.u.,.1.u.>.>.>.>.>.>.>.>.A A S A A A $.A Z N w > > * : $ @ @ 7 k N N N N N z z z z x z ' g.' 3 y y 9 > & & # @ O $ 8 s x x N.H ",
"JXhX5X3XlXlXlXjX'.9XsXlXkXsXaXjXoX[.(.[.[./.'.uXaXpXuXpXiX6X!.W.^.R.R.R.R.R.R.R.R.R.R.R.R.R.R.<.R.<.4.4.4.4.*.i.H.wXP.wXwXz.p.i.p.1.u.,.>.>.>.>.u.>.>.>.>.$.>.A A A A A A Z u > : : * : : # . * k N N N N z N z z z k c g...g w w y 9 e > : # o o @ & : s x G H ",
"IXhX5XqXlXsXlX6X'.iXsXlXlXsXaX9X}.)././.(.[.`.rXyXaXaXuXuXrX~.W.R.^.R.R.R.R.R.R.R.R.R.R.R.<.R.<.<.R.4.4.4.4.5.3.&.H.wXwXwX3Xa.i.i.u.,.,.>.u.>.>.>.>.>.F $.A $.A #.F A A Z N , > : > : : $ $ @ @ j N N N N k z k z z c ..h.h g y y y 9 u e > & @ o o o % = s x G ",
"IXzX4XrXlXlXaX X<XkXsXlXsXkXsXgX[.]./.]././.`.7XuXuXpXuXaXiXoXe.].R.R.R.R.R.R.R.R.R.R.R.R.R.<.R.R.4.4.4.4.4.1.:.@.g.H.P.P.wXz.i.u.u.,.,.>.>.>.>.>.>.>.#.#.#.F #.#.A A A Z N 0 > > : > $ : # @ 7 k N N z z z z k x c ..g.h g y w w y y p u e > & & o . o & , x G ",
"IXzX4XzXlXlXrX X6XlXsXkXkXaXaX6X[./.W.]././.(.XXuXuXaXuXxXtX5XW.R.R.R.R.R.R.R.R.R.R.R.R.<.R.<.<.<.4.<.4.4.4.4.:.' G.h.B.wXP.V.i.i.,.u.%.%.>.>.>.>.>.$.$.A A #.A A A A A B C M w > : : : * : > j k N C N N k k k x ..g.h y p y y y y y p p y , , : & . % & = x G ",
"NXhX4XBXsXzX7X X8XkXsXsXsXsXiX X[.].W.[./././.~.uXiXaXuXuXuXiXXXR.R.R.R.R.R.R.<.<.R.<.R.<.<.<.R.4.<.4.<.:.:.:.4.:.V.wXg.z.qX4Xa.i.,.u.>.>.>.>.>.-.A $.#.A $.A #.A A A A A C B C M u w 9 0 j k k N V k k N k z z ' h./ w y y y q w y y e i u h < ; & % % % s s G ",
"NXpXhXmXkXiX3X`.9XpXaXkXaXaXjX'.].W.W././.]././.3XuXuXuXuXuXxXOXW.R.R.R.<.R.R.R.R.<.R.<.<.R.R.<.4.4.<.<.<.:.:.&.%.B.P.4Xg.g.4XB.,.u.,.,.u.$.>.>.F $.A F $.A A F A A A A C C C C B N N N M z N N N k N k N k x ' g.' r y u y y q q y y 9 j j x 3 3 = % % % = s x ",
"lXrXBXsXkXrX'.,XhXsXsXaXaXaX9X_.].W./././.^././.l.iXuXuXuXuX0XgX[.R.^.R.<.<.R.<.R.R.R.<.R.<.<.<.<.<.4.:.4.:.:.:.3.g.P.P.H.g.*.z.y.%.%.,.$.$.$.>.$.A $.A A $.A A A A A C A B C C N N N N N N N N k N k N k k ' g.h y u y y y p e y y y 7 s x x x 3 3 : % : s 3 x ",
"kXeXBXsXkX3X`.3XzXsXaXpXsXaX3X_./.E./.W.^.^.^.^./.3XuXtXuXuXuXtX9Xj.2.E.6.<.R.4.R.R.<.R.-.<.R.<.<.<.<.<.<.<.-.T.:.g.P.P.P.qXz.' t.%.u.>.,.>.>.A A >.>.A A A A A A Z A A C S C C C N C N N N N N k N k k z ' t.h e u u w y y y w y y w e e p e e e e : # : , 3 x ",
"yXsXlXaXrX'.j.4XlXpXaXpXaXiX'.]./.W././.^.^.^.^.^.'.0XuXuXuXtXuXrXXX2.R.R.<.4.4.4.4.<.<.R.-.-.<.<.<.-.<.<.-.-.-.&.g.wXP.P.wX4Xh.$.Z #.%.>.#.F >.>.A A A A A A A A A C C C C C C N C N N N N N z N k k x c ..g y w u y y u u y q w y q q 7 e e e - - # # # , 3 x ",
"rXsXaXkX8X).d.9XiXpXaXpXaXrX_./.W.W.W./.^.^.^.^.^.(.7XtXuXtXuXtXtX5Xj.2.6.6.<.R.<.R.<.R.B R.-.-.<.<.<.<.R.-.-.-.:.g.P.P.P.P.P.wXg.t.c c #.$.$.S A A A A A F C A C A C A C C C k C N N N N N N M k k k c ' 9 u y w y y 9 y y y q y y w q e e e > - - X X o : s ' ",
"qXBXaXpX3Xd.d.wXiXpXaXaXuX9X].(.W.W./.W.W.W.W.W.W.^.x.wXtXuXuXtXtXwX7Xe.4.4.<.4.4.4.<.<.R.-.R.R.<.<.-.<.-.-.-.-.,.g.P.wXP.P.P.P.H.z.%.#.B C A A A A A A A A A A A C A C S C C C C N N N N z N z k k c x r y y j w y y y y y y q w y w 9 > > $ - - X X X o & , 3 ",
"rXsXaX9X).+.x.3XaXuXaXpXiX7X/./.W.W.^.^.E.W.W.W.W.W.j.3XtXtXtXtXtX0X0XXX;.2.4.-.<.4.4.<.<.<.<.<.<.<.>.<.-.-.-.-.@.g.P.P.P.P.P.L.H.V.u.%.#.A z N A A A A A A Z Z C A C C C C C N N N N N N N k k k k r y w y j y y y w y w y y 9 w y y q > # - # X X X X O O : 3 ",
"mXpXuX6Xd.] G.G.sXaXuXaXiX3X(.W.W.W.^.W.^.E.W.W.E.W.!.j.0XtXtXuXtXtXP.5Xx.4.2.-.;.4.<.-.<.<.-.<.<.<.-.-.-.-.-.-.' g.P.P.P.P.P.P.P.H.%.%.>.A A B M B C A Z A Z A A C A C C C C C N N C M z M k j y w y M q u y y 9 u y q y y w 9 w w q q > X # X X X X   O   & & ",
"sXaXiX'.] | x.5XaXuXuXaXrX'./.W.W.W.W.W.W.W.W.W.E.E.E.W.b.tX0XtXtXtXtXtX7Xj.2.4.-.<.<.R.<.-.<.<.A R.<.-.-.#.@.u.y.h.P.P.wXP.P.P.P.H.t.$.$.$.A A A B M j M Z Z Z Z Z C C C N C N N N N N k k j q y y w y q u y y q y y q y w y q w w w e 7 X X X X X X X   O o o ",
"pXuX3Xe.( f.h.iXaXaX5XuX9X_.W.W.W.W.W.E.W.R.R.R.E.E.W.W.e.0XtXtXtX0X5XwXwX3X2.4.-.<.<.;.-.<.<.-.R.B -.-.-.Z B.u.H B.P.P.P.P.P.P.L.H.t.$.$.$.A A A A A Z j j M C N C C M C C N N N N k k M j q y y j p y w y y y 9 y y q y y y 7 q w 9 w 7 X X X X X X O X O O o ",
"pXtX`.| ( b.d.xXuXiX5XiX7X(.^.W.W.E.W.E.E.E.R.E.E.E.6.2.6.x.9XtXtXJ.7X5XwX5XG.=.:.O.-.:.:.<.-.-.B R.B -.%.a.z.H S V.P.P.P.P.P.P.H.H...#.#.#.#.S A A Z C C C V j j M z C N C C N z N k j w q y y y y p q q y y y w y q y y w y 9 w w q 9 e # X X X X   X X X X O ",
"uX7Xe.[ ] b.g.aXuXrX5XiX'.(.^.2.W.W.E.W.E.E.E.R.E.6.R.;.6.e.3X5XtX5Xf.5X5XtX5XXX&.-.-.-.:.-.>.-.R.p -.B c V.y.F S H.P.P.P.P.H.P.H.H.t.$.$.S Z A A Z A C A C C C N j q j k M k k z j s 0 y y M w j y y w y y y y q w 9 q y w w 9 w w 9 9 9 # - X X X X X X   O O ",
"tX'.| { h.| G.uXuX3X9X9X~.^.W.6.E.E.E.R.E.E.R.6.E.R.2.<.R.e.j.5XtX5X3Xx.5XJ.tX5Xx.&.-.-.-.-.-.-.-.O.p $.t.4XB.C x H.P.P.P.P.P.H.L.H...$.@.#.#.A A A A C C C C C C C N k g w j f f 7 8 8 w p w p p y p q q y y w q w 9 y y y w 7 w w 9 w 9 > X X X X   X X X # # ",
"5Xf.[ { b.] 3XuXuX,X5X8X(.W.6.E.^.E.W.R.R.R.R.6.6.4.<.R.5.a.2.x.J.tX5Xl.x.5X5XJ.5Xx.-.O.>.-.-.@.B $.M M y.qXeXH c V.P.P.P.L.P.L.H.V.%.S S #.Z S A Z A C A C C C C N C M M k j s s 6 8 5 8 7 q f q y f q q j w w 9 y 9 q w y q 9 w w q 9 9 > # O X X X   # # : : ",
"x.o.E  .| ] 9XyX9Xb.iX3X^.E.4.W.R.E.R.R.R.5.R.R.4.4.<.4.R.4.5.=.3X5X5X3Xa.x.5X5X5X5Xl.O.O.-.@.' y.Z m M B.eXeXB.x B.H.P.P.J.P.J.L.V.y.' #.S Z Z Z C S S C C C N N N C N N k M s m s 5 6 6 6 8 = 5 8 7 8 8 8 7 7 9 w 0 w w w 0 0 q w w 0 0 , # o   o   o # : : : ",
"f. .{ c.( | tXtX7X'.9X'.(.E.R.E.6.E.R.6.R.4.4.5.4.:.4.4.4.4.4.6.j.4XP.5Xj.j.b.J.J.5XJ.x.O.O.@.d.z.N M b z.qXwXeXy.' B.H.H.L.P.H.J.V.S $.#.Z Z Z A Z C C C C C C C N N k k k f d m d 5 6 6 6 6 6 6 8 d 8 8 n b v q q 0 w w q 9 0 q w w 0 w 7 # o   .   o # & , , ",
" .Q [ o.U f.aXtX3X3X8X~.e.6.R.R.R.R.6.R.R.4.4.R.4.O.4.4.4.5.4.2.2.f.5XJ.4Xe.&.3X5XJ.J.5Xx._ z.h.h.S V M y.wXeXwXqX$.y.z.H.H.L.L.H.N.%.S #.#.Z Z Z C C S C C C C N N k C k k s f m f 6 5 6 6 6 6 6 6 d d 6 d 8 8 q q q w w q 9 7 8 q 0 w q 7 # @ o . . . o & : , ",
"X.E F.[ U G.uXrX'.4X3X^.R.R.R.6.6.6.R.5.R.4.4.4.-.-.4.4.4.:.4.2.2.2.x.5XJ.x.2.9.G.J.J.J.J.x.] g.z.y.M b S 4XwXwXqX,Xc ..g.H.H.J.H.V.@.@.Z Z Z Z Z C C Z C V N N N N C k k k s M f b f 5 6 d 6 6 6 6 6 8 d d v v q 7 q q w 9 7 v f 7 8 0 0 0 $ .   .   . & - : < ",
"R o.b.( / uXtX9Xl.7X'.^.E.4.6.R.R.4.R.4.4.4.4.4.O.-.4.4.<.4.:.4.;.2.3.G.5X3Xd.;.=.4XJ.J.J.G.n.9.h.y.M M V B.wXeXqXeXB.c ..t.V.H.H.B.' S #.Z Z Z C C C C C N N N N k N k k V 8 f m f f 6 6 6 6 6 5 a 5 5 6 d 5 s f 7 e f w 0 8 v m m f s 8 0 > o . . . . % - , < ",
"R c.R L { uXtX3X~.9Xk.E.6.2.R.R.6.R.6.4.R.4.4.<.O.<.<.4.<.;.:.<.:.4.:.=.G.J.G.2.:.d.5XJ.J.J.J.G.=.k.M M V y.qXwXqXqXeXB.c $.%.B.H.g.@.Z Z Z Z Z C C C C c N C N N N k N k j s s s f d s 5 6 6 6 5 6 5 5 5 6 s a 7 0 w f w 0 8 f f f f v f = * . . . . . & : , < ",
"[ c.P ~ G.uX9Xx.`.3Xe.R.4.6.R.6.R.4.4.4.2.4.<.-.-.-.<.<.:.<.:.:.:.4.<.&.e.G.5Xj.&.@.l.J.5XJ.J.J.V.*.M M b x ,XwXwXeXqXqXB.k S ..t.y.@.Z Z Z C C C C C C C C N N N k N k k j 8 s B.m.m.H 5 5 5 G G m G s = 5 5 B.& * = > > s G % G % m = f v 5 % % + . . o : , < ",
"o. .( ( tXtX5Xj.'.).W.6.4.R.6.5.4.4.4.R.4.4.<.-.-.-.<.<.4.:.;.4.:.:.:.:.=.d.G.3X=.:.&.b.K.5XJ.J.J.G.@.M b j y.qXqXwXqXqXqXB.c V @.#.S c Z Z C S C C C C z z M N N k N k k M s >X1X>X>XnXH = G PX1X1X1XnX= = m.UXUXPXPX2X  s 1XH PXUXUXs 6 b b d 4 4 = . o : - < ",
"b.[ ~ o.tXtXXXj.'.(.e.4.6.4.6.6.6.4.4.4.4.4.-.-.:.:.:.:.:.:.:.:.:.:.:.&.:.&.d.H.z.-.O.d.G.J.P.J.G.F.G.@.M j k 4XqXwXqXwXqXqXB.C x Z Z Z Z Z C C C N N N N N M z N M N k M x s >X2X>X1X2XG = % nX5 . G B.= 5 2X+ nX>X>X= . 2XUX2XPXUXPX= s G b b d 5 5 = & # > < ",
"c.[ [ b.tX5X`.(.`.6.R.4.R.6.R.4.4.4.5.4.4.:.O.-.4.4.:.4.:.:.:.:.:.:.-.@.' ' B.h.G.=.-.@.x.G.J.5XJ.G.G.b.&.M f y.qXqXqXwXqXqX,XB.V x C Z Z C C C C C N N N N N N k k k M k x 8 nXUXPXUXPX2X+ = G 2X5 PX5 = = % . PXPXPX>X+ m.UXm.2XUX>X= 5 f b b v d 4 5 4 & - , ",
"[ [ | 5XtX5Xk.e.(.e.4.4.R.4.4.5.6.4.4.:.:.-.-.-.:.4.:.:.:.:.:.:.-.@.@.' g.g.V.qXx.d.&.O.&.V.G.P.J.G.h.G.G.' j G H.qXwXqXqXP.qXqXB.G s k C C C C N N N N N N k N k k j V j M & G 2X-X>XG s   5 + >XUXG + 5 = % = 1X=   . + 2XnX>XPXUX>X% s m m b b b f 5 5 4 > < ",
"[ [ f.uX5X3X(.(.W.6.:.6.6.5.6.5.4.4.2.4.:.-.-.O.:.:.:.<.:.@.O.@...d.g.B.h.h.B.qXV.j.@.-.O.d.G.J.P.J.G.d.b.V.@.j y.qXqXqXqXqXqXH.,XB.V M j k C C c V N N k N M k M k x k j j 8 >XnX>X1Xy.s % = m.2X2X2XG % s >XUXs G >X>X  B.1Xm.2XUX2X% = m m b m b b f 5 5 = : ",
" . .0XtX5Xl.s.E.6.R.:.6.4.6.5.4.4.4.4.2.-.:.O.-.:.&.@.) ) t.g.g.h.N.B.h.V.h.g.qXqXz.B -.O.O.G.G.J.P.J.h.] G.h.' A B.4XqXqXqXP.qXH.,XS V V s j c k N k N N N k N j M k f k f s 1X5 PXUXUXUX. 2X>X+ + s nX*X5 G PXUXUXnX>X  s 1X1X2XPXH G = f b m b b b b v 5 = * ",
"[ c.uXtX7Xj.6.6.6.<.4.6.5.4.4.5.5.4.:.:.O.-.) @.@.&...g.B.h.h.h.h.V.h.V.B.h.g.qX4X,XC B B O.=.G.J.J.J.H.h.=.b.h.' y.,XqXqXP.qXqXP.qXB.G V V f f M N z z k k k k k k k k k j > % = = = % % % % + = 5 = + o % + + % % @ @ * * & . % % % % d d d b b m m v v f 5 = ",
"[ G.tX0X'.E.s.6.5.;.4.5.4.5.2.2.2.&.2.@.O.] t.g.h.V.V.V.V.V.V.B.V.h.h.z.h.g...y.u.H M p B B O.d.F.J.J.J.G.=.=.x.h.' z.4XqXqXH.qXqXV.,XV m V V f s s N k k M k k k k M j j j f 8 G s s d s d s 5 5 a = 5 5 5 5 5 8 7 w r 0 0 8 8 = 5 6 v b m d f b m m m m b f = ",
"} 5X5X5Xz.e.6.6.2.2.6.6.5.4.4.4.&.,.' =.g.B.h.V.V.V.h.V.h.h.B.h.h.B.z.h.g.g...H H F M v M B p +.b.G.J.J.F.G.' 9.G.z.' V.P.4XqXH.qXqX,XV V m m m b f s f j j k k k j k M j j s d d s m d m d s a 5 5 5 5 6 5 5 5 5 0 g t.e r w 8 s = 4 d b b b d v m m m m m m b ",
" .tXwX3Xe.a.6.6.2.4.5.2.3.2.O.&.t.d.V.V.V.V.V.G.V.V.B.h.h.V.h.z.5.>.S A S C k V D D b v q p B B d.H.G.F.J.F.h.' d.G.d...,XH.qXH.H.qXB.G m V m m m b f s d j j j k j j j x s s s m s d m f n s d 4 5 5 5 5 5 5 6 5 0 g | h c g 0 s 6 5 5 d v m v 8 b m b m b b f ",
"H.tX0Xx.6.6.6.2.:.2.2.3.&.] g.V.V.V.V.V.V.V.N.h.h.V.h.h.h.y.S m v v v v n v d D F D v v v v p B &.V.F.G.J.H.G.d.) d.b.t.B.H.qXH.qXH.,XG V m m m m m m m b d 8 f j j j j s 6 d n d m n d f d d d 6 = a 5 6 5 5 5 5 7 r ../ ] g.h 8 s = 5 5 d v v v d b m m m m m ",
"tX0X5Xj.e.2.6.:.3.=.*.d.g.V.V.V.V.V.V.V.V.V.V.B.B.h.z.y.S M b v v v v v v v d V V D v v v q w B l d.G.F.H.J.G.h.' O.h.h...V.qXqXqXH.,XS G m m m b b m m f b f s s f g s s d s m n f d d d n d d 6 5 6 5 6 5 5 5 5 7 g ] ( ' f...s s s 4 5 6 v m m d f m m m m V ",
"tX5Xx.6.6.6.2.&.O.g.h.V.V.V.G.V.V.G.V.V.V.h.V.h.g.$.M V v v v v v d v v v v q M D D v d v d v k l =.G.G.F.F.J.F.h.) &.b.g...V.4XH.P.V.H m m m b b m m d m b v d f 8 s 8 s d 5 = s d m f d d n d d 5 5 5 5 5 5 6 5 8 0 ( ..h X.g.h 5 s 5 5 5 8 b b b d f m m m m "
};
