/* XPM */
static char *out[] = {
/* columns rows colors chars-per-pixel */
"128 128 251 2 ",
"   c #181516",
".  c #231C1B",
"X  c #1F1E24",
"o  c #201E23",
"O  c #361E2B",
"+  c #1E2225",
"@  c #1D2528",
"#  c #222226",
"$  c #242429",
"%  c #2B252C",
"&  c #2C2A2C",
"*  c #35262D",
"=  c #392933",
"-  c #343234",
";  c #462936",
":  c #443A39",
">  c #3F403F",
",  c #47413E",
"<  c #4D3941",
"1  c #573745",
"2  c #673D4E",
"3  c #4B4746",
"4  c #544847",
"5  c #54504F",
"6  c #5A5655",
"7  c #6E4F56",
"8  c #68555B",
"9  c #6E625D",
"0  c #575A65",
"q  c #695962",
"w  c #775964",
"e  c #5D626E",
"r  c #696566",
"t  c #796568",
"y  c #696A75",
"u  c #776C72",
"i  c #6D727B",
"p  c #76767A",
"a  c #845A56",
"s  c #875A69",
"d  c #85676A",
"f  c #866A74",
"g  c #976979",
"h  c #89767A",
"j  c #957679",
"k  c #A77B78",
"l  c #88817C",
"z  c #AC837D",
"x  c #6F7580",
"c  c #767984",
"v  c #9C6C82",
"b  c #887B85",
"n  c #967B85",
"m  c #AD798C",
"M  c #CA7D97",
"N  c #7C8289",
"B  c #878589",
"V  c #968589",
"C  c #888893",
"Z  c #8C8C95",
"A  c #958A93",
"S  c #929296",
"D  c #989699",
"F  c #A68789",
"G  c #B28D8A",
"H  c #A78993",
"J  c #BA8499",
"K  c #A79698",
"L  c #B5979A",
"P  c #B0A29D",
"I  c #9A9CA4",
"U  c #AE95A3",
"Y  c #B89AA4",
"T  c #9EA2A9",
"R  c #A7A6A9",
"E  c #B7A9A8",
"W  c #A8ACB3",
"Q  c #B5ADB2",
"!  c #ADB2B8",
"~  c #B6B5B7",
"^  c #BBBBBC",
"/  c #C5849B",
"(  c #CD829C",
")  c #D2839E",
"_  c #C99591",
"`  c #D0A69D",
"'  c #E2A79E",
"]  c #CB8AA4",
"[  c #D486A2",
"{  c #D58BA4",
"}  c #D88DA7",
"|  c #D58DAA",
" . c #DA8EAB",
".. c #CA96AA",
"X. c #D593AD",
"o. c #DA93AD",
"O. c #D29CAB",
"+. c #D18FB0",
"@. c #CD97B2",
"#. c #D495B3",
"$. c #DB95B2",
"%. c #DD9AB5",
"&. c #D69BB8",
"*. c #DD9CBB",
"=. c #E09AB6",
"-. c #E19DBB",
";. c #C7A7AA",
":. c #D9A9A4",
">. c #CDB4A9",
",. c #CAA9B3",
"<. c #D6A5B5",
"1. c #D3ABB5",
"2. c #D6A4BA",
"3. c #DCA3BD",
"4. c #D6ABBB",
"5. c #DBACBD",
"6. c #C9B7B8",
"7. c #D4B3BB",
"8. c #DCB2BD",
"9. c #D6BABB",
"0. c #E4ABA3",
"q. c #E3A2BD",
"w. c #E3A8BE",
"e. c #E2B5B6",
"r. c #C8C2BE",
"t. c #D6C3BC",
"y. c #E3CCBD",
"u. c #AEB7C0",
"i. c #B8BCC4",
"p. c #DF9EC0",
"a. c #E19FC2",
"s. c #DEA3C2",
"d. c #D5AAC0",
"f. c #DDACC2",
"g. c #C6BAC4",
"h. c #DDB3C2",
"j. c #D8BBC5",
"k. c #DCBBC4",
"l. c #E3A4C2",
"z. c #E9A6C2",
"x. c #E4ABC3",
"c. c #EAABC5",
"v. c #E7ABC9",
"b. c #E3B4C5",
"n. c #EAB3C7",
"m. c #E2BAC6",
"M. c #E5B5C9",
"N. c #EBB4CA",
"B. c #E4BCCB",
"V. c #EBBCCC",
"C. c #F1BACF",
"Z. c #E8BBD1",
"A. c #EBBED2",
"S. c #BDC3C9",
"D. c #BEC7D0",
"F. c #C2C5CC",
"G. c #C8C8C8",
"H. c #DCC2C4",
"J. c #D8CAC7",
"K. c #DEC3CA",
"L. c #CFD1CE",
"P. c #D9D2CC",
"I. c #C4CBD3",
"U. c #CACBD4",
"Y. c #D5CCD4",
"T. c #CAD1D5",
"R. c #CBD2DA",
"E. c #D4D3D3",
"W. c #D8D7D9",
"Q. c #DCDBDC",
"!. c #E2C3C6",
"~. c #E4C3CC",
"^. c #EAC2CE",
"/. c #E4CBCC",
"(. c #E8C9CB",
"). c #E6D2CC",
"_. c #F2D7CF",
"`. c #E6C4D1",
"'. c #ECC4D3",
"]. c #E5CBD2",
"[. c #EBCBD4",
"{. c #EEC5D9",
"}. c #E5CED8",
"|. c #EDCCD9",
" X c #F1C4D4",
".X c #F2CAD5",
"XX c #F1C5DA",
"oX c #F9C6DA",
"OX c #F3CCDA",
"+X c #FACCDD",
"@X c #E5D5D5",
"#X c #EBD3D4",
"$X c #ECDBD4",
"%X c #EDD3DB",
"&X c #E3DDDB",
"*X c #ECDBDC",
"=X c #F2D3D6",
"-X c #F8D2D6",
";X c #F2DDD6",
":X c #F3D4DC",
">X c #FAD3DD",
",X c #F4DCDB",
"<X c #FADBDD",
"1X c #D7E1DF",
"2X c #E7E2DC",
"3X c #ECE3DD",
"4X c #F3E1D6",
"5X c #F6E7D7",
"6X c #F5E4DC",
"7X c #F9E4DE",
"8X c #F6EADE",
"9X c #F9EADE",
"0X c #CDD7E0",
"qX c #D8DCE3",
"wX c #FACEE1",
"eX c #EADCE1",
"rX c #F4D5E1",
"tX c #FCD4E2",
"yX c #F5DCE3",
"uX c #FBDBE3",
"iX c #FBD9E9",
"pX c #FDDDE9",
"aX c #DBE3E7",
"sX c #DCE4EC",
"dX c #DEE9F1",
"fX c #E4E4E4",
"gX c #ECE3E3",
"hX c #EDEAE4",
"jX c #E5E8EC",
"kX c #ECEBEC",
"lX c #F5E4E3",
"zX c #FAE4E4",
"xX c #F5EBE2",
"cX c #F9EAE2",
"vX c #F5E4E9",
"bX c #FCE4EB",
"nX c #F4EBEB",
"mX c #FCEBEC",
"MX c #ECF1EE",
"NX c #F5F0EB",
"BX c #FCF1ED",
"VX c #E7EDF3",
"CX c #FBE8F1",
"ZX c #FDEDF1",
"AX c #ECF2F5",
"SX c #F4F3F4",
"DX c #FDF4F4",
"FX c #FCF8F7",
"GX c #F4F7FB",
"HX c #FDF7F8",
"JX c #FDF9F9",
/* pixels */
"+ + X . X . X X o $ $ o % > q b A J J m M M ( M ( M [ ) M ) ) [ ) [ } [ } [ [  .[ ] | | o.o.o.$.$.$.%.=.=.=.=.-.-.-.-.q.-.q.o.q.q.w.w.c.w.b.c.n.b.N.n.N.C.C.C.V.V.V.B.V.'.[.].Y.*XeXmXDXZXSXZXnXvXnXDXZXNXHXHXDXHXHXJXFXJXJXJXJXDXFXFXDXJXHXJXJXJXDXkXDXGXFXFXJX",
"+ + X X X X X X $ # $ @ & - q b K F m / M M M ( M M M ) [ ) ) [ ) [ [ } } } }  .( [ |  .X.$.+.$.#.$.o.%.=.=.=.-.=.-.-.q.-.q.$.-.c.w.w.w.b.c.n.b.M.N.N.n.n.C.C.V.A.V.V.'.'.|.rXyXvXmXZXZXZXZXDXmXnXnXSXCXDXZXDXDXDXDXJXJXJXFXJXDXDXFXFXJXHXJXHXJXHXFXHXnXDXFXFXJX",
"+ + X X X X X X + # @ + & < q n F m J / M M ) ) ) M M ) [ [ [ [ [ [ { } } { {  .( X.| o.$.$.$.$.$.%.%.-.=.-.-.-.q.q.q.q.q.q.=.q.c.w.n.w.n.c.n.v.N.N.N.C.C.C.V.V.V.'. X:X,XuXbXZXDXZXDXZXZXDXZXDXNXgXCXDXZXDXDXDXHXJXJXJXFXFXDXFXFXFXFXDXFXJXFXFXHXFXJXFXSXFXFXFX",
"+ + X X X + + + + # @ @ & < t n m m / M M ) ) ) ) M M ) ) [ [ [ { [ } } {  . .o.( } X.$.O.$.$.$.$.%.=.-.-.-.-.-.q.q.q.w.q.z.=.-.c.w.w.n.c.c.n.n.N.N.N.C.C.C.^.^.'.|.uXbXCXCXHXDXZXZXZXDXDXZXDXZXHXgXvXFXZXHXDXDXDXDXJXJXJXFXJXDXDXFXFXFXJXJXJXJXJXFXFXJXSXSXFXFX",
"+ o o o X + + + @ # @ @ & 1 s g J / / ) ( ) ) ) M M ) ) ) [ } [ { { } } } o.X.o.{ X.o.o.o.%.%.$.=.=.q.=.-.-.q.=.q.q.q.q.q.w.$.w.c.c.w.n.c.n.n.n.N.n.C.C.e.^.^. XtXpXbXCXmXZXDXmXDXDXDXZXDXZXZXDXSXZXhXvXHXSXDXDXDXJXJXJXJXJXJXDXFXFXFXFXFXFXJXJXFXJXJXFXFXSXSXFX",
"+ # # # X + @ @ # + & & = 1 s m J / ( ( M M ) ) M M ) [ } [ } } } } } o.} } o.{ } X.O.%.%.*.%.%.=.=.=.=.-.q.q.w.q.z.w.z.q.z.3.c.c.c.c.c.c.C.n.n.V.C.m.^.^. X-XcXbXCXmXmXCXnXDXDXDXDXZXDXDXDXDXZXDXJXnXeXZXZXDXHXDXHXDXDXFXFXJXHXHXHXFXJXFXJXFXJXJXJXJXJXFXDXNXFX",
"# # # # # @ @ @ # # o O = 7 g M / ( ) ) ) ) ) M ) ) [ } [ } } } } } } o.X.o.o.{ X.o.%.%.%.*.%.q.q.q.=.q.q.q.q.q.q.q.z.z.q.c.q.z.c.c.c.n.n.n.n.C.V.V.B.^.-XuXbXzXmXmXmXZXnXNXSXDXDXDXDXZXZXDXZXZXDXHXNXvXhXDXZXDXHXDXFXFXFXFXJXJXFXFXFXFXFXFXFXJXJXJXFXJXFXFXSXSX",
"# # # # # # @ # # # O O ; s m / ( ( ) ) ) ) ( M [ } } } } } } } } } o.o.o.o.o.} o.o.%.%.*.%.*.%.0.=.q.q.q.q.q.w.z.w.z.c.z.c.3.c.c.C.n.n.n.C.C.n.B.A.'.:XpXmXmXbXmXmXBXnXZXnXNXDXDXDXDXZXDXZXDXDXDXCXDXZXeXZXDXZXHXDXDXFXFXFXDXJXHXFXJXFXFXFXJXFXJXJXJXJXFXJXFXSX",
"# $ # # $ $ @ $ o o = ; 2 m ( ( M M M  . .M M M } } } } } }  .}  .o.o.o.o.=.$.o.O.o.=.=.-.-.-.-.-.-.q.w.l.q.x.z.z.z.z.c.z.c.l.c.c.c.n.N.M.V.'.^.`.OXuXbXbXmXBXDXmXBXBXnXSXlXnXFXDXDXDXZXDXZXDXZXDXZXDXDXgXnXDXZXHXDXHXFXFXFXDXJXJXJXJXDXJXFXFXJXJXJXJXJXJXJXJXJX",
"# # # $ o @ o $ $ % ; 1 v / ( ( M  .M M M M M  .} } } } } }  . . .$.o.=.o.=.o.X.o.%.%.=.-.-.-.q.-.q.q.q.q.z.z.z.z.z.c.c.c.c.q.c.N.N.n.N.N.B.B.|.iXbXbXbXbXzXzXBXBXBXBXBXNXhXhXDXFXFXDXDXZXDXZXDXHXDXDXmXNXeXCXHXDXDXDXSXFXFXHXJXJXJXJXHXDXJXDXJXJXJXJXJXJXJXJXJX",
"$ $ # o o @ $ $ O O O s m [ ( )  .M M  . .M M  .} }  . . .=.=. .=.$.$.$.=.o.=.| $.q.=.-.q.-.q.q.3.q.w.z.q.l.z.z.z.c.c.c.v.N.b.c.x.c.V.V.!.[.zXbXbXmXmXmXmXmXBXmXDXmXmXBXZXmXhXnXSXDXDXDXDXZXZXDXZXDXDXZXNXgXgXDXDXDXDXHXFXFXFXJXDXJXJXJXJXDXDXJXJXJXJXJXJXJXJXJX",
"$ $ $ O $ $ $ % O O 2 m _ ( ) ) M  .M  . .M  . .} }  . . . . .=.$.$.=.$.=.=.%.| $.=.=.-.q.q.q.q.q.q.q.l.x.z.c.c.c.c.c.c.v.N.c.x.x.n.V.^.%XzXzXbXmXmXmXmXmXmXmXmXmXZXZXZXZXmXeXnXDXDXSXFXDXSXDXZXDXDXDXDXDXvXgXmXHXDXDXFXFXFXFXDXDXJXJXJXJXJXFXJXJXJXJXJXJXJXJXFX",
"$ $ % $ $ $ % % O ; g / ] ) ) )  . .M  .M =. . .a.M  . . .=. .=.$.=.=.=.%.=.=. .=.=.-.q.-.q.q.q.l.q.x.3.x.x.v.c.c.c.c.v.N.N.v.w.n.V.+X<XzXzXbXmXbXmXbXmXmXmXZXBXmXmXDXZXZXnX@XeXFXJXFXFXDXDXSXDXDXZXDXDXDXZXfXgXFXDXFXDXFXFXFXJXJXJXJXJXFXJXJXJXJXJXJXJXJXJXFXGX",
"& $ $ % $ % % O ; 2 m m / { ) )  .M =.M M  . . .M  .=. .=. .=. .$.$.=.$.=.*.=.o.%.q.=.q.q.q.q.q.q.w.q.z.x.z.c.c.v.c.v.N.v.c.n.w.V.+XuXpXzXmXzXbXbXcXmXmXBXmXmXZXDXmXmXmXmXvX@X&XZXDXDXDXDXDXZXDXDXDXDXZXHXHXvX*XNXDXFXHXGXHXDXJXJXJXJXFXFXFXFXJXJXJXJXJXJXJXFXJX",
"$ $ & % % % % = 1 v ] ] / ) { { M  . .M M =.a.M z.=.$.$.$.$. .=.#.=.*.=.=.-.-.o.=.q.q.q.w.q.q.w.w.w.z.x.x.z.c.c.c.v.c.v.N.M.N.3.C.uXbXbXbXmXcXbXcXbXbXmXmXmXZXBXDXmXZXZXmXmX@XeXgXDXHXDXHXDXDXDXDXZXDXDXDXDXCXeXgXHXDXHXFXFXDXDXFXFXJXJXFXFXJXJXJXJXJXJXJXJXJXJX",
"& @ % $ % % = O s m ] ] { ) { )  . . .M M =.=.=.z.M $.$. . . .=.=.$.%.-.*.-.-.o.=.w.q.q.q.q.q.z.x.w.w.z.x.x.v.x.N.C.N.N. XC.v.<.V.wXbXbXbXmXmXzXbXzXBXbXmXZXmXZXmXmXDXmXZXmX*X].lXCXDXHXHXDXNXDXDXDXDXDXDXDXDXgXeXSXZXJXFXFXFXFXJXJXJXJXJXJXJXJXJXJXFXJXJXJXJXJX",
"& $ & $ * O O ; v J _ { { { } ) M =.M  .M a.p.a.=.M a.M z.M a.z.%.%.*.=.*.-.*.X.q.w.q.q.q.w.q.z.c.c.c.c.c.c.b.b.B.B.'.oXuX+XV.4.B.OXbXbXzXmXmXbXbX,XmXmXcXmXZXmXDXmXDXmXZXmXlX].eXmXZXHXHXDXnXDXDXDXZXDXDXDXDXvXfXkXDXDXJXJXDXJXJXJXJXJXJXFXJXJXFXFXJXJXJXJXJXJX",
"& $ % % * O O s m / ] { { ) } { =.M M  . .$.=.M a.a.z.M a.M =.a.-.%.-.q.*.q.q.X.-.w.q.w.w.q.w.w.c.c.N.c.v.M.b.d.k.|.bXCXCXuXV.5.b..XbXmXbXmXmXzXmX;XbXbXbXmXmXmXZXBXBXmXmXmXvX].*XvXmXDXJXJXSXDXHXZXDXDXDXDXDXDXgXvXnXFXJXJXDXJXDXJXFXFXFXFXJXFXJXDXDXJXFXJXJXFX",
"& $ & & O O 1 v { [ { ..{ } } } M $.$.$. .$.=. .=.a.M =.a.$.a.=.q.=.-.*.q.q.3.X.-.z.q.z.z.l.x.l.x.c.c.q.x.b.M.`.:XpXCXCXbXuX`.h.h.'.uXmXmXmXmXmXmX*XlXmXmXmXBXDXmXZXDXDXmXmXmX#X}.yXmXZXHXJXDXDXDXDXDXDXDXDXDXmXlXfXnXSXJXFXHXHXDXJXJXFXJXHXJXJXFXDXJXJXFXJXJXFX",
"$ - $ & % = w J ] { { { { } } o.a.M M $. .$.$.=.M z.z.a.=.M a. .*.-.q.q.q.q.-.X.-.z.q.w.z.c.l.c.c.c.x.x.v.V.tXpXpXvXmXCXnXbXk.k.k.^.uXbXmXzXmXBXbX*X6XvXmXmXZXmXZXBXmXmXDXDXCX%X|.eXbXDXJXJXJXFXDXDXDXDXDXDXDXDXmX&XhXSXFXJXJXJXJXFXJXJXFXJXHXJXJXDXJXJXJXJXJXFX",
"- & & % * ; g / | { |  . .|  .o.M M  .$.$.=.$.=.=.=.=.-.M =.=.=.-.-.q.q.q.c.*.%.q.z.z.q.q.x.l.c.c.c.x.f.^.>XuXuXlXnXmXZXZXmX'.k.m.~.tXbXbXmXmXmXzXlX#XvXmXZXZXmXmXBXBXBXmXDXbXuX#X%XpXbXJXJXFXDXDXDXDXDXDXDXDXDXmXeXgXNXDXJXDXJXHXFXFXFXHXHXJXJXJXFXFXHXJXJXJXJX",
"@ & & = O 2 m  . . . . .o.| X.$.p.p. .=.$.=.$.=.=.$.=.-. .z.=.=.q.-.=.q.-.c.*.q.q.l.w.w.w.x.c.x.x.x.B.^.>XzXzXlXlXvXnXmXmXmX[.h.B.B.:XbXbXmXmXmXzXzX#X,XbXZXmXBXBXBXBXBXBXBXmXzX].%XrXvXDXJXFXFXSXBXDXBXDXDXDXBXnXlXeXnXDXHXDXHXDXDXFXFXFXFXJXJXJXFXFXFXJXJXJXJX",
"% & % - ; g / |  . . . .o.o.$.#.M $.a.$.$.=.=.=.*.$.=.=. .=.a.-.-.q.q.q.q.z.q.w.3.x.l.w.w.w.c.c.N.c.oXuXuXuXzXyXcXnXnXmXmXmX.Xk.m.h.|.pXpXmXmXmXbXzX#X%XbXmXmXBXBXBXBXBXBXBXBXzX].%XrXiXZXHXJXFXFXBXBXDXDXBXDXDXmXvXeXcXZXDXDXHXJXFXFXFXFXJXFXHXFXFXFXFXJXJXJXJX",
"- % = = : H ] {  . .o. .o.o.$.$.p.M  .=.=.=.=.=.%.*.p.=. .=.=.z.w.q.q.q.q.3.w.c.q.q.w.w.w.b.c.c.v.N.+XpXuXbXzXlXvXvXxXZXDXZX:Xk.k.h.'.pXbXmXCXbXzXbX#X%XpXbXmXmXmXBXBXBXmXBXmXzX[.].%XyXnXDXJXDXBXFXBXBXDXDXmXZXDXmXeXeXbXDXDXHXDXFXFXFXJXHXJXJXFXFXFXFXFXJXJXJX",
"- $ = ; w M @.+.} o.o.o.%.o.$.$.{ $.o.$.=.*.-.=.%.%.q.#.%.-.-.l.w.w.w.q.w.*.c.n.3.w.w.n.x.x.x.v.v.b.+XuXuXzXzXzXvXlXcXmXmXmXuX!.M.m.B.:XbXbXmXmXbXmX;X[.yXbXbXmXBXmXBXBXBXmXmXmX:X].|.%XvXZXHXFXBXFXDXBXDXBXBXDXDXmXlX@XvXDXZXHXHXDXDXFXJXJXJXHXDXDXDXFXDXDXFXDX",
"= - = ; v M +.+.o.$.o.o.%.$.$.$.] =.$.=.=.=.=.-.*.*.*.#.*.3.-.l.l.q.q.w.<.w.n.n.3.x.<.w.b.N.N.x.x.b.C.uXuXuXzXyXvXvXvXZXmXZXbX[.k.'.b.|.bXbXbXmXbXbX,X].:XbXbXmXmXBXmXmXBXcXcXBX,X[.:X%XeXCXHXJXBXSXBXDXDXDXBXBXDXDXlX@XlXZXHXDXDXJXDXFXDXHXHXHXHXSXSXFXFXFXFXFX",
"% - ; 2 J ] ] +.o.o.o.o.o.o.O.X.| =.=.%.$.-.=.l.q.-.*.#.*.l.l.p.l.q.q.w.%.C.w.N.<.n.<.b.B..XXXN.5.b.N.tXuXbXuXzXyXcXlXmXnXZXbX#Xk. Xm.'.uXbXmXbXmXcXyX].[.zXmXmXmXBXmXBXmXBXmXmXzX[.%X|.*XvXDXJXFXBXBXFXDXDXFXDXDXmXzX}.yXCXDXDXDXDXDXHXDXDXDXDXHXDXnXHXFXDXHXDX",
"- = ; c ] |  .+.o.o.%.O.o.%.$.{ $.$.=.$.=.-.=.a.*.q.*.#.s.*.l.l.q.w.w.w.5.n.e. X<.b.b.^.+XtX+XN.v.b.b.tXuXbXzX<X@XcXlXmXmXZXbX:XB.'.V.~.OXmXbXbXmXzXyX/.`.,XbXbXbXmXmXcXBXBXBXmXbX|.|.|.rXyXmXDXFXBXBXFXBXBXDXBXDXmXmX*XeXbXDXDXDXDXDXDXDXHXHXDXDXDXDXDXDXDXFXFX",
"= < 1 H ..|  .=.o.%.O.%.$.$.$. .a.$.-. .-.=.=.-.&.s.p.&.p.s.l.s.l.l.5.<.w.V.e.C.<.5.V.>XuXtXoXN.x.M.b..X<XuXzXuX].zXzXvXmXmXmX:Xm.A. Xh.(.bXzXmXmXmXzX].!.|.bXbXmXcXmXcXmXBXBXmXbX|.~.|.%XrXvXDXFXBXDXDXDXDXDXmXDXZXbXyX%XlXCXDXDXHXDXDXHXDXHXHXHXDXZXSXSXHXDXDX",
"= = 7 J .. . .=.o.O.$.%.*.$.$.$.-.=.=.] -.$.-.=.&.p.s.&.s.l.l.s.l.x.w.<.V.C.b.V.5.4.V.>XtXiXwXM.3.b.x.^.uX>XbX<X].,XcXbXmXZXZX:X^.m..Xb.~.%XvXzXnXmXbX%X~.`.:XbXmXmXmXcXmXBXBXBXmX:X~.|.%X}.eXNXDXFXFXmXmXBXDXBXmXZXbXzX}.yXCXDXDXDXDXDXDXDXDXDXHXHXZXnXHXHXFXFX",
"= ; s Y X.o.o.=.o.%.%.$.%.-.+.=.=.a.$.| -.$.-.*.%.p.p.p.a.l.l.l.x.l.w.5.V.e.m.V.h.4.m.+XtXpXiXB.2.b.x.m.tX>XuX<X].*XzXbXbXZXZXyX'.k. XV.k.[.yXbXbXbXmX%X~.~.%XzXbXmXcXmXcXmXmXBXmXyX~.|.rX#X*XmXDXFXDXDXZXDXBXDXmXDXmXvX}.%XmXZXDXDXDXDXDXHXHXDXDXHXNXgXJXDXDXHX",
"; 1 m O.X.o.o.=.%.=.O.$.%.*.[ =.a.p.$.+.a.*.-.l.*.s.p.p.a.l.l.v.l.w.<.n.C.V.V.V.V.4.M.oXiXiXpXB.4.3.c.N.C.iXbXzX].].zXbXmXCXZXbX[.k.'..Xk. XtXbXmXmXbXlXK.~.'.uXmXmXbXmXmXBXmXmXbXbX%X~.|.OX|.bXmXFXHXSXDXZXDXZXDXDXZXlXyX*XbXCXDXDXDXHXDXDXHXHXHXDXDXnXnXFXDXDX",
"< 2 M +.O.$.$.%.%.%.O.=.=.=.} %.-.-.$.+.a.p.a.z.-.q.*.*.l.l.v.v.s.s.s.B.^.m. X X^.<.M.'.iXiXpXV.5.3.c.n.V.tXpXzX,X].yXbXbXCXZXbX[.m.^.^.B.~.-X<XbXbXnXpX].m.'.uXbXbXmXbXmXmXBXmXmXbX%X].#XOX%XyXmXDXHXHXZXDXZXZXZXDXmXnX*X%XyXmXZXDXZXFXHXDXHXHXHXDXDXnXvXDXDXDX",
"; s Y +.%.o.%.%.%.%.%.%.=.O.$.*.p.-.*.+.a.=.a.a.a.l.%.a.l.l.l.l.f.f.b.A.^.n.^.-X Xw.M.B.tXiXiX'.5.5.c.n.n.XXpXyXbXK.rXbXbXmXZXmX:X!.^. X^.m.'.:XbXCXbXvX%Xk.'..XzXzXmXcXmXmXmXmXbXmXyX`.[.OX|.:XzXCXDXHXDXDXZXDXZXDXDXvXrX%XrXbXZXDXDXDXDXDXDXDXDXDXDXnXhXNXDXDX",
"1 v +.+.$.$.%.%.<.q.%.%.%.#.-.*.p.p.&.#.a.-.a.z.a.v.&.*.c.z.l.x.x.5.V.V.m.^.^.-X'.m.5.b.+XtXiX|.5.w.q.n.b.'.uXuXbX].%XbXbXbXCXmXyX~.b..X Xm.^..XpXbXCXvX%Xk.^.[.uXzXmXmXmXcXmXmXmXmXuX].`.OX|.[.rXbXZXHXDXDXDXCXZXDXZXZXeX%X%XzXCXZXZXDXDXDXHXDXDXDXDXZXkXvXDXDX",
"2 J @.#.#.%.%.%.$.=.%.q.%.| a.*.p.a.*.#.a.-.a.z.l.l.#.l.x.q.x.3.f.5.B.8.!.'.(.-X(.V.<.b.{.pXiX.Xh.b.3.x.M.A.tXpXpX|.].uXuXbXZXmXzX^.9. X.Xb.m. XuXbXCXbXyXB.B.'.:XzXmXmXmXbXmXmXmXDXbX].].|.OX[.|.bXZXZXCXDXCXDXZXZXDXCXyX#X%XyXmXNXZXDXDXZXZXDXZXHXHXZXyXvXDXDX",
"7 ] #.$.$.-.*.l.-.*.=.-.%.$.&.p.p.l.*.*.a.l.l.a.l.p.#.l.v.l.x.8.2.^.^.k.(.!.!.(.=X X4.8.B.iXtXiXB.x.x.x.b.M.^.uXpX<Xk.%XbXvXCXCXbXOXm.^.oX Xm.^..XbXbXbXbX'.B.V.'.uXzXmXmXmXmXcXmXmXmXrX~.`..XoX'.:XbXCXCXDXCXDXZXZXZXmXbX%X|.yXbXZXDXZXDXDXDXZXDXDXDXZXnXeXCXDX",
"g +.#.*.$.*.$.p.-.-.*.-.%.&.$.p.p.l.*.p.l.l.l.l.l.p.#.l.l.3.w.5.1.m.~.~.,X=X(.).=XV.b.5.B.>XtXtX'.4.N.5.v.b.m.>XpXtX~.`.yXyXnXbXmXuXB.k.-X Xm.m.^.uXbXbXbXOXb.V.^.=XzXmXzXmXzXmXmXmXmXrX].'.'.OXOX|.iXCXDXCXCXCXZXZXZXmXpX%X#X,XvXCXZXDXZXDXDXZXZXZXDXZXCXgXnXHX",
"m +.$.$.$.$.*.*.l.*.-.-.&.%.a.a.a.l.%.s.l.l.l.l.l.a.+.l.z.q.w.1.8.~.=XuXzX<X/.!.=X^.V.5.b. XtXuXOX4.V.x.b.M.b.'.uXuX.X!.rXcXvXbXbXpX^.8..X^..X8.^.[.bXCXbXwXV.e.^.~.,XbXbXmXbXzXbXnXCXvX[.'.'.oXoX|.rXpXCXCXDXCXZXDXZXCXvX:X%X%XyXmXDXDXDXZXDXDXDXZXDXCXCXgXvXDX",
"] *.$.*.-.#.*.p.a.*.*.-.&.*.p.l.s.s.&.3.s.z.l.l.v.a.*.l.x.x.5.5.^..XuXzXbXcX(./._. X^.8.h.B.tXpXOX5.M.b.x.M.b.m.>XtX>X!.[.vXyXvXbXbX|.k.^.^.+Xb.V.~.yXbXbXtX Xb.b.~.#XzXzXmXbXmXmXmXmXbX|.~. X X X X|.iXCXCXDXCXZXZXZXbXbX:X[.|.rXmXZXDXDXZXZXZXZXDXHXZXnXlXvXZX",
"#.$.$.-.*.| *.-.l.-.=.-.%.p.s.s.a.p.&.s.l.l.l.l.v.a.%.z.c.w.w.8.-X<XzXbXzXzX$X(.(.+X^.e.b.b.>XpXwXB.x.C.5.N.m.b.+XtXtX~.~.vXlXlXmXpX.X~.m..X^.oXb.`.%XvXbXpX.Xb.8.^.(.<XbXbXbXmXmXmXmXvXyX^.'.'. XOXOX%XpXZXZXCXCXZXZXZXpXrX}.].rXnXZXZXDXZXDXZXZXDXHXZXCXlXvXZX",
"#.&.p.$.&.+.*.a.p.l.a.a.+.l.s.a.s.v.&.s.v.v.l.l.a.s.*.x.w.5.8._.zXzXcXxXxXlXlX/.!.-X^.m.<.b.^.tXuX'.5.m.b.5.x.N.V.+XuX`.K.[.vXzXuXbXyX[.h.'..X^.k.!.~.rXbXbX(.^.e.^.!..XuXmXmXmXmXBXmXmXbX[.B.'.oXOX|.'.rXCXCXCXZXZXmXDXnXyXrX{.rXiXZXZXCXZXZXZXZXHXHXZXCXyXeXnX",
"*.&.*.&.$.#.*.a.p.l.a.a.+.v.a.a.l.s.*.l.s.v.x.x.l.q.%.f.x.4.B.<XzXcXxXxXxXxXlX/./.=X^.V.5.8.m.>XuXoX4. X^.5.b.b.M.Z.iXOXk./.<XbXbXpXpX~.k.^..X>X'.j.K.].bXpX>X^.8.m.^. XuXCXbXxXmXmXmXcXuX%X`.`.XXOX'.{.rXiXCXCXCXnXZXDXnXyX|.|.wXyXCXZXZXZXCXZXZXHXDXHXZXeXeXbX",
"*.=.*.$.#.*.*.a.-.a.l.-.&.l.l.s.s.s.&.s.s.s.x.v.l.l.&.x.f.5.OX7X7XcXxXNXxXlXvX@X/.[. X^.b.4.b.oXtX+X8.^. XN.4.b.b.M.+XiX[.k.}.pXpXbXpX[.B.^.'..X%XB.k.`.yXbXuX[.n.8.^.^.OXbXbXbXmXzXmXmXbXrX|.B.'.oX{.|.{.:XbXCXmXnXDXmXCXiX|.|.|.rXCXZXZXZXZXZXZXZXZXZXZXlX*XvX",
"&.*.*.a.+.l.-.l.-.l.a.*.*.a.l.a.s.p.&.&.s.2.N.N.x.l.2.5.h.k.pXzX9XcXxXxXlXlXcX,X/.^..X.X^.5.b.'.>XtXV.5. XC.5.b.b.V.V.OX|.j.`.rXpXpXpXpX~.B.'.~.OX|.k.k.`.pXuXtX~.h.b.^.'.yXpXbXmXbXbXmXZXpX|.k.`.XX{.'.}.|.rXbXCXmXZXmXCXuX|.wX|.rXCXDXZXZXZXZXZXZXZXZXHXvX*XeX",
"$.-.-.l.+.l.*.a.a.a.a.p.p.a.v.s.s.*.3.3.f.v.wXv.f.3.2.f.h.^.bX9XzXcXxXxXlXcXvXlX!./.-X.X Xe.8.b. X>XC.4. XV.V.5.b.b.M.'.|.`.k.rXpXpXbXpX~.h.^.'.'.oX!.k.~.:XpXtXB.b.b.A.~.:XuXbXmXbXmXcXZXCX|.j.B.OX{.{.{.`.|.bXCXCXmXmXZXyX|.{.|.|.CXCXZXZXZXZXZXZXZXDXZXvX@XyX",
"*.-.a.-.$.*.*.l.l.*.z.$.a.v.a.a.l.#.v.&.M.wXwXN.w.3.f.1.7.,X7X8XcXzXcXxXcXvXzXlX$X(.(..X^.V.4.b.V.tX Xb.B.'.V.x.5.h.B.M.{.{.j.Z.iXpXpXpX'.A.^.'.B..X'.k.B.^.uXpX.XB.b.B.'.B.tXpXbXbXmXzXCXiXyX{.B.Z.{.{.{.`.`.%XbXZXmXCXCXpXOXwX{.|.rXCXZXZXZXZXZXZXZXZXCXCX&X*X",
"*.*.*.l.&.*.p.a.l.-.a.*.a.v.a.l.3.&.C.%.A.iX+Xx.5.3.3.1.(.zXzXzXxXlXcXxXcXcXzXmXyX(.~..X XV.4.4.V.+X>Xb.b.^.V.V.h.f.M.h.M.wX{.M.XXpXpXbX:X~.k.'. X.X X'.f.B.XXuX>X'.k.b.M.A.OX:XuX,X%X#X&XrXrX}.k.k.Z.A.`.B.B.`.:XpXmXmXbXbXrX+X|.|.iXZXZXZXZXZXCXHXZXZXZXZX*X}.",
"-.%.*.-.%.*.p.l.l.a.a.*.-.l.-.z.l.3.N.@.'.tXiXC.x.<.5.4.<X7X6XlXzXcXcXcXzXmXzXcXyX/.j..X.X^.b.4.b. XtXV.h.V.V.^.V.w.8.b.M.{.XXZ.B.rXtXpXpX'.h.B.OX X X XN.b.'.OXwXk.M.M.h.h.f.V.:X:X,X*XeXeX|.`.`.d.j.Z.B.'.B.~.K.|.yXeXiXCXiXrX{.}.rXCXCXZXZXZXZXZXZXZXZXZX*X&X",
"s.*.q.-.&.a.a.l.a.s.l.#.-.a.a.l.-.x.N.O.b.'.{.s.3.&.<.<.!.y.t.).$X7XzXzXcXzXzXbXbX@X/.[.>XC.'.b.8.m.+X Xb.B.^.C. XV.5.f.Z.M.Z.Z.M.'.tXtXuX>Xk.8.V.V.V.V.V.f.h.B.OX}.Z.h.b.b.4.h.^.#X,XzXpXCXbXiX|.B.B.'.'.'.'.'.|.%XyXyXiX}.Z.XXXX`.|.pXnXZXZXmXZXDXZXZXZXCXrX*X",
"-.-.l.l.%.a.-.l.a.a.s.p.l.-.l.z.-.N.5...2.B. Xx.3.%.#.e.m.y.).).(.(.).).).@X*X;X,X#X~.k. XB.V.V.5.<.^.>Xm.b.V.^.C.^.b.f.h.Z.v.M.h.B.OXuXtXiX~.4.8.M.M.N.V.M.f.k.B.{.M.5.Z.Z.A.V.'.,XzXzXnXbXpXpXrXZ.Z.`.{.{. XOX[.].eXiXCXiXXXXX|.Z.|.vXCXmXZXZXCXDXZXZXZXZXeX@X",
"a.l.l.#.a.l.l.l.l.a.p.&.a.z.z.3.#.3.5.3.,..XpXC.5.<.1.<X<X;X)./.t.t.t.).#X;X,X<X,X,X#X!.e.^.V.V.m.n.b.oX X<.n. XV. X Xx.s.M.h.Z.M.B.M. XpXpX{.m.B.V. X^.'.`.Z.h.~.OXA.b.C.A.M.C.k.[.uXbXCXvXpXCXiX}.B.A.'.C. X XXX|.{.wXCXCXrX{.{.}.|.rXbXnXmXmXmXZXZXZXZXZXeX*X",
"a.l.a.+.p.l.l.l.l.l.a.&.3.q.*.O.3.b.n.b.1.^.uX Xx.4.!.zX7X8X6XzX7X6X;X$X).).(././.].#X!.(..XV.^.V.w.5. X+Xb.b.A.C. XoXN.x.h.N.b.M.M.B.V.OXtXtXV.5.^.'.^.'.^.^.~.B.`.XX'.b.V.V.b.A.B.].pXbXCXCXbXbX|.`.Z.A.'.C.XXXXXX|.XXiXiXrX}.|.`.{.%XbXmXnXCXCXZXZXNXZXZXeX*X",
"a.a.p.@.s.l.l.l.l.l.p.p.s.l.3...x.N.V.b.4.m.>XoXe.8.>X7XcX9X8X9X9X7X9XcXmXcXzXcXzXcXzX<X(..X X^.^.b.5.B. X X4.N.C. XoXA.^.b.x.b.h.Z.m.M.V.XXtXoXk.8..X X'..XOX.Xk.`.XXB.M.M. Xb.^.^.B.%XuXCXbXCXCXrX`.B.A.'. X{.XXXX{.{.{.iXXXXX|.{.}.rXbXnXCXmXNXCXZXZXZXNXyX&X",
"l.z.a.+.s.v.s.v.l.l.&.p.s.l.w.3.V.V.V.V.1.8.+XoX8.8.-XzXcXcXcXcX9X7XcX9XlXxXcXzXlXzXcX7X!.)..X^.m.V.b.5.m.oXb.b.C. XC. X XV.b.h.M.M.h.M.M.b.A.+XV.3. X X^.|..X:X|.m.B.B.V.M.V.'.h.~.~.k.rXpXvXCXCXpX|.`.Z.Z.A.XX{.XX{.Z.{.|.XXXX|.}.'.|.pXbXnXnXCXZXNXCXSXZXvX@X",
"z.v.l.@.p.a.a.s.s.s.&.p.f.3.s.Z.^.C.C.^.8.1..XoX5.5.^.7XcX9X8X8X7XxX9XcXcXcXcXzXhXlXmXzX%X(.=X[.^.V.^.4.h.B.B.5.m.'.V. XA. XV.b.h.h.M.b.b.N.n.A.V.b.8. X X'. X:XrX'.k.B.V.B.M.V.'.B.B.~.K.yXbXpXCXCXrX'.A.A.A.A.A.{.{.|.{.{.wXXX{.`.`.|.vXbXbXCXnXZXZXZXZXZXvX}.",
"a.a.z.+.s.s.s.s.v.s.@.s.s.f.d.XX'.'.A.V.e.1.^.+Xw.8.!.cXlX9X9XcXcXcX8X8X8XxXxXNX8XxXNXcXzX#X/.#X^.^.^.n.8.8.^.m.f.'.^. X X'.^. Xb.5.m.M.N.b.b.b.b.b.b.b. X XOX'.rXrX~.k.B.B.k.V. XB.B.[.`.].rXpXCXCXiXrXZ.h.A.A.Z.{.{.XXXX{.{.{.{.|.`.%XyXbXnXCXmXCXnXmXCXCXnX}.",
"a.l.a.+.s.v.v.s.v.s.@.a.s.f.d.iX XV.V.M.n.<.e.+Xb.8.m.zX9X9X8XcXxX9X8X8X8X8XxXxXxXxXxXcXnX6X#X~. X(.^.^.V.8.k.b.h.~.^.'.^.'.'.^.'.V.x.5.b.N.b.V.b.b.V.b.A. XOX].%XpX[.k.k.B.^.b.B.OXk.m.~.~.[.rXpXpXCXiX`.`.'.A.XXC.XXXXXX{.{.{.OX{.`.[.rXmXCXZXmXnXCXnXnXmXmX@X",
"a.l.s.+.s.v.s.v.v.s.&.a.f.d.f.pXrXB.A.B.^.e.5..Xb.8.8.7X9X8X8XcXcX9X9X9X8X9XxX9XxXcXcXxXzXmX,X/.(. X^.^.OX^.8.m.h.7.=X~.^.~.~.^.^..X XM.h.b.M.b.b.b.b.m.b.'.'.'.|.pXyXK.j.7.^.B.B..X~.m.B.B.!.~.iXCXpXpX|.|.Z.'.Z.{.{.XX{.XXXXXX{.OX`.|.rXmXCXbXnXnXmXnXCXnXvX}.",
"l.s.s.] s.v.s.v.v.s.&.d.f.d.`.pXrX`.B.V.^.n.<.n.V.8.7.;XlX9X8XcXcX8X9X9X9X9X9X9XcXxXcXxXxXxXzXzX.X_. X^.'..X^.k.7.7.'.:X[.^.~.[..X[.'. XB.5.f.h.8.B.B.M.h.Z.`.|.[.yXbX|.!.h.k.V.8.B.|.'.B.m.'.B.|.rXpXpXrX{.k.{.Z.XXC.XXXXZ.{.{.{.'.Z.|.,XbXnXmXmXCXnXCXnXmXbX@X",
"l.l.s.@.s.v.N.XXZ.s.&.s.d.d.|.CXrX'.'. XV.V.<.w.V.8.,.;XxXxX9X9X9X9X9X9X9X9X9X9XcXcXcXcX6XlXmXzX;X.X.X X^.^.>X(.k.h.7.:X:X[.(.^.^.'.OX'.'..X'.B.V.B.h.B.h.h.Z.|.].%XbXzX#X'.h.b.B.b.|.'.^.m.V.~.`.].rXpXiX|.B.'.{.Z.{.XX{.{.A.XX{.XX~.|.%XbXbXmXCXnXCXnXmXmXvX}.",
"a.l.a.&.v.A.oXwXZ.s.d.s.M.d.<XbXyX`.~.^.m.V.b.<.m.5.4.#XzXxX9XcX9XcX8X8X8X9X9XcX9X8X9XcXcXxXzXcXzX;X=X(.(.(.].<X#X9.1.H.,X<X[.[.(.(.^.[.[.].|.pX|.~.~.h.~.j.j.`.[.[.pXbXrX,X^.k.8.m.b.^.(.^.B.!.`.~.].OXrXrX'.Z.XX{.Z.Z.XX{.XXXXXXXX'.'.%XpXmXnXbXmXnXmXCXmXvX}.",
"z.z.a.s.A.wXwXtXZ.&.&.s.d.j.7XzXzX(.!.~.!.m.~.8.8.m.7.].lXcXBX9XcXcXxXxXcXcXxX9X8X5X9XcXcXcXcXcXcXzX<X=X/.H.!.).,X].t.7.#XzX<X<X(.(././.(.(.~.=XbXzX<X(.9.9.k.j.].%X:XpXbX[.=X(.e.9.m.^..X.X'.B.^.'.'.'.|.OX{.'.{.{.Z.Z.Z.XXXXXXXXXXA.Z.|.yXbXbXCXmXmXCXmXCXvX}.",
"z.z.a.v.wXiXrXwXZ.d.&.d.d.Y.lX7XcX#XH.^.^.e.^. X5.h.7.H.yXlXxX7X9X8X8X9X8X8X8X9X9X8X8X9XcXcX7XcXcXcXzXcX;X).).!.#X7X,X9.j.$XzXzXzX#X/./.]././.(.bXbXzXzX<X].k.6.~.[.#XbXbX<X=X#X:X'.e.n.^..X(.B.~.B.~.^.B.'.{.{.Z.Z.XX{.v.XXA.A.wXXX{.`.|.yXbXmXnXCXmXCXnXbXpX].",
"l.l.s.N.wXpXtXtXV.5.3.5.1.%X9X6XlX<X!.(.^.B.^.uXB.,.7.9.<X7X7X7XcXzX9X5X6X8X6X9XBXcX9X9X9XcXcXcXcXzXcXcXcX7X%X).J.).<X7XJ.9.4XzXzXzX,X]./.J././.uXzXbXcXzXzXzX~.7.]./.%X%X].^.^.(.(.m.e.8.!..X'.^.!.B.m.B.~.A.B.Z.Z.}.|.Z.Z.{.{.{.{.{.Z.|.yXbXbXnXCXmXmXmXCXyX}.",
"l.f.s.N.tXuX<X>Xb.3.3.5.7.;X6X6X5X7X(.!.!.!.B.>XOX7.7.1.#XzXzX5X6X;X$X$X$X$X$X4X5X9XcXcXcXcXcXcXcXcXzXcXcXcX8X4X$X$X@X3XcX3X@XcXzX9XcX<X#X#X).].#XzXzXcXmXmX7X,X/.].K.].H.1.E L ..L O.1.1.7.m.^..X.X|.~.~.B.`.`.Z.K.Z.|.|.Z.A.|.{.{.K.Z.].yXvXbXbXmXmXCXbXmXpXY.",
"5.s.s.A.iXtX>X>X5.3.5.5.7.7X5X8X7XzX=X!.(.!.k.:XuX~.9.7.J.:X#X/.t.9.6.6.6.J.J.J.).4XcXcXcXcXxXzXcXzXzXcXzXcXzXxXcX6X$X2X8XxXlXzXzXcXlXcXzX*X).).).7XzXlXcXcXzXzX@X/.9.,.9.H.#X-X(.^.~.^.^.9.,.,.7.4.d.B.|.Z.B.`.`.Z.k.Z.rX{.Z.Z.{.{.`.K.].:XbXbXCXCXmXCXbXbXyX}.",
"b.f.f.'.tX>X<X+X8.&.w.<.!.9X5X8X9XcX;X!.!.(.(.>XbXuX~.,.7.>.L F K ;.>.6.6.;.P >.t.$X*X9XcXcXcXcXcXcXxXzXcXcXcXxXxXxXxXxX6X9X9XcXcXzXcXcXxXzXlX).J.$X6XxXcXBXcX#X/.K.J./.@XmXzXzX<X(.^..X[.[.(.].#X:X].K.j.`.rXj.j.B.{.Y.Z.iXY.Z.Z.{.`.`.`.%XzXmXmXnXnXbXCXbXeX}.",
"oXb.f.'.uX:X>X+Xx.2.3.1._.7X5X8X9X7X7X(.!.!.~.#X<X#X7.,.,.9.<X7X,XzXzXzXzXzX;X).r.t.&XxXcXxXzXcXcXcXxXcXcXzXcX7X8XxX8X8X9X9X7X9XcXcXcXcXcXxXxXzX).P.2XxXNXcXxX*XcXzX%XJ./.7XbX,X!.,.L L L L L J K U Y 4.%XpXpXpXrX}.B.B.B.}.|.{.Y.`.`.`.K.%XvXbXnXCXnXCXmXCXrX}.",
"wX5.4.|.uX=X<X>Xh.*.4.8.7X5X6X5X9X9XcX<X!.!./.(.9.,.<X(.>...9.H.!.!.(.<XuX6XzXlX6X5X2X5XxXxXxXxXcXcXxXcXcXcX9XcXcX8X9XcX9X9X9X9XcXcXcXcXcXcX6XxXcX5XP.8X8X8XcXcXcXzX<X#XH.,.L j j G L L L H F j n m n n F Y }.pXCXiX}.Z.d.j.rX}.}.Z.`.].].%XvXmXmXvXCXmXbXnXrXY.",
"OX5.4.[.<X:X<X+Xb.q.w.8.7X5X5X2X6X7X7XcX=X!.!.9./.8.F j j j g h j j j j G 9.*XlXlXxX6X6X5XxXcXxXcXxXcXcXcXcXcXcXcX9XcX9X9X9X9X9XcXcXcXcXcXxXxXxX9X9X8X2XxXxXxXNXcXbX3Xt.F f u f h f g m J K H H F n n n n n A U Y ,.Y Y g.`.j.rX%X}.Z.`.K.%XyXbXCXnXCXbXmXbX%X}.",
"wXk.4.^.<X:X<X:X8.<.8.e.5X8X8X5X5X7X$X;X$X!.9.E z w w a s d j j f d w w 7 t V 9.zXxX6XxXBXxXxXxXxXxXcXxXcXcXcXcXcXcXcX9XcX9XcXcXcX9X9X8XcXxX8XxXxXxXxXxXxX8X8XcXcX$XY d f f v s d f V F K K K K K H n h j b n v b n H K.pXrXrX}.%X%X}.K.~.%XvXmXnXCXnXmXbXvX%X}.",
"wXb.1.'.uX>X<X.X8.O.<.(.7XcX8X8X5X8X/.V l V d w 2 7 7 s m n m n j w 7 7 7 7 8 s P 5X5X9X8X8XxXxXcXcX9XcXcXcXcXcX9X9XcXcXcXcXcXcXcXcXcXcX9XBXcX8X9X8XxXxX8X8X5X8X*XL h f f t b u u u h h V S D D A V B b v b b v c b n Q K.pXyXrX%XrXrX}.K.rXpXCXbXCXbXnXbXbX].].",
"wXb.4.^.<X:X;X=X8.:.:.=X7X5X5X5X3X6XcXJ.F 9 7 7 w 2 s g t s w t t t q q 7 7 7 t d E 5X5XxX8X8XxXcX8X8X9XcXcXcXxX9X9XcXcX9XxXxXxXcXcX9XcX9X8XcX8X8XxXxXxX8X8XcX2XP j h f f b b n H A B b h b p N D E ~ Y I b v b v b n v K g.eXiXrX%X}.}.K.rXvXnXbXnXmXzXbXzX].|.",
"oXh.4.m.tX,X:X=Xe.;.1.<XzX9X9X4X8X6X,X6.t 7 7 7 8 q q v U m b w 8 q t h 8 8 t w t h >.cX8XxXxXcXcX9X9XcX9XxXcX8XcXBXcX9XcXcXxXcXcXcX9X9X9XBX8X8X8XxXxXxX3X5X$XE E K n V n Y g.b p A B A Z S Z Z D S b I 0XZ.u.m b b b A n n U Q Q ,.,.j.K.rXvXCXnXnXbXbXzXzX].].",
"wXf.4.k.uX,X,X=X9.;.!.<XzXcX9X7X7X$X,.t 7 q 8 8 u U u.b e y e u u y q q b D h h f V E t.xX8XxXcXcXxXcX8XcXcX9XcX9X9XxX9X8XxX9X9X9X9X9X9X8X8XBX8X8XxXxXxX8X5XP.4X6.K K U g.Q b b B C S Z Z Z Z I Z S A B b i.Z.0Xg.K C b b n b n U ,.j.|.K.eXpXnXvXbXvXvXvXvX].|.",
"+X5.4.k.<X,X:X,X9.>..X7XcX$Xt.,.Y n w q q 7 w n j.W x y x c x i u c c i u y Q K A L t.3X8XcXcX9X9X9XcXcX8X8X9XxX8XxXxX8X8X9X8X8X9XcX9X9X9X8X9X8X8X8X8XNXxX8XNXP.P E E Y.Q p p C Z Z C C Z Z Z N C C I C c b u.0XY.U.Q A n C A n n Q |.rXK.rXvXnXvXvXvXvXzXzX`.|.",
"wXb.4.m.=XyX,X=X9.8.<X;XzX4XJ.E f 7 q q q x u.g.T y e x x i x N i c i p y r p ^ R K E 6X3XcXcX6X8XBXxX8X8X9X8X9X9X8XxX8X9XxX9X9X9X9X9X9X9X8X8X8X8X8X8X8X8X8X5XE P ~ Y.g.B N B B C C C C S S Z I Z Z Z N I c b u.Y.qXqXg.I b n A A m Q }.`.].vXbXmXbXvXlXmXyX].[.",
"wXh.8.8.:X,X<X%Xt.9.uXcXzX9XCXk.b 7 q 2 b i.Y.u.x 0 y x x x i x x x x i y y q B ^ Q K G.BXcXcX8X9X9XcX8X9X9XcX9X8XcXcX9XcX8X9XcXcX7XcX9X8X8XNX8X8X8X8XhX8X5Xr.E P.P.Y.A B A Z C C C C S Z S Z Z Z Z b b b c Z b g.qXqXsXW.U A n n A m U j.}.vXvXvXvXcXcXbX*X`.[.",
"tXf.5.4.>X<XuX=X(.8.<XcXzXzX}.n q w 0 v D.Z.D.b e y y y y x x i i y i i r y i r D Y.P.E P.8XcX8X9X9X9XcXxXcXxXcXcX9XxXcXcXxXxX9XcXcXcXcX8X8X8X8X8XNX8X8XhXL.y.8X2X&X~ D R W T T D Z D R D S Z C Z Z S Z I c c T I qXqX}.eXW.~ n n A m H 7.Y.pXvXcXvXzXzXmX}.`.[.",
"wXb.5.<.>X>XuX=X(.1.-X7XzX,XK 8 q 8 b g.U.qXW x c i c i c c N x x x x x x x x x x U.W.&XJ.3XcX9X9XcX9XcXcXcXcX9XcXcXcX7XcXcXxXxXcXcXcXcXcXcXxX8X8X8X8X8X8X8X8XNXhX2X~ 1XMXMXjXI.~ R ! E.F.R I A S A S A S S Z S B R.Q.Q.qXeXW.g.U H H U j.}.yXvXvXcXbXcXbX].~.[.",
"wXb.5.<.>X-X<X-X[.:.=XzX,X6.w w q u Q U.R.g.I Z I I S b C T W Z c C c C c c x x y W nX2X2X6XcXcXcXcX8XcXcXcXcXcXcXcXcXcXcXcXcXcXcXcXcXcXzX9XcXxX8X8XhXNXNX8X8XNX2XL.hXSXSXGXGXGXqXi.6.MXfX~ R D D I D I T R T S Z ~ MX1XW.qXeX&Xg.U U U K.[.yXnXvXvXzXbXbX].K.|.",
"wXx.x.<.-X-X>X;X^.1.(.<Xy.j t d f U Y.U.R.R.W aXAXSXqX! I aXjXT Z c b C Z T I I c A &XhXxX8XcXcXcXxX8XcXcXcXcXcXcXcXcXcXcXcXxXcXcXcXzXcXcXcXcX8X8X8X8X8X8X8X8X8X2XL.MXGXGXGXFXGXVXF.F.T.F.S.! W T T I I ! ! W R D T SXGXSXaX1XfXW.g.Q @.[.[.uXvXvXlXbXbXCX`.|.{.",
"wXM.f.<.oX-X<X-X^.;.9.<XL d j h K g.Y.W.VXqX1XGXGXGXGXqXT S.S.T I I S C c I T T Z A &XlXcX8XcXcXcX8X8XxXcXcXcXcXzXcXcXcXcX9XxXcXcX9X9XcXxXcXxXxX8XNXhXMX8X8X8X8X8Xr.1XGXJXGXGXGXjXqXW.~ N S W U.U.i.W R ! ! ! ^ R D MXGXMXMXhX1XQ.j.Q ,.(.[.uXvXzXvXzXbXiX`.|.{.",
"wXv.f.3..X>X<X-X!.b.;.<Xt.z V A Q K.qXjXGXD.dXGXGXGXGXaXi.F.I.W C c T i.I T T I D l 2XhXxXxX9XcXxXcX8X9XxXcXcXcX7XcXcXcXcXxXxXcXcXcX9XcX9XxXcX8X8XhX8X8X8X8X8XNX8XE ^ E.dXaXaXsXaXR.i.N c i N u.U.R.U.! T ! ~ ! R D fXSXAXFXMXfX@XG.Q k.`.=XzXvXcXbXbXbXrXZ.}.{.",
"oXM.f.s.^.>X<X=Xm.^.L <X-XG K G 6.Y.vXGXGXW W.GXGXGXjXR.I.S.u.N e x c i.u.I I I I B 2XNX8X8XcXcXcX9X8XcX9XcX8XcX9XcX8XcX9X8X8XcX9X9XcXcXcX9XxX8X8X8XhX8X8X8X8X8XhXI W S.I.^ S.T.T.T.T i i p x T U.U.R.g.R ! R W I S jXSXGXFXGXMXyXg.,.`.m.%XbXyXbXzXbXbX}.B.}.A.",
"oXv.v.d.V.>XuX-X8.b...).;XE G A 6.eXGXAXMXI W S.F.D.T.R.F.D.i.e 0 0 x i.u.I T u.T B &XxXxX8X9XxXcXxX8XcX8X9X9X8X9X9XxX9X8X8X9X9X9X9X9X9X9X9X9X8X8X8X8X8X8X8X8X8XhXD ~ T.G.W S.I.T.T.T i i p x W R.U.R.F.R ! W I D D MXGXGXGXSXGXZXg.6.~.k.%XbXlXvXzXbXCX}.B.A.Z.",
"C.N.s.f.m.<X>X>Xm.B.<.9.9Xt.P G J.nXSXAXMXD Z I R W F.I.T.D.! e 0 0 e u.D.T W D.S.D 2XxXxX8XcXcXcXcX8X8X9X8X8X8X9X9X9X8XcX8X8XcX9X9XcX9X9X9X8X8X8X8XMX8X8XNX8X8X8XE G.S.T.! u.R.D.T.i.N c i N u.R.R.R.F.W u.G.S.R D MXMXFXSXGXHXkX,.7.j.~.rXcXvXxXyXvXpXB.k.{.{.",
"A.v.f.f.b.>X:X>Xm.m.,.,.zX7XL G 6.DXSXGXCXI Z W ! T D.I.D.D.D.N 0 0 N S.S.W ^ D.^ R 1X8X8X8XNX8XcXcX9X9XcX9X8XcX9XcXcX9X9X9XcX8XcX9XcX9X9XcX8X8X8XxXxXxX8X8X8X8XhXr.^ E.L.u.u.T.T.I.T.W N N W D.U.R.U.S.! R.I.T.~ T MXSXFXSXGXHXeX,.7.j.~.,XvXvXvXlXzXuXk.Z.{.A.",
"v.l.v.2.h.-X<X>X~.e.4.;.uX7Xr.P E nXGXGXAXu.I i.u.W u.D.0XD.D.T x N W S.u.W S.D.G.^ hX8X8X8XxXxXcX8X9XxXxXcXcXcXxX9XxXcXcXxXxXcXcXcX9XzXcX8XxX8X8XxXxXhX8X8XNX8XhX1Xi.E.D.D.S.D.T.T.T.T.D.D.D.T.R.U.I.i.i.0XI.W.S.! SXFXSXSXFXSXY.6.j.j.].rXmXvXlXzXzXrXk.A.{.A.",
"v.l.x.s.5.OX<XuXOXb.B.;.7X4X4XP P jXSXGXCXU.W g.D.u.u.D.D.D.R.D.D.S.T.D.S.u.D.G.G.^ MX8X8X9X8X9XcXcX9X9XcXcXcX9XzX9XcXcXlX9XxXcX9XzXcXcXcXcXcXcX8X8XxXxX8X8X8X8X8XhX^ T.T.T.D.D.I.0XT.I.1XT.D.T.R.R.I.F.T.I.T.T.~ W.HXSXSXSXFXgX^ j.].j.[.vXmXlXyXvXuX[.j.`.A.{.",
"l.v.x.3.4.[.:XtX:X4.'.Y :X5X4Xt.U eXDXAXGXqXu.g.D.D.u.D.I.D.D.D.I.D.D.I.D.D.D.D.^ G.2XhX8XxX9XcXcXcX8XcXzX9XcXcXcXcXcXcXcXcXcXxXcXcXcXcXxXcXcX7X8XxX8XhXNX8X8X8XNX2XS.T.T.T.T.D.I.0XdX1XaXdXaX0XR.0XI.U.W.R.T.T.^ SXGXSXGXFXFXE.Q K.[.k.[.zXmXlXlXcXuX`.j.Z.A.A.",
"v.v.v.v.s.'.rXuX>X8.^.H (.;X7X6XE t.nXFXCXGXu.U.D.D.u.D.D.D.0XaXsX0X0XI.D.1XT.T.R 2X8XxXBX8X9XxXcX8XcXcXcX9XcXcXcXzXcXcXcXcXzXcXcXcXcXcXcXcXcXcXxXxX8X8X9XxX8X8XhXMX1X^ r.L.T.D.1XdXdXdXdXdXdXMXqXR.0XfXjXaX1XS.I.JXSXFXJXNXvX6.].%X].9.%XyXbXmXyXvXpXk.Z.A.A.{.",
"a.v.v.a.d.B.rXrX<X8.m.L 9.7X5X;XJ.E mXnXGXAXU.i.D.D.D.D.D.sXdXdXdXsXdXdXdXVXaXG.^ hX2X8X8X9X9X9XcXxXxX9XzXcXcX7XcXcXcXcXcXcXcXcXcXcXcXzXcXcXcXcXxXxX9X9X8X8XNX8XhX8XhX^ G.D.T.0XdXdXdXdXdXdXdXdXaXqXqXAXGXGXqXG.AXJXGXFXHXDX&XY.rX#X~.k.%XyXbXbXiXvX}.A.B.A.A.{.",
"a.v.a.z.f.f.=X:XuXb.1.,.L 7X7X;X9X6.eXNXAXGXqX! D.D.D.R.0XsXdXdXdX0X0XdXAXGXMXS.2XhX5X8XxX9X8XxXcX9XcXxX9XcXxXcXcXcXcXcXcXcXcXxXcXcXcXcXcXcXcXzXBX9X9X9X8X8X8XNXhX8XMXhXS.T.T.1X1XdXdXdXdXdXdXdXsXaXR.qXAXSXE.jXAXJXHXFXZXkX*XvX*X%XK.H.rXvXbXCXvXyXj.{.k.Z.A.'.",
"p.a.a.v.f.4.OX>X<X^.1.7.Y ;XxX6XxX*XL.DXSXGXAXi.i.D.D.R.dXsXdXdXdXdXdXdXaXaXL.r.NXxXBXxXxX9XxX9XcXxX9XcX9XcXcXcXxXxXxXxXxXxXxXcXzXcXcXcXcXcXcXcX8X8X8X9XxX8X8X8XNXhXhXMXL.^ D.1XdXdXAXAXAXAXAXdXdXqX0XW.qXI.qXSXGXJXSXSXnXeXvXmXyX#XH./.yXbXbXbXpXeXj.{.B.Z.'.A.",
"&.a.a.v.s.d.|.rX-X X1.1.>.).cX5X6XxXQ.hXNXGXGXjXi.S.T.I.qXjXVXVXAXAXVXdX1Xr.G.&XxXhXxXxXxXcX9X9XcXcXxXxXcXcXxX8XxXxXxXxXxXxXxXxXcXcXcXcXcXcXcXcXcXxXcX8XxX8XxXxX8XNX2XNXfXT.i.T.dXdXVXVXVXAXAXAXsXqXW.I.S.W.GXAXSXFXSXxX&XlXmXmX*X].H.%XzXpXbXpXpX%Xk.{.Z.Z.'.Z.",
"+.p.v.a.s.d.Z.iX>X-Xm.1.!.J.cX3XxX2X3XE.kXSXGXHXqX! S.R.qXVXVXVXAXAXVXaXG.! 1XxXlXxXxXcX9X8X8X8XxX5XcX9X9XcXcXcXBXzXxXxXxXxXxX8X6XcXzXcXcXcXzXcXcXcXcXcXxX8X8X8XNX8XhXNXxXNXQ.~ S.aXMXMXVXMXkXMXVXR.i.i.eXGXGXNXBXFXSXG.P.lXmXmX#X(.k.,XbXbXyXyXuX`.'.A.'.Z.{.`.",
"+.p.a.a.f.f.h.rXuXoX8.1.[.H.cX*XxX5X3XW.J.NXMXHXGXQ.! ^ 0XeXjXAXMXjX1XS.~ &XhX8XmXxXcXzX8X8XxXxXxX8XcXcX6X9XcXcX9XxXcX5X8XcXBX6XxXBXcXcXcXzXzXcXcXcXcX9XxXxXxXxX8X8X8XhXNXhXhXW.~ ~ r.E.Q.Q.E.L.g.^ E.nXnXSXDXNXNXQ.J.2X&XcXmXzX#XK.K.vXyXmXbXuX:X~.XXB.A.`.'.Z.",
"+.@.a.a.l.d.d.wX>X-X8.<.'.t.9X9X8XcX3X2XJ.G.nXnXgXNXhXg.R ^ W.eX&XE D E P.8X3XNXxXxXcXcXBXcX9XcXcX5X9XcX8X*X7X5X4X4XcXBX$X6.>.6.J.$XmXcXcXcXcXcXcXcXxX8XxXxXxXxX8X8X8XxXxXNXBX2XcX2Xr.E F A P ^ E.BXFXJXFXnX*XY.P.&XJ.lXmXcX,X*X/.H.#XyXyXbXbXpX`.B.oXk.Z.A.'.B.",
"] @.*.p.x.f.4.`.>X-XV.e.9.H.%X7XcXlX6XnX).6.P.P.&XfX2X@Xg.E D K R 6.P.2XhXxX6XxXxXzXzXcXcXcX8X8X9X9X5X5X$Xt.t.t.t.t.t.t.y.5X5X5X_.6.t.9XcX7XzXcXcXcXcXcXxXxXxX8X8X8X8X8X8X8X5X8X8X8X9X9X4X@XP.G.r.r.r.r.r.J.@X4XxX9X6XxXzXxXmX#XJ.H.,XyXzXbXpXrXB.'.A.k.A.`.A.B.",
"M +.&.s.l.f.4.h.>X+XoX1.1.9.*X7XcX9X7XzXlXcX$XxXr.>.Q ~ J.P.).2XlXhX8XhX3XxXmX9XcXzXcXcXcXcX8X8X9X9X>.z L P P P ;.` t.9.>.P P >.,X;.F >.9X7XcXcXcXcXcXcXxX8XxX8X8X8X8X8X9X6X6X6X9X9X5X9XcX6X5X5X6X8X3X8X9X4X8X8XcXlXcX9XcX7X$X/.K.H.lXbXbXyXuX~.^. Xb.M.'.Z.Z.'.",
"U +.#.l.l.x.4.4.+X>X+X4.1.!.=XzX,XcX5X6X6X;X9X;X6X6X*X5XlX6X4X5X9X6X6X3X6X9XcXcXcX9XcXcXcX8X8XxX8Xt.a 4 2 2 d k k k k k z z z z G k F F /.5XcXxXcXcXcXcXxXxXxXcX8X8XNX8XcX9X9XzXcX7X5X7X6X7X7X5X6X6X6X6X6X8X6X6X5X4XcX9XcX9X;X(.H.~.lXzXyXyX:Xk. X Xb.Z.'.`.B.`.",
"U m &.q.q.3.f.4.'.tX>Xb.1.m.#XzX,XzX6X6X4X6X6X,X;X7X6X7X;X4X4X6X,X6XlX7X6X9X7XlXcX7X9XcXcXxXxXxX5Xl a 2 a k k k z z _ G _ ` _ _ _ G z z ;.9X8XcX9X9XzXcXcXcX9XcX9X8XNX8XcX8XzX9X9X7X9X5X7X7X7X7X5X6X6X3XlX5X6X6X5X8XcXlX7X,X;X!.9.#XyXzXvXuX].m.OX'.B.B.'.B.Z.|.",
"&.m +.p.s.d.s.f.f.wXiXA.4.7.[.zX7X9X4X4X5X7X7X<X;X6X,X6X,X6X;X<X6X6X7X6X9X6X6XlX7X9X9XcXNXxX8X9Xy.9 7 a k z _ ' ' ' ' O.0.0.' ' 0.O.z z ;.5X9X9X9XxXcXxXcXcXcX9X9X9X9X9XxX9X9X9X6X7X6X7X7X6X5X<X5X6X3X4X6X6X6XcXcXcX9X9X$X<X).9.!.zXyXbXzX%Xk. XoXB.B.B.m.B.'.iX",
"v.v Y +.a.s.d.d.d.wXiXC.h.1.!.yX<X5X_.4X7XcX5X;X;X;X;X;X;X4X;X5X;X7X7X7X6X9X9X7X7X9X9XcX9X8XcX7Xy.a d _ ` ' 0.' ' ' ' ' 0.0.' ' 0.0.L z P 5XcX9XcXcXcX9XxX9XxXcX9XBXxX9X9X9X9X6X7X6X4X6X7X;X7X,X4X7X6X4X4X6X6X9XcXBX7X6X$X,X(.9.(.zXzXzX,XK.~.OX{.k.M.B.B.`.OXiX",
"a.v m +.p.s.d.s.4.N.wX+Xb.1.1.=X<X;X;X4X7XcX7X;X;X;X;X;X;X;X;X<X6X;X7X9X7X6X9X9X9X9X9XcX9X9XcX9X_.z z 0.' :.0.0.0.' ' ' 0.0.' 0.:.:.` z 9.cX8XcX9XxX9XcXcXcXcX9X9XBX8X9X9X6X6X5X7X7X5X6X;X;X7X;X4X5X6X*X4X6X5X7X7X6X7X;XzX=X9.t.[.zXvXuXK.K.:X:XV.k.V.B.Z.{.tXOX",
"m U v +.@.v.v.d.5.f.+XwXb.,.,.~.=X$X;X;X7X7X6X;X;X;X;X;X;X;X;X;X;X4X4X4X6X9X5X9X9X9X9X9X9X7X7X9X5X>.>.>.e.:.0.0.' ' 0.' ' ' 0.' :.0.L G 4X5XcX9XcXxXcXxXcX8XcXcX9X9X8X9X9X8X6X6X5X,X;X4X5X;X5X;X4X7X7X4X4X6X6X;X6X;X6X<XzX/.e.!.>XzXyX*XH.:X:X[.m.b.B.A.~.OXiXh.",
"x @.b +.&.&.d.s.2.x.wXwXA.5.;.k.=X7X;X;X;X4X;X;X;X4X;X;X,X;X;X;X;X4X7X9X7X9X7X9X9X8X9XcXcXcXcX7X5X5Xy.` y.' 0.0.0.:.' ' ' ' ' ' ' P ` ;X5X9X9X9XcXcXxXcXxXcXxXcXlX9X9X8X6X6X5X5X4X4X4X;X;X5X7X;X6X7X7X5X5X7X7X7X,X7X<X<X<X9.k.'.uXzX#X/.K.bX:X'.b.V.B.B.XXOX'.`.",
"1 v m m d.+.v.v.s.s.d.tXtXM.Y 1.=X7X_.4X4X;X;X6X;X;X,X;X4X;X4X<X;X4X6X6X7X7XcXcX9X8X9XcXcX7XcX9X5X5X5Xy.>.>.0.>.` >.>.>.>.>.>.>.>.t.$X9X7XBX9XcX9XxX9XcXcX9XcX9X8X9X8XlX9X8X9X6X6X4X6X6X7X;X7X6X;X7X7X<X4X<X;X7X5X<X7X>X(.9.^.uX<XuX/.K.yXuX[.m.m.^.m.B.>X'.h.OX",
"1 2 c &.a.@.d.d.f.3...XXtXB.1.;.-X;X_.4X;X;X;X,X6X;X;X6X,X;X4X7X4X6X6X6X5XcX7XcXcX9X9X9XcXcXcX8X9X5X9X9X_.4Xy.y.y.y.y.t.>.y.y.y.5X5X9X8XcX6XcX9XcXcXcXxX9XxXxXcXcX8X8X9X6X9X9X4X6X,X7X;X7X<X7X,X<X7X7X5X7X5X<X7X<X<X7X_.e.k.-XuXuX].K.].CX%X(.h.m.B.b.OXOXB.{.|.",
"< 1 w M &.s.p.a.s.x.@.j.XXA.5....X_.4X_.4X;X;X;X4X,X,X;X5X6X4X<X<X6X7X9X5XzXcXcXcX9X9XcXcXcX8X8X8X5X8X8X5X5X5X5X5X5X5X8X5X5X5X5X5X5XcXxXcXcX8X9X8XcXcX9XcXcXcXcX7XxXxXxXlX9XlX9X6X7X6X7X7X7X7X,X7X7X7X<X;X<X;X;X;X<X7X^.k.^.:XuX:XK.].bXpX].!.8.^.m.'.OXB.A.|.OX",
"1 4 7 4.Z.d...2.f.v.2.2.+X X8.;.y.7X;X_.4X$X4X;X6X;X;X4X7X4X6X7X9X7X6X6X6XlXzXxXcXcXxX8XcXxXcXNX8XxX8XNXcXxX8X8X8X8XhX8X8X8X8XhX5X8XxXxX8X3XcX9XcXcX9XcX9X9X9X9X9X9X8X9XcX9XcX9X7X7X6X6X9X7X7X7X,X7XlX6X6X,X<X,X6X<X:X8.k.|.uX:X!.~.yXmXrXm.j.h.^.B..XB.m..X.X:X",
"5 : 8 ~.rXk...2.s.s.d.x.M.+Xb.1.e.<X;X5X$X4X4X4X4X3X4X*X6X6X6X6X6X6X4X6X8X8XxXxXnXSXhXxX2XmXlXxXxX4XBXxXNX3XxX6XhX8XhXhXhXhXhX8X8XNXhXxXxXBXcXBXmXzXcX9X9X9X9X9X9XcX9X9X9XcX7X8XlX9XlX6XlX6X3XlXlX6X7XlX7X6X;X7X<X<X/.j.!.yXrXK.K.#XbXbX=Xm.b.^.B.^.B.k.!.(..X.X",
"4 < q /.tXOX4.@.d.v.f.x. X'.^.8.8._.<X4X4X4X4X4X6X6X4X6X6X6X6X6X6X6X9X4X6X6X8X3X3X~ l D xXgX*X3X2X3X$XlX&Xt.H.G.r.r.t.L.r.L.P.NXhXhXNXE h h $XmXNXcX8X9XcX9X9X9X9X8X8X8X9X9XzXzX8XlX9X6X9X6XlX9XlXlX6X,X7X,X<X7X7X=XK.k.|.rXK.K.#XzXbXuX[.!.^.B.^.m.m..X.X).).8.",
"4 4 t %X:XtXoX@.&.2.s.f.+XB.V.9.9.(.-X4X*X6X4X;X6X6X6X6X6X9X3X6X7X7X5X9X8X8XxXnXxX9 G.8 l : . . . . 3 hXu 3 6 : 6 , 5 5 , > & p p u 5 . r.: 6 r p A 3XNXxXcX9X9X8X8X9XxXcXcX9XcXlX9XxXlXlXxX6X9X8X6X9X6X;X7X7X7XzXm.m.B.rXK.k.@XbXzXzXbX~.7.m.m.m.!.m.6.9.!.H.t.",
"4 4 f :X=XuXwX Xf.@.4.f.h.XXm.8.e.e.;X<X;X4X3X6X6X6X6X6X7X6X6X6X9X9X7X5X8X5XcX3XG.6 1X9 6 l P.W.E.Q.B 3 5 E.G.G.hX^ ^ 2Xr.~ ,   P Q R ~ nXY.Q ~ ~ 6 ~ 3XNXxXxXxXxXxXxXxXxXxXcXxXcXxXzXxXxXcXcXlX6XlX6X6XlX,X7XbX(.7.k.~.~.~.@XzXnXbXlX/.j.K.k.k.=XrX#XH.H./.$XcX",
": 4 h ,X,XpXpXXXM.d.2.f.8.OX'.1.9.1.=X,XzX5X4X9X6X7X9X9X6X6X6X6X5X9X5X9X8XcX8XP., u 2XP MXu & & B fX3 D 0 eXU.G.MXr.^ MX^ R     1XR A S &XR D K hXu D hXxXxXhXxXxXxXNX8XxXxXlXxXxXcXxXcXcXcXcX8XxX6X6XlX7X7XzX@X7.9.k.!.7.|.CXmXxXcXP.9.j.j.H.<XbX,X/./.$XbXmXBX",
", , l ,X:X,XpXOX4.B.B.,.<.B.>Xm.1.8.e.-X<X8X9XlXlX5X7X6X9X9X8X6X9X9X9X9XcX8X8XP.t &X2XL.kXr   e R.6 5 jXr W.B W W.D Z E.R 6   @ D E.Y.G.GXW.U.^ I , R P.P P.2XQ P 2X2XP 6.8XxXxXmXxXcXxXzXcXzX8X5X8XcXxXlXzX*Xt.j.~.k.!.,XzXcXNXxX*XJ.H.t./.yXbXuX,X@X#XzXxXBXNX",
"4 , A %X:XyXuXOX,.A.XXh.;.7.+X X<.8.1.'.<X$X4X4X9X9X9XlX7X8X6XxX9X9X9X9X9XcX8X2X, K P r 2X5 > R i.5 - 3 3 Q.p hXjXfXkX1XMX9 p D - Q ^ ^ fX^ R W l @ ^ 6 l , p 8 6 9 6 l , D lXxXcX6XxXxXxXxXxXBXlX6XxXlXcX%XK.j.K.j.K.:XbXzXnXxXlXJ.6.6.].vXbXbX%X}.).6XBXmXlXlX",
", 4 K *X;XvX,X|.m.B.tX^.|.;. XtX8.5.4.h.<X$X6X7X6XlX9X9XlX7X8XcX9X9X9X9X9X8XxX2X6 r.p l 2Xr.1XfXkXeXG.. & W.p hX^ P.2XS.SX6 ^ , r l S p 2XR l S p > > 9 2X5   E G.# , 2XD , 6XcX9X9XcXcXxXzXcXcX8X9XcXzX6XK.j.K.j.K.eXbXxXmXxX8XJ.6.t.$X<XyXcXlX@X@X6XxXmXbXmX*X",
"1 4 P *X*X<X,X'.~.'.OX|.uXm.,. Xh.<.4.1.j.9XlX9X7X9X9X7X7XcX7XxX9X9X9X9X9X9X8X8X, P ^ r.D & & P ~ & - & , 2Xl Q.P.1XhXL.1Xr p 5 ^ r.L.L.E.L.P.L.L.p & > 5 - 9 5 6 , 5 9 , V cX9XzXBXcXcXzXcX8XcX9XcXcX,XJ.H.j.K.].,XmXnXnXgXxXP.H.).zXzX,XbXvX@X$XNXNXmXxXmX].7.",
", 4 ` *X*XuXyX~.'.m.=X^.bXuX^.'.b.h.<.2.9.).9X4X9XxX9XcXcXcX9XcX9X9X9X9X9X8X9X8Xy.> R hXp 9 l I ~ p W.Q.l hXL.SXMXMXMXhXNX~   & + ~ hXMXhXhXhX1X,   l r.P r.2XL.E E.2X^ ~ 8XcXcXcXxXcXcXcXcXcX7X9XzX4XJ.H.H.j.*XbXmXxXNXxXDX2X$XxX6XzX,XcXvX%X6XxXlXxXBXnXH.7.k.",
"4 2 t.$XuX,X>Xm.|.k.=X].=X:XuX<XB.2.&.5.,.1.$X5X6X8XlXxXcX8X9X8X9X9X9X9X9XNXNX8X~ 5 r.1X1X5 : D Q l nX^ p P.S ~ l ~ 1XL.I ~ & r.r r.W 6 6 r p 1X, S hXhXhX8X8X5XxX8X9X8X5X9XcXcXcXcX9XBXcXcXcXcXlX$XJ.t.r.J.*XmXxX8XNXxXxXxX8X8XxXxXxX4XlXlXxXzXmXzXzX[.7.d.Z.Z.",
"4 8 k.yXyX>X>Xk..X9.<X[.,X:X<XuXM.2.2.@.B.9.>.6X6XxXxXcXcX8X8XcX9XNX9X9X8X8X5XP., 1Xr.  l r P.3X~ p NX6 ~ P l L.R E S P 2X^ & P.l r.hXMXhXNX2XhX> R hX8X8X8XNX8XcXxXcXcX9XcX9XcXcXcXcXcXcXcX9XcX$Xt.6.).$XmXcXBXBX8XxXxX8XhX8X8X8XlX9XzX,XzXzXzXbX%X7.h.m.h.M.Z.",
"4 t K.,X,XuX:Xk.[.m.>X(.uX,X<X>XB.2.f.2.V.<XH.t.5X8X8XxX8X9X9X8X9X9X9X9X8X8X8X2X9 6 @ u r & p u , B 2Xr 5 , , 5 . 6 6 > l 5 , 2XS r 9 3 5 5 6 u & P NX8X8X8X8X8XcX8X8XcXcXxXcXxX9XxXcXcXcX7XcX$XH.J.*X*XlX4XlXlXxXNXxXxX8X8X8XxXxX6X/./.k.K.~.~.m.M.h.M.M.d.v.Z.",
"1 h #XyX<XuX=Xm.[.^.=X(.,X,X<XyXB.2.f.s.8.#X7X$XxX8X8XcXcX8X8X8X8X9X8X8X8X8X8XhX2Xp D 5XNXJ.l u F 3XxXNXP D K S r.2X2Xl 5 9 r.NX^ 9 5 l E E S 6 l y.8X8X9X9X8X8X8XcX9XcXxXcX9XcXcX8XcX9X9X8XcX$X*X7XxXmX9XBXcXcXNX8X8X8XNX8X8X8X6X#X7.j.`.A.B.b.b.N.v.Z.Z.p.M.Z.",
"4 l %XyX<XuX[.9.~.[.|.(.#X<XuXiXh.2.b.3.1.j.7X8X8X8XxXcXcX9X8X9X9X8X8X8XNX8X8X8X5XhXhX8XxXxXFXhXNX8XNX8XxX8X8XNXNX8XNXhXNX8X5XNX8X2X2XhXBXxXxXhXNX8XBXNX9X9X9X8X8X8XcXxXcX9XcXxXcXcXcXcXcX8X8XcXzXcXzXxXzXcXcXmX8X8XNXNX8X8XxXxX6Xj.j.!.h.M.h.Z.A.C.N.v.Z.a.v.Z."
};
