/* XPM */
static char *out[] = {
/* columns rows colors chars-per-pixel */
"128 128 251 2 ",
"   c #0F0E16",
".  c #130B16",
"X  c #1B0C16",
"o  c #150C1A",
"O  c #1B0E1C",
"+  c #15131C",
"@  c #1D111D",
"#  c #1A1819",
"$  c #230F1F",
"%  c #290F1E",
"&  c #231717",
"*  c #24111E",
"=  c #2A111F",
"-  c #25191D",
";  c #2B1A1E",
":  c #32151E",
">  c #331A1D",
",  c #391B1E",
"<  c #2E221E",
"1  c #36241D",
"2  c #1C0F20",
"3  c #1E1220",
"4  c #1B1923",
"5  c #240F20",
"6  c #231121",
"7  c #2A1321",
"8  c #241A22",
"9  c #2C1B22",
"0  c #2C192A",
"q  c #321622",
"w  c #341B23",
"e  c #3B1C23",
"r  c #331C2B",
"t  c #3C1D2A",
"y  c #361F32",
"u  c #2C2224",
"i  c #28262A",
"p  c #342322",
"a  c #3B2324",
"s  c #3B2A23",
"d  c #35232B",
"f  c #3D232C",
"g  c #382A2C",
"h  c #393227",
"j  c #282A33",
"k  c #2B2C34",
"l  c #352234",
"z  c #3B2336",
"x  c #312E35",
"c  c #3C2B35",
"v  c #3D2439",
"b  c #2F3036",
"n  c #323136",
"m  c #343239",
"M  c #3B3538",
"N  c #482B1D",
"B  c #411E25",
"V  c #451E29",
"C  c #422325",
"Z  c #442B24",
"A  c #43242C",
"S  c #4B242B",
"D  c #482B2B",
"F  c #542A2C",
"G  c #4A3528",
"H  c #553827",
"J  c #442B32",
"K  c #4B2D33",
"L  c #472A3A",
"P  c #542B33",
"I  c #483638",
"U  c #583539",
"Y  c #6B3B32",
"T  c #66393A",
"R  c #57432B",
"E  c #524634",
"W  c #67482C",
"Q  c #734D2C",
"!  c #6A4536",
"~  c #764737",
"^  c #7C4A36",
"/  c #675638",
"(  c #78583A",
")  c #70653E",
"_  c #3D3B42",
"`  c #4E2C41",
"'  c #542D42",
"]  c #592F46",
"[  c #493B42",
"{  c #583646",
"}  c #5C3C42",
"|  c #643B43",
" . c #6B3D44",
".. c #633A4A",
"X. c #713E44",
"o. c #793E40",
"O. c #633E50",
"+. c #3F4141",
"@. c #4A4647",
"#. c #584649",
"$. c #54514C",
"%. c #594C52",
"&. c #5A5557",
"*. c #6C4245",
"=. c #65464A",
"-. c #6B454A",
";. c #734245",
":. c #7B4446",
">. c #764A45",
",. c #744649",
"<. c #7B4448",
"1. c #75494C",
"2. c #7D4B4E",
"3. c #645848",
"4. c #795546",
"5. c #664A53",
"6. c #754A51",
"7. c #7F4D50",
"8. c #635255",
"9. c #6B5356",
"0. c #65565B",
"q. c #69575C",
"w. c #66595D",
"e. c #6B5A5E",
"r. c #765A5B",
"t. c #76694E",
"y. c #6D5B61",
"u. c #715E62",
"i. c #7B5E62",
"p. c #696767",
"a. c #746163",
"s. c #7B6464",
"d. c #7A6B67",
"f. c #76706F",
"g. c #777676",
"h. c #834D37",
"j. c #875537",
"k. c #955A3B",
"l. c #A05D3E",
"z. c #88643D",
"x. c #99653A",
"c. c #A66B37",
"v. c #AC713A",
"b. c #B57839",
"n. c #824846",
"m. c #824D4E",
"M. c #8B4E4C",
"N. c #835A47",
"B. c #85504E",
"V. c #8C514E",
"C. c #92524D",
"Z. c #975A4E",
"A. c #814D50",
"S. c #894F50",
"D. c #865151",
"F. c #8B5252",
"G. c #8A5B57",
"H. c #925452",
"J. c #955B57",
"K. c #9B5A54",
"L. c #9C5D5A",
"P. c #A15E5A",
"I. c #866647",
"U. c #946C45",
"Y. c #8D704F",
"T. c #9B655B",
"R. c #887857",
"E. c #A56843",
"W. c #AA784A",
"Q. c #B27D4A",
"!. c #A3625D",
"~. c #A6695E",
"^. c #A77956",
"/. c #835D63",
"(. c #866967",
"). c #846B69",
"_. c #9A6967",
"`. c #8B746A",
"'. c #977868",
"]. c #A56561",
"[. c #AA6661",
"{. c #A66C64",
"}. c #AC6A63",
"|. c #B36D67",
" X c #AA7665",
".X c #B8766A",
"XX c #BD823C",
"oX c #C0863E",
"OX c #968857",
"+X c #B8874B",
"@X c #AA8659",
"#X c #BB8B55",
"$X c #AA915B",
"%X c #B8955B",
"&X c #98896E",
"*X c #A79967",
"=X c #B2906D",
"-X c #BB8974",
";X c #B9A569",
":X c #B5A772",
">X c #C59149",
",X c #C49558",
"<X c #CB9B5C",
"1X c #D6A95C",
"2X c #C5936E",
"3X c #C59778",
"4X c #CBA669",
"5X c #D7AE6C",
"6X c #C8A772",
"7X c #C9B97A",
"8X c #D9B977",
"9X c #E1BC75",
"0X c #DAC27A",
"qX c #E5C57A",
"wX c #E4CA7C",
"eX c #827F80",
"rX c #7F8180",
"tX c #868786",
"yX c #979797",
"uX c #B09B86",
"iX c #BAA889",
"pX c #A4A4A4",
"aX c #ABACAB",
"sX c #AFB0AF",
"dX c #B8B8B8",
"fX c #D4AF8A",
"gX c #D9AD8E",
"hX c #C8B78B",
"jX c #C9B692",
"kX c #CDBB93",
"lX c #D9C784",
"zX c #DED28D",
"xX c #E5CD83",
"cX c #E6CB86",
"vX c #E9CC84",
"bX c #EAD186",
"nX c #E5D288",
"mX c #ECD58B",
"MX c #EDD98D",
"NX c #E7D691",
"BX c #EEDA92",
"VX c #F2DD95",
"CX c #F3E098",
"ZX c #ECCEA2",
"AX c #BFC0C0",
"SX c #C8C8C8",
"DX c #CED1CF",
"FX c #D8D8D8",
"GX c #DEE0E0",
"HX c #E5E6E5",
"JX c gray94",
/* pixels */
"B Y ^ h.h.h.l.l.j.h.^ ~ Z > q = q = = : % % : % % % 7 7 7 % % % = = = = = = = = = = = = = = = = = = = = = $ = = % % $ = = = = = = $ = = 7 $ = = = = = = % 7 $ = = = 6 = = % 7 % = = % 7 % 7 % 7 7 7 % % q % % q % % : % % q % q % % : % % : : : : V Z U.<X4X<X4X",
", Y ^ h.h.k.l.l.j.h.~ U e : : : = % % 7 % % 7 7 q % q % 5 % % % = = = = = = = = = 6 $ = = % 6 = % = = = % 7 = = % % % = = = = = = = = = = = = = 6 = = = 7 % = = = = = = % 7 % = 7 % 7 % 7 % % : % % q % 7 % % % 7 7 7 7 % % q % q % : % : % : : : , Z U.,X<X<X<X",
"V Y h.h.k.l.c.h.^ ^ ! D w : = = % 7 % q 7 % % % % 5 % % 7 % 7 % = = = % * = = = = = = = = = = = 7 % = = = = 7 $ $ % % % = = = = = $ = = = = = 7 = 7 % 6 = = = = = = = = 7 = = = % % % % 7 % 7 % % q 7 % % % q % : : 7 : : % % % % % % % : : : : : , V I.,X<X<X<X",
"N ^ h.h.k.E.k.h.^ ~ Y e : = : = 7 : % 7 7 % 7 7 7 7 % % % 7 % % = = = 7 = = * $ 6 = % 7 = = $ = $ % 7 $ $ % % = % $ $ % $ % $ = = = % $ % $ = = % = = = = = $ = $ = = $ % = 6 = 7 7 % 7 % 7 % = % % 7 % % q % % % % % % % : q 7 : q % : % : % % : V S j.%X<X<X<X",
"F Y h.h.l.c.h.h.h.~ S > = = = = 7 % % 7 % % 7 % = = 5 = 7 5 % : = = = = = = % % = % 7 % % = $ % % $ 5 % = % 6 % % $ $ % $ $ % 7 $ = % 6 % = = % % % = % = % % 7 = = = = 7 % $ 7 % 7 = = = 6 % = % 7 7 % q 7 % % 7 % % : : = : = % q q % % : q : : e Z j.,X,X<X<X",
"Y h.h.k.E.k.h.h.^ ! e : 7 : = 7 % % 7 % % 7 % % = = = $ % % % 7 % % $ = 6 = % 7 $ % % = % $ 7 $ $ 7 $ 5 $ $ % 5 5 5 $ $ $ 5 % $ $ $ 5 % % % % $ $ % $ 7 7 $ $ % % = = = % = = % % % = = = = 7 = 7 % % 7 7 7 % % % 7 % % % % = = q % % % % q : % > , A 4.#X,X<X<X",
"Y h.h.l.E.N.h.~ ~ U : q : 7 7 % : 7 7 % 7 7 % 7 7 $ = = = % % % 5 7 % 6 $ $ 5 $ % % 5 $ $ 5 % 5 % 5 $ % $ 5 5 $ $ % % $ % 5 $ 7 $ % 5 5 5 % 5 % % 5 $ % 5 % $ = $ = % = % 7 7 % 7 % 7 % = 7 = $ % 5 % % % 7 % % % : % 7 % % : % % % % q q % : : : e C ( #X<X<X<X",
"Y h.h.E.k.h.h.~ ! C q q % 7 = % 7 5 % 7 % % 5 % % = = = = % = % 7 % 5 % $ % % 5 5 $ % 5 $ % 5 % 7 $ % $ 7 % 5 % % $ % $ % $ % $ % 5 $ % $ $ % 5 % $ 5 % $ 5 % $ = $ % $ $ = % % % 7 $ % % % = = 7 % 7 % 7 5 7 q % 7 % : % = = = % q q % % : : q q , C ( ,X,X,X,X",
"^ h.l.l.j.^ ^ ~ U e 7 7 = 7 = 7 = $ % = $ = = = $ = % 5 7 % % % % 5 $ $ % 5 $ % % $ $ % 5 % $ $ % % 5 $ 5 = $ $ $ $ $ $ 6 $ = 5 5 % % $ 5 % % $ 5 % % 5 $ % 5 $ % 5 $ % % $ 5 $ 7 $ 5 % 7 % % 7 % % 5 % = = = $ = = = = 7 % = % % : % : = = : q : e C z.#X,X,X,X",
"^ h.l.l.h.^ ^ ~ G w : 7 = 7 % = = 7 = 6 = = * = 5 7 $ $ $ $ 6 = % $ % 5 5 % 5 % $ $ % $ % $ % $ % 5 $ $ * $ * 6 = @ $ $ * $ 5 6 5 5 5 $ % $ 5 $ $ 5 5 $ % 5 5 % $ $ 7 $ % $ $ % % % 7 7 $ 7 % % % 7 % 7 = = = = = = = = % = % 7 % = 7 % = = q : > , Z z.#X,X<X<X",
"^ k.c.k.h.^ ^ U e : 7 7 7 = = = = = = * = = % = $ % 5 % $ $ = = = $ $ % $ $ % $ % 5 $ $ 5 = $ $ $ = 5 $ * * * $ * $ O = * * 5 6 6 7 $ 5 5 = * 5 % $ $ $ 5 % % 5 $ $ $ $ $ % 5 5 5 % $ % % $ % 7 % % % 7 = = = = = = = $ 7 % % 7 = : = q : % = q : e Z U.>X>X<X<X",
"h.l.k.h.^ ^ ! D : % 7 7 5 = = = = = = = = $ 6 % % $ $ 7 % $ 7 $ $ = 5 5 7 $ 5 $ $ = * $ * $ * * * $ @ $ $ 6 6 6 * $ O * * $ * 6 5 5 * * * $ $ * 6 = $ = = $ 6 % = 5 = $ 7 % $ % % 5 $ 7 $ % $ 5 % 7 7 % = $ = = 7 % 7 = % 7 % = % 7 % : = = q : > e D W.<X1X<X<X",
"h.E.j.h.^ ~ Y > : 5 % 7 % 7 = = = = = $ $ % 5 $ 5 % % $ $ $ $ % $ 6 6 6 6 6 O * * $ @ $ $ @ $ * 5 @ $ 2 6 6 6 6 * O $ * * $ * 6 6 6 6 * 6 $ @ $ 5 * O * * * $ $ $ $ = = 5 % % $ 5 5 % 5 5 5 5 % 5 7 7 $ % = = = $ = = 6 = % % = % 7 % : = : : q , , G $X1X1X1X1X",
"h.k.h.^ ^ ! D 7 % 7 7 7 7 % = = = * = $ 5 % % 5 % $ 5 $ $ % $ $ * * 6 5 6 * 6 $ * * * * * 6 * * 6 6 6 6 6 6 6 6 6 6 X * * * 6 6 6 6 6 6 6 6 6 6 6 6 6 * 6 * 6 * 6 6 * 5 % $ 5 % $ % % 5 % $ % 5 5 % % % % 7 = = = = = = 7 = 7 % 7 % % 7 = 7 : : : B H ;X5X5X9X5X",
"k.k.^ h.~ ! e 7 : 7 7 % % % 7 $ = 5 $ $ 5 $ 5 % 5 6 = $ $ O 5 $ 6 $ 6 5 6 6 5 6 6 6 * 6 6 6 6 6 6 6 6 6 5 6 5 5 6 * O $ O * * 6 5 6 6 6 6 6 6 6 6 6 6 6 6 * $ @ 6 6 6 6 6 5 $ $ $ 5 5 % % 5 7 5 % 5 $ $ $ = = = 7 7 $ % % 7 $ = 7 % : 7 = : : : , B H 5X9X9X9X1X",
"k.h.^ ~ ~ P 7 7 7 7 % 5 % 7 = $ 5 % $ $ % $ = $ = $ 5 $ $ $ 6 = @ * 5 5 6 6 6 3 5 6 6 6 6 6 6 5 5 6 5 3 O 6 6 2 5 O $ O * $ * O 2 5 5 6 6 6 5 5 6 6 6 6 6 6 6 6 6 6 6 6 6 6 $ $ $ % $ 5 5 % % % 5 % % 5 % = = $ % % = 7 = = = = % % 7 7 = = : : w a W qXqXqX9X9X",
"k.^ ~ ~ ! f = 7 7 6 = = 7 % % 5 $ $ % 5 5 5 7 5 5 5 $ * O 6 6 6 6 6 6 6 6 6 6 6 5 5 6 5 6 5 6 3 6 O O 6 2 5 5 6 $ $ X O $ O O $ O 5 5 6 6 6 $ 5 6 6 6 6 6 6 6 6 6 6 6 6 6 6 2 * = $ $ $ $ % $ $ $ 5 % $ % 5 % % = % = = = = $ = 7 7 % 7 : = : : > C / lX9X8X8X9X",
"j.^ ~ ~ U > = 7 = = = = $ 5 % % % 5 5 % 5 5 5 6 6 * 3 5 $ $ 6 6 6 6 6 6 5 2 3 $ 5 @ 5 3 O $ 5 5 2 5 5 6 $ O 5 O O 2 5 $ 2 5 5 2 O 5 5 O O 5 O 3 2 5 $ 6 6 6 6 6 6 6 6 6 6 6 6 6 6 @ * 5 $ 6 % $ % % 5 5 5 % 5 7 $ 5 7 = = = 6 = % % % 7 = = q : , C ( 5X4X,X4X9X",
"h.^ ~ ! Z = - 7 7 = = = $ % 7 % % $ $ % 5 5 6 6 6 6 6 6 O $ 6 6 6 6 6 6 6 5 3 6 6 O 2 6 O 6 3 6 5 O $ O O 6 2 $ 5 2 $ O $ O O 5 5 $ O $ 2 5 5 O 5 O O 6 5 5 5 6 5 6 6 6 6 6 6 6 6 5 5 6 6 5 = 7 5 5 5 % % 5 $ 5 $ 7 6 = = = = = % % % 7 = : : : : C I.4X#XQ.<X8X",
"^ ^ ~ ! a : = = * = % $ % $ 5 5 5 5 % 5 5 6 6 3 6 5 6 5 $ $ 6 6 5 6 2 5 5 3 5 2 6 5 @ $ 6 O $ O 5 5 2 5 O 5 5 O O $ O O 5 5 5 2 2 $ 6 2 $ O 5 6 6 O 5 5 5 3 3 2 5 6 6 6 6 6 6 6 6 6 6 6 6 7 5 $ 5 % % $ 5 % % $ % $ = % = $ = = 5 7 % 7 = = : : w C R.4X+X+X<X8X",
"~ ~ ~ P 7 = = = = * = $ 5 7 5 5 5 6 6 6 6 6 6 6 6 6 5 $ $ $ 5 3 5 2 $ 5 2 5 * O 2 $ 5 O 6 $ 5 5 O 5 5 $ * 5 O 5 5 5 O O $ O O $ 5 5 5 2 @ 6 5 O 5 O 5 $ 2 5 5 O O * O $ 5 6 6 6 6 6 6 5 6 6 6 6 5 6 5 5 $ $ % 7 5 5 % 5 % 6 = = % 7 7 7 % 7 : > > A  X<X+X^.<X5X",
"~ ! ! D ; = = = * * $ = 7 5 5 5 6 6 6 6 6 6 6 6 6 6 6 2 $ O O $ O 5 O 6 $ O $ $ 5 O O $ 5 O O $ 3 O @ O O $ O 6 O O $ O O $ $ X O O O @ 3 O 2 5 6 O 2 $ $ O 5 $ 5 2 6 5 6 5 6 2 6 6 6 6 6 6 6 5 5 5 % 6 = $ 5 $ $ % % $ 5 = = = 7 % % % = 7 = : > D @X<X+XQ.<X5X",
"! ~ ! a * = 6 = 6 * $ = 5 5 5 7 6 5 5 6 6 6 6 5 6 6 6 $ O $ 5 2 O 6 O 5 O 6 $ O 2 O 6 $ O $ O $ 3 5 O 2 O O O O O $ O X O O O O @ O 2 5 @ 5 $ O O 5 O 5 O 5 6 3 3 $ O 5 6 6 5 6 5 3 6 6 6 6 6 6 6 6 = 6 * $ $ = % 5 5 % 7 $ $ 5 % % 7 $ 7 7 = : w G =X,XW.W.<X4X",
"Y ! T 9 * = = 7 6 * $ 5 5 7 6 6 6 7 6 6 6 6 6 5 2 5 5 O $ 6 O $ $ 2 5 6 O 3 @ $ @ $ O @ @ O @ O O O O O O $ O O O O O O X O $ O O O O O O O 3 * $ @ 3 6 O 3 O 5 5 O $ 5 O 2 5 O 6 2 5 3 5 6 6 3 6 6 6 6 6 * = 6 6 % $ 5 $ $ % % 7 % % % % 7 : = , U %X,XW.W.#X4X",
"! ! G = = = * 6 7 $ 6 5 % 6 6 6 6 6 6 6 6 6 5 * 6 2 5 2 $ 5 $ O $ O $ $ O * @ O @ @ @ O O $ O O O O $ O O O 2 O O O O O $ O O O 2 O O O O O $ O O O O * O 6 5 5 2 5 2 $ $ O 5 O 5 2 6 5 6 5 6 6 6 6 6 6 6 6 6 6 7 5 7 5 7 % % 5 * * = = = = = : , W =X>XE.E.^.#X",
"Y Y d = = * * = 6 6 6 7 6 5 6 6 6 6 6 6 5 5 3 5 3 5 O 5 O O 5 5 $ O O o O @ @ $ O X $ $ O O O $ O O O O O O O $ O $ O O O O O $ O $ O O O $ O O O $ O O 3 O O O * O * O $ O 2 $ 5 @ 5 3 2 6 6 5 5 6 6 6 6 6 6 6 6 6 5 5 % 5 5 $ = = * = = = = : w / ,X#XE.W.W.Q.",
"H T > = * = = * 6 6 6 7 6 6 6 6 6 6 6 5 3 5 2 6 5 3 $ 5 O 5 O 6 O $ X O @ $ O O O O O O O O O O $ O O 2 O O O O O O $ O O O O O O O O $ O O $ O O O O O O 5 6 O O * @ O O $ $ $ 5 6 5 @ 6 5 5 6 2 6 6 6 6 6 6 6 6 6 5 5 5 5 % 5 * * = 7 = = = : w ( %X+XE.Q.#XQ.",
"S H = = * * * * 6 6 6 6 6 6 6 6 6 5 6 $ 6 2 5 3 O 5 O O O O $ 2 $ O O X O O @ O $ O O O O $ O @ O O O O O O O O O O o o X O O 2 2 O O O O O O O O $ O O O O O O O O @ O O 6 O O 2 O $ 2 O 5 @ 2 6 5 6 6 6 6 6 6 6 6 5 7 5 % 5 % * = = = % = ; : e 4.#XQ.W.+X,X#X",
"C P * $ * * * 6 6 6 6 6 6 6 6 6 2 3 5 3 5 6 @ $ 5 O $ $ $ $ @ O O O $ O O * O O O O O O $ o @ O O O O O O O O O O O O o X O O O O O O O O $ O O O O O O O O O 5 O $ O $ X @ $ @ $ @ 2 $ O 5 $ 6 $ 3 2 6 6 6 6 6 6 6 6 6 6 $ = $ * = = 6 % = ; = e I.,X#X#X,X,X>X",
", D ; * = * 6 6 6 6 6 6 5 3 5 5 6 5 2 5 O 5 2 $ $ * O O O @ * O O $ O O O O O O O @ O O O O @ o o O O o O O O O O O O X O O O O O O O O O O O @ O O @ O O O O O O O O O O O @ O O @ 5 O O 5 2 6 2 5 6 5 2 6 6 6 6 6 6 6 6 * = $ $ 6 6 7 * = = : > U.,X,X<X,X#X#X",
"> a = * 6 6 6 6 6 6 6 5 5 O 5 3 6 6 6 O $ 3 $ 5 O O @ O X @ @ O O O O X O O O @ O O O O o O @ O @ O @ O O O O O O O o O o O O O O O O O O O O O O O O O O O 5 O O $ O $ X * @ * * * O $ 5 O 6 6 6 O O 6 3 5 6 6 6 6 6 6 6 6 = $ $ = = 6 = = = q 1 z.+X,X,X>X#X>X",
"= w = = 6 6 6 6 6 6 5 6 O 5 5 3 5 O $ 5 5 O 3 O @ * O * = O * O O $ O O O O O @ o O O O O O O o O O o O O O O O O O O O o O O O O O o O o O O O O O O O O @ O O O O O O X O O @ @ O * 3 2 $ 5 O $ 5 5 2 5 3 5 5 6 6 6 6 6 6 6 6 5 = 6 = = = ; : 1 j.c.Q.Q.#X,X,X",
"= = * * 6 6 6 6 6 6 6 5 O 5 5 2 6 $ O 5 5 @ @ O @ @ O q 0 $ O & X O O X O O O O O O O O O @ o @ O O O O O O O O O O O O o O O O O O O O O O O O O O o O O @ O O O O O O * = O * @ @ @ @ 6 O $ O O 6 5 O 5 5 3 5 5 6 6 6 6 6 6 6 7 5 5 7 % = = ; N h.k.c.b.+X+X%X",
"= * * * 6 6 6 6 6 6 5 2 $ O O 6 2 5 5 O $ 3 @ * * O * V d $ O O O O O O O O O O @ o O O O X O o O O o O O O O O o O O X X O O O O O o O O O O o O O @ O o O O O @ O O O w w O @ O O * @ 3 * O $ $ 2 O * 3 5 $ 3 6 6 6 6 6 6 6 6 5 5 6 7 % & = : H j.k.k.c.XX+X>X",
"= $ = @ 6 6 6 6 6 6 6 5 O 5 6 2 @ @ @ O O * @ @ $ O O T A O 3 O O O O O o O O O O O o O O o O o O O O o X o O o X o O o o o O o o O o O o O X O o O O O O O O O O O O O r P $ O $ $ @ O O * @ @ @ @ O 2 O 5 O 5 6 O 2 6 6 6 6 6 6 5 6 7 = * % : H k.x.x.x.v.XX%X",
"= $ $ $ 6 6 6 6 6 6 5 2 5 O $ $ @ O * @ @ O O @ O $ 7 <.J $ O @ O O O o X O O O O O O O O @ o @ o O o o o O o O o O O o o o X O O o o X O O O O O O O O O O O o O O X O r ,.: O O @ $ @ @ O @ * O * 5 $ 5 3 5 O 5 3 5 6 6 6 6 6 * * = = % & : , Q c.c.x.c.c.v.XX",
"* = * * * 6 6 6 5 6 5 O 2 2 $ 2 @ O * * * O O @ O = e L.P 2 O O O O O O O o O O O O O O O O o O o O o X O o o o O O O o X o o o o X o o O X o O X @ o O O O O O O O O @ 0 M.P @ $ @ X @ @ O $ @ @ $ O $ 2 @ 5 O O 5 6 5 6 6 6 6 3 $ * * = = : , j.c.c.c.c.c.c.c.",
"* * * * * 6 6 3 3 $ 2 O $ @ O @ @ O @ O @ @ 6 3 6 q P !.U 5 3 O 2 O O O O o O O o o @ o o O O o O o O O o o 2 o o o o o o o 2 o O O o O o O O o @ o O O O O O O O @ O 3 8 2.n.= X * @ @ O @ @ X @ @ @ * @ $ 5 O $ 6 5 3 6 5 6 6 * = 8 = = 7 : 1 x.c.c.c.c.c.c.c.",
"; * * = * 6 6 * 5 5 O 5 6 O * @ @ * O @ O * 3 * $ S X.!. .5 O @ O O O o o O O o O o o O o o o O o O O o O o o o o X o o o o o o O o O o o O o O o o o O o O O o O O O O * 1.F.: * O @ O o * @ O O * @ O @ 2 5 O 5 O 3 5 2 $ 5 6 6 * 6 = * = q N c.v.b.c.b.c.v.c.",
"= = * = = 3 3 6 5 @ $ O 6 @ * O O @ * @ @ @ 3 @ q P H.!.,.5 @ 2 * O O o o O O O X O O o @ X O o O o X O o O 2 . o o o X X o X o o X O o O o O o O X O O O o O O O O 2 @ @ *.K.S @ @ * O X * O O O @ @ O * 5 O 5 O 5 O 6 6 O 5 6 @ * 6 = = 7 q G v.b.b.b.b.b.b.v.",
"= 6 $ $ * 6 6 6 3 5 $ 2 O O * @ @ @ $ O @ * $ = T P P.[.D.6 3 2 2 2 O o o o @ o o O O o O X o @ o o o . 2 . 2 . . . O o o . o o o O o O X O o O O O o . O O o O O O 2 2 O } L.U $ O 5 $ O O O * @ @ X @ @ @ O O $ $ $ $ 6 $ 5 6 * = = * = ; w W XXXXXXXXb.b.b.b.",
"= = $ O $ O 6 6 5 6 O $ 5 @ * O O * @ @ @ * $ t ..T [.[.J.6 3 2 2 O O O o @ o o O o o o o O o o 2 o 2 . 2 . . . O o X o o . X o O o o o O o o . . O O O O o X O o O 2 o @ P !.o.$ $ $ O O O O @ @ $ * @ O * * @ O O * @ 6 O O 6 8 * * = 7 0 w ( ;XXXXXXXb.b.b.b.",
"= 8 * * 6 * * 6 6 5 O 2 5 @ @ O @ 2 3 3 @ 6 7 | V H.}.}.!.r 3 2 2 O O o o O O X o O o X o o o o o o o o . . 2 2 . o o o X o . o X o o o O o O . o o . O . o O o O 2 O o O A L.J.: $ 2 5 $ O = O @ @ O @ @ O @ O O $ O * 6 5 $ 6 * * = = q w e t.0X1XoXoXXXXXb.b.",
"= 6 = = 6 = * = 6 3 $ 5 3 6 @ 3 O 3 6 6 @ 6 S ;.F [.}.}.].L 3 5 2 2 @ o . X o O O o o O O o X O o o o o 2 . . . . . o o o * * . . o O X o o X O O . O o O O o O o 2 2 2 2 r J.L.F r 5 2 O O 0 = $ O * O @ X * @ * O O O O 5 O $ 8 = ; = q w f R.wXwX1XoXXXoXoXXX",
"6 8 = = = T =.0 6 5 5 6 5 3 3 3 3 6 3 2 5 : m.] S.[.[.[.[.,.5 2 3 2 O o . o o O O o O o X o o o o o o o o o 2 . . o o . . $ 9 . o o o o . O o X X o O O o O O o o 2 2 o 2 = G.P.m.V q 5 O $ 0 t $ X * X O O O * @ @ O $ 6 6 5 6 * e 7 7 w w Z OXCXwXwX9XoXoXoXoX",
"7 6 = = F 3X=Xg 6 6 6 5 5 @ 3 6 2 5 2 6 q o.o.P M.P.}.[.[./.0 O 2 O o O . @ o o . O . O o o o o o o o o o o . o . o o o o O A o o o o . . o o o o o o o o o O o o @ o @ 2 $ 7.P.P.P S 5 6 O $ U e X o O @ * @ * O @ @ O O 6 6 6 w G.F q w , Z *XwXwXwXwX1X>XoXoX",
"= = 6 ; N.gXZXr.7 6 6 6 6 6 5 2 2 5 5 5 T ]. .o.].M.n.].].L.z 2 2 2 2 o X 6 O O O o o o o o O . o o o o o o . . . o o o o X U O . o o . . o o o o O O o O X o O o O O O 2 $ ..T.P.T | e @ 3 O 7 F : @ @ @ * O O 6 3 6 $ 5 6 6 = X.|.T : < 1 G ;XCXCXwXCXwX1X1XoX",
"6 7 7 w {.ZX:X{.U 0 6 7 6 6 6 6 5 5 q T ].D.P P.[.}.L.T M.J.U 8 2 O O + O 7 . . O . o o o o o o o o o o o o 2 . . o . o o X } $ o o o o o o o o o o X o o o o o O o o O O O K T.P.S.P  .= 3 2 O K *.: $ O @ @ @ @ 3 6 5 5 6 6 K L..XY e 1 h G ;XwXwXCXCXwXwX1X>X",
"7 8 7 w -XZXiX.X/.t 7 5 7 7 5 5 5 0 X.P.L.] H.[.}.|.}.T.m.T U 6 o 3 o O o r O o o o o o o o o o o o o o o   o o   o o o o . -.7 o o o o . o o o o o o o o o o o O o O O O O d J.!.L.F | t $ O O 7 -.n.q * @ @ @ 3 6 6 6 5 7 0 L..X|.n.B e C D $X0XmXMXMXMXbXqX1X",
"7 7 = e 2XZX3X.X|.6.0 7 0 7 7 5 q X.[.[.X.X.[.|.}.}.}.[.].J.P 6 3 o 2 3 o 7 7 o o o o o o o o o o o o o o o o o o   o o . . -.A o o o o o . o o o o o o o o o o o o O o o O 8 F.!.L.,.q U 7 5 2 2 t G.:.q 6 @ @ 3 6 6 6 7 q O.|.|..Xo.e a C G *XwXxXmXVXVXVXVXqX",
"6 6 8 w |.ZX3X.X[.]...q 7 7 7 V n.[.].<.T P.[.|.}.}.}.[.!.!.J.K 2 @ o o + = w o o o o o o o o o o o o o o o o o o o o o 2 .  ...o o o o o . . o o o o o o o o o o O O o 2 2 6 ,.L.X.T U  . .7 3 5 $ A G.m.S $ 6 5 5 5 7 0 ' P.|..X|.Y V a Z G *XbXwXmXVXVXVXVXVX",
"7 7 7 q P.ZX-X.X.XP.H.L 0 q V  .].].X.P H.[.[.[.}.}.[.].[.!.L.7.O o O o o * f o o o o o o o o o o o o o o o o o o   o o . .  .<.% o o o o . O o   o o o o o o o o O o O o O 3 ' V T L.H.P J.P 6 @ 3 6 A ,.P T = 6 6 5 5 P [..X.X.X|.T t f Z G :XMXMXbXbXVXVXVXVX",
"7 7 7 % Y gX2X.X.X.X.X].H F.].;.C U S 2.<. .F.L.~.[.[.!.].!.!.J.D @ O o o O K $ o o o o o . o o o o o o o o o o o . . o o X T m.S o o o o   d & o o o o o o o o o o o o 2 o 2 6 X.!.P.L.X.U S.S 3 5 3 O = U | a J t 7 r ]..X.X.X.X[.S e B C G *XMXVXMXwXwXVXVXVX",
"7 5 7 % V .X-X.X.X.X|.[.T.G.1.U e : ; , B q w F :.J.!.!.!.!.L.J.1.6 @ o o X D f o o   o o o o o o o o o o   o o o . o o o X U m. .o o o o o 0 } 2 o o o o o o o   o o o o o o 0 G.L.!.P.K.T U 2.9 O 3 6 3 6 * = t y 0 T P.|..X.X|.C.B q a C G *XbXMXVXmXmXMXVXCX",
"5 7 % 7 V M..XgX.X[.[.|.[. X! r > ; : ; ; ; ; ; ; 1 U F.J.F.n.F.D.c o o o . 9 ..2   o o o   . .   o o o o o o   o . o   o o U m.<.q o o o o o -.L o o o o o o o o o o o o o + 2 -.J.L.L.H.S.t 7 * @ @ 3 3 6 6 0 6 6 t J.|.[..X.X|.F , e a Z G $XbXmXVXMXwXwXwXVX",
"5 5 5 5 % F |..XuXT..X.X.X-X-XS.U > ; ; : ; ; - = ; ; 1 K ;.G.B.n.| 6 o + o X d 2 o o o o o o o   o o o   o o o o .   o o o K m.m.K @ . o o o f ,.S o   o o o o o o o o o 2 o 2 t 6.m.X.D 9 & @ @ * * @ @ 6 3 6 6 w 2.}.|.[..X|.M.V , e a C G *XmXMXmXmXbXwXqXmX",
"7 7 6 5 6 r S..XfX{.}..X.X.XgXT.>.g w 9 a J J p ; & ; & - ; e | D.F.I @ o o . . X + O o o .   o o o o o   o o o o   o o o o f m.m.;.X o o o + o ,.2.F + . o o o o   . o o o 2 o o U , & # @ & # * & - 8 * * @ 6 r A.[.|.].{.|.P.F w a C 1 Z G OXqXmXwXmXmXMXbXqX",
"5 5 7 7 7 0 S ].2XgX{..X.X.XiX2XG.! D p I #.%.%.#.c w ; - - - - w K } 9 + o o @ J 7 . . . o o o o     o o o   o o o o   o o d 2.B.m.D o + O o o U m.2.F X + o o . . o o o 2 o o o O # & & * 9 I #.} L r 9 r J T J.!.|.|.J.|.|.X.w q D G 1 Z G R.wXwXbXmXVXVXVXMX",
"6 * = 8 6 6 q P |.gXfX X.X.X|.gX XT.*.J I 5.9.9.0.I K } K w 9 9 9 8 - & . o o o J L o . o o   o o o o o o o o   o o o o o o 8 ,.M.m.6.7 O o 2 o 0 2.B.m.| 6 . o o o o o 2 o o 2 O o @ = 9 w z 9.r.i.r.E J U L.[.[.[.|.P.|.|.m.e 7 w I H C C G OXmXmXVXVXVXVXVXVX",
"5 = * 7 6 6 6 q -..XZX3X.X|.!.iX-X{.T.K U G.`.`.).=.'.uXuX`.} f d d 9 - + o o o q 6.P d 6 . . o     o   o   o o o o o   o   = -.m.D.S.U 3 o o o o U B.2.T 8 @ o o + o + o 2 o 2 @ @ o 0 y d c s.).`.(.=.F J.[.|.[.|.[.[.|.F.B 7 7 0 I ~ 1 Z h OXmXMXVXVXVXVXVXVX",
"* @ = ; 6 6 8 6 r 2.3XcX-X{.T.-X3X|.}.D.I s.`.(.).5.(.uXiX-X_.{ ..3.g 7 @ . o o o U ;.d z w . . o   .   .   o o o o o o   o o } 2.,.B.2.a o O + o 6 U f = A U w o o o 2   2 2 2 O 2 o 3 6 l I s.`.`.(.U 7.{.}.|.L.].P.}.J.S 8 7 9 q H I.a s G Y.bXMXMXVXVXVXCXVX",
"6 $ q ; 3 6 3 6 7 q B.3XZX XT..XgX X}.{.4.*.`.(.).5.P r.'.&X/...6.r.6 O d 0 O o o * *.=.= } d . o   .   o   o o o   o o o o 2 v 2.T 7.B.2.7 o O + o O 0 #.I & # # # @ 3 4 o 2 2 O O 2 3 @ 6 [ ).`.(.U 1.{.}.}.[.F.J.}.J.V 7 7 7 7 0 I $XN Z Z t.bXMXVXVXVXCXVXCX",
"@ * ; & 3 3 @ * 6 6 t m.uXiXL.{.gXiX|.}.{.;.r.`.).e.L ' O.] ..] ] r o o 6 L v 5 o o * J U f =.D o o o       o o o     o o o o 0 1.>.T 2.A.} 3 @ o o @ U J - 8 9 K =.#.{ 3 2 2 6 7 0 0 r r r =.(._.r.,.].}.{.|.L.F.[.H.S 7 = = ; ; ; E 6XN 1 Z t.nXMXVXVXCXCXCXCX",
"5 O % * @ * * 6 6 6 7 t n..XgXT.-XgX.X}.~.T.2.(.(.d.{ U ..' ' ] ' z o o 0 L L y = + + & J U t *.` 2 o o o o o   o o o o 0 o o o =.2.2.2.S.*.U 7 O 2 + 3 - u G a.&X&Xr.r o o 7 ` ' ' ' ..{ ` ).(.(.F.].[.|.}.}.J.].J.S 7 6 7 7 = 8 ; I fXH 1 G / nXMXVXVXVXCXCXCX",
"$ @ w * @ @ O 3 3 5 8 6 q <.{.3X@XgX-X}.{.].J.G.(.(.r.U ] ] ' ] ' ' v 0 L ` ` L z 8 o 2 L U L A -.*.r @ o   o .       o g @ o + f 2.D.F.B.B.D.1.f * @ + + c ).&X'.(.O.L 7 y ` ] ] O./._.-.s.(.(.7.L.~.[.|.}.!.P.H.S 7 6 7 6 7 8 = 9 E 8XW Z G E zXMXBXVXCXCXCXCX",
"@ & f 8 @ O @ 2 3 3 3 6 7 A  .{. XfXfX}.}.].!.m.*.(.s.9.] ] ] ] ] ] ] ' ` ' ' ] ] ` l 8 3 U 7.U K 1.-.I 9 . o + + o o . = ` O o * U m.m.F.V.V.D.2.*.J 6 o 8 ` 6.-.{ ] ] ] ] ] ] ] 7././.(.(.G.7.F.].!.[.[.[.P.J.4.C 7 = 0 6 6 = 9 ; h 7Xj.Z Z E lXMXBXCXCXCXCXCX",
"@ = D 3 @ O @ 3 2 3 6 6 6 y q  .]..XgX=X}.!.].].J.1.i.s.5.' ] { ] O.] O.] ] 5.`.i.` 5.#.8 * U 2.U t 6.2.1.} @ o   o o o o f J o o 0 1.B.F.F.F.F.B.B.,.f %.[ w L ' ' { { { ..O...O._.r./.(.1.T M.].].[.[.!.].S.t G.D 0 = 6 6 = - = ; h 7XY.N Z R hXMXVXVXCXCXCXCX",
"@ p d @ @ @ o 2 2 2 2 6 7 0 6 w T _.fX6X~.].!.!.J.:.1.G.r.5.{ ] O.O.O.O.O.O././.r.5.r.7.| D K ] 2.*.P U 2.2.} = o o o o o + U J = O d *.B.V.F.F.F.B.U ! D.r.%.` ` ] O.O.O.5.O.O.] O.r.7.B.J.J.L.P.].!.[.~.K.S 9 R.( = 7 6 8 8 = = ; s hX%XG Z G *XnXMXBXBXCXCXCX",
"* 9 6 @ O 2 2 2 2 3 2 2 r 0 6 6 0 T 3XkX X[.].P.L.L.K.F.1.=.9.#.` O.5.O.5...=.} 9.r.D.D.A.X.,.7.m.m.2.T P 1.2.} @ o + o o + 6 } =.A 6 e 1.D.V.F.F.:.>.F.F.F.r.6.` ` { O.O...] ' { U ,.F.J.P.P.P.P.!.!.!.P.m.q 7 R.@X7 6 6 8 - = - ; < :X6XR Z G OXNXNXBXBXBXBXCX",
"@ & * o 2 2 2 2 2 2 2 O l 0 @ 6 6 q I.fX2X!.!.P.L.L.L.J.H.F.| U { ` L ` L I } 9.=.D.F.G.H.S.S.D.F.D.D.7.;.T -.<.=.w @ 2 o + 3 6 } ,.6. .;.F.F.F.F.F.F.F.F.F.G.1.-.} I c L S K ] 7.G.K.Z.K.L.K.P.P.P.!.P.P.U 7 q R.8X: 7 6 = 8 = - ; u :X8XW G G t.NXBXBXBXBXBXBX",
"O @ O @ 2 2 2 2 2 2 2 5 y 6 @ 3 @ = P fXfX^.P.P.L.K.K.K.H.K.S.S.>.*.=.} | *.*.2.D.G.F.F.G.S.F.F.S.S.D.D.B.A.1.;.,.,.} A 8 @ 3 @ 6 J U 6.D.F.F.F.V.F.F.F.F.F.F.F.S.S.A.7.2.A.S.H.H.H.K.P.K.K.K.K.K.P.P.P.H.e 9 q R.cXH * 6 = 8 8 ; 9 < *XlX^ G G / zXBXBXCXBXCXBX",
"O @ * @ 2 3 o 2 o 2 o 7 y 0 2 3 * * : =XfX XP.K.K.K.Z.Z.H.H.H.H.C.F.H.M.H.F.F.F.F.H.F.F.F.F.H.D.F.G.F.D.F.D.B.B.m.m.m.2.1.*.U K f f S P 7.F.V.F.F.F.G.H.H.H.H.H.F.H.H.H.S.H.H.H.H.H.H.H.K.K.H.K.Z.K.P.P.T q 6 9 R.vXN.; 8 - = - ; 8 < t.xXU.Z G R lXBXCXBXCXCXCX",
"O = 3 3 2 2 O o 2 o O 0 y 6 2 + @ 3 = ! fX6X!.K.K.C.C.K.C.C.H.C.V.H.C.S.H.H.F.H.H.F.G.F.H.S.F.F.F.F.F.D.D.D.D.S.D.D.D.2.m.7.B.2.7.7.A.A.S.F.F.F.H.F.F.H.H.H.G.H.H.H.H.H.H.H.H.H.K.C.C.P.Z.Z.M.n.Z.K.Z.C.S 7 8 8 R.mX@X> 8 - = - - u < ) nX#XZ G R :XMXCXBXCXCXCX",
"O 8 6 O 2 2 2 2 o 2 2 r z 6 2 2 # @ * : =XfX^.K.Z.Z.K.C.C.C.C.C.V.F.C.H.S.H.H.S.H.H.S.F.H.F.H.F.G.F.F.D.G.S.D.D.D.D.D.D.B.B.B.B.A.S./.D.F.F.S.H.F.H.F.H.F.H.H.H.H.H.H.H.H.S.C.H.C.C.C.C.C.K.Y Y K.Z.Z.n.w 6 ; ; t.wX4XZ - - - ; 8 ; u E lX5XN G h OXnXNXBXBXBXBX",
"7 q 5 O 2 2 o 2 2 o 5 y z 6 2 o 3 2 3 0 I.gX3XZ.Z.C.C.C.C.C.C.M.V.V.M.V.H.F.F.H.F.S.F.H.F.F.F.F.S.G.S.F.D.F.D.D.D.D.D.D.B.D.F.D.S.S.F.F.F.F.F.F.G.F.F.F.H.H.H.H.H.S.H.H.S.H.M.C.C.C.C.C.C.C.C.C.C.C.C.T 7 7 7 8 t.0X8XU ; - - ; ; 9 < h 8X8XW Z G ) 0XnXNXMXmXmX",
"r 0 3 O o 2 o 2 O O 5 z z 3 2 2 2 2 3 3 U 6X5X~.Z.Z.C.C.C.C.C.S.M.V.V.M.S.F.S.S.H.F.S.F.F.F.F.F.S.S.S.F.F.D.F.D.F.D.D.D.D.D.D.D.S.S.D.S.F.F.F.F.V.F.H.F.F.H.F.G.H.H.S.S.S.H.M.H.C.C.C.C.C.C.C.C.C.C.C.V - 6 7 8 t.xXxXz.> 8 ; ; 9 > < 1 7XvXx.G G / 0XzXMXBXCXBX",
"r 0 2 O 2 2 o 2 O O 7 z l 4 o 2 o @ O @ , =X6X.XZ.C.C.C.M.C.M.M.M.S.M.M.S.S.S.S.F.H.S.S.F.F.F.F.F.F.F.D.F.F.D.D.D.D.D.F.D.D.D.D.D.D.D.G.F.S.F.S.F.F.F.H.F.H.F.H.S.H.M.M.M.C.C.C.M.C.C.C.C.C.C.C.C.C.X.7 7 = 8 7 3.nXmX$X< - ; u < 9 < 1 :XnX%XG G R :XMXBXBXCXBX",
"r 0 O 2 2 O o 2 O o z z l 2 + o 2 O @ * * ~ 8X=XZ.C.V.C.C.M.C.M.M.M.M.M.M.M.S.S.S.S.S.H.F.F.F.F.S.F.D.F.D.D.D.G.F.D.D.D.D.F.D.D.D.D.S.S.S.F.S./.F.F.F.F.H.F.G.F.H.C.S.C.M.M.M.h.C.M.M.C.M.C.C.C.C.C.B 5 8 - 8 8 3.zXmX8X1 > ; ; ; < u p OXwX8XW G R OXmXBXBXCXBX",
"r 0 2 2 2 2 2 2 2 2 l v l 4 o 2 o 2 O O O , 3X3XZ.H.C.C.M.k.M.M.M.M.M.M.M.M.M.S.S.H.F.S.F./.F.F.D.F.S.S.D.F.F.D.G.D.D.F.D.D.F.D.D.S.S.D.S.F.S.S.F.F.F.H.F.H.F.H.M.M.M.M.M.M.M.C.n.C.M.C.C.C.C.M.C.o.% 5 @ * - - / lXnXmXQ ; ; 9 9 < < s R.nXqX( G E ) xXBXMXBXBX",
"r 6 o 2 o o 2 o 2 0 z v l 2 2 o + o o o O $ N.6XE.C.M.M.M.M.M.M.M.M.M.M.n.M.M.M.S.F.F.S.F.S.A.F.F.D./.F.D.D.F.D.D.D.F.D.D.F.D.D.G.S.A.G.S.S./.S.F.F.F.F.F.F.F.F.C.M.M.M.M.M.M.M.C.M.M.C.M.C.C.C.C.F $ $ @ 8 8 - E 0XnXwX@X1 < p < ; p p ) 0XwXU.G G t.6XNXMXBXBX",
"0 8 2 2 o 2 o 2 2 l v v y 2 o o o o o o o @ A =X=XV.V.V.M.V.M.M.M.M.M.n.M.M.m.S.F.F.F.F.F.D.F.D.F.D.D.D.D.D.D.D.F.D.D.G.D.F.D.D.S.S.D.F.D.D.F.G.S.D.G.G.S.S.F.F.S.F.M.M.M.M.M.M.M.M.C.C.C.M.V.V.>.q @ @ 8 # - ; E 0XqXqX5XG > p u w p p / 0XwX$XH R OXOXwXmXbXwX",
"0 6 2 2 2 o 2 o 2 l v v 0 2 2 o 2 o 2 o o + 3 N.3XZ.C.V.M.M.M.M.n.M.n.M.n.M.M.M.M.M.M.F.S.F.S.D.D.D.F.D.F.D.D.D.F.F.F.F.F.D.F.D.D.S.D.D.D.D.S.S.F.D.S.S.F.S.H.S.F.F.M.S.S.M.M.M.M.M.M.M.M.C.V.V.P * @ @ @ * - 8 h 0XwXwX0XW p < < p < p E 7XwX4XH G ) OXwXwXwXwX",
"0 2 o 2 o 2 2 o 0 v v v 0 o o   o o o o o 3 @ A -X XN.C.V.M.V.B.M.n.M.M.m.M.M.M.S.S.F.B.F.D.D.D.D.D.D.D.D.D.F.D.F.J. X XF.B.F.D.D.D.D.D.D.D.S.S.D.F.F.D.F.F.S.F.M.M.F.M.M.M.M.M.M.M.M.V.M.C.V.X.= @ O @ @ - * - h 0XMXMXbXY.s < 1 p p s R :XwXqXW H W $X4XxXMXMX",
"0 2 2 2 2 2 o 2 0 l l l 4 o o o o o o o o o o * 4.=XZ.V.V.V.M.V.M.M.M.M.M.V.m.m.D.D.S.S.D.D.F.D.D.F.D.D.D.D.D.V.F.T.3X;XT.B.F.D.D.D.D.D.D.D.D.D.S.F.D.F.F.S.S.F.F.M.M.S.M.M.M.M.V.V.V.F.M.V.M.V $ o O # @ @ - - i :XbXMXbX4XG 1 w p p p h *X0XqXx.H R *X;XbXMXMX",
"6 3 2 o 2 2 2 2 l v v v 4 2 o o o o o o O o + @ ; ^.T.V.F.V.F.V.S.M.M.M.S.S.M.F.S.D.F.D.D.D.F.D.D.D.D.D.D.D.D.F.I.2X3X2XT.N.D.D.D.D.D.D.D.D.G.S.S.D.D.F.S.F.M.F.M.F.F.F.S.F.M.H.C.V.F.V.F.M.| 6 X O X @ @ # 8 ; < *XzXwXbXwXR 1 1 p 1 a s OX0X0X+XH R $X$XnXbXMX",
"8 2 2 o 2 o 2 0 l v v m 2 o o o o o o o o o o @ 3 G =XV.V.F.H.V.S.C.F.S.M.S.D.S.D.S.S.S.D.D.D.D.m.D.D.D.D.D.B.F. X3X6X4XT.D.D.F.D.D.D.D.D.D.S.S.D.D.S.D.D.F.F.F.F.F.M.F.H.S.S.S.F.F.H.F.M.2.e + + o . @ @ # - 8 < OXnXwXwXwXx.h p p p p h R.zXwX0XW R z.$X0XwXmX",
"3 O 2 2 2 2 2 y l v v v o o o o o o o o o o @ . 2 = t. XG.G.V.F.S.S.S.F.S.M.F.S.S.D.S.D.D.D.D.D.D.S.B.D.B.D.D.B.T.3X6X2XG.B.F.D.D.D.D.S.D.D.A.D.D.D.D.S.D.F.F.M.F.M.F.F.F.S.H.S.F.H.F.V.m.P o 2 o o + X # # 4 # < R.MXMXMXwX1XN s p s 1 1 / zXxXwXU.H / ;X%XwXnX",
"8 2 2 o o o 6 l v v v l o o o o o o   o o @ o o 2 # e '.T.V.F.F.H.S.S.H.F.S.S.F.D.S.D.D.D.S.D.S.B.S.D.B.D.D.B.D.F.^.-X=XZ.F.B.D.A.S.D.A.D.D.S.D.D.D.D.D.D.D.F.F.F.F.S.H.F.H.F.S.F.F.F.m.T $ 2 o @ @ . @ # # - # < / zXMXMXMXwXQ s 1 p s s R 0XxXbX%XR / 4XOXnXnX",
"2 2 2 o 2 2 0 v v ` L 0 2 o 2 o o o   o o o o @ o @ * Z '.G.G.H.F.F.F.F.F.D.F.D.S.D.D.S.D.D.D.B.D.B.B.B.B.B.D.D.7.F.H.T.B.B.D.D.D.A.A.D.D.D.B.m.F.D.D.D.D.F.D.D.F.F.F.F.F.F.F.F.F.F.M.,.0 + 2 o . + o + @ # @ - < E zXMXMXwX0XOXZ 1 s 1 1 h ;X0XwX4XQ R ;X$X0XmX",
"2 o 2 o 2 2 y v v ` [ l o o o o o   o o o o + + @ # 4 = ! T.F.F.H.H.F.F.F.F.S.F.F.D.D.D.D.A.S.D.B.B.m.m.m.B.D.D.D.B.D.D.D.D.m.D.D.7.m.m.m.S.D.D.B.S.D.D.D.D.D.D.F.F.F.F.F.F.F.F.F.S.2.f 2 2 o o o o o + @ @ - - < h 0XwXwX0X0X4XR s s s h h *XwXwX0Xj.R OX5X;XMX",
"o o 2 2 2 2 l v v ` { u o o o o o o o o o o @ @ @ @ 3 8 p 4.T.F.F.F.F.F.D.F.D.D.S.D.D.D.D.A.m.B.m.A.m.A.A.A.A.m.B.4.m.A.B.B.A.A.A.A.D.m.M.B.D.B.B.D.S.D.D.D.D.D.D.F.S.F.D.G.G.D.S.m.D O o o 2 o @ o + @ @ @ # - < < ;X0XwXwXMXwXQ h s 1 1 h t.zXnXbX@XR t.0X%XnX",
"2 2 2 2 2 0 v v v ` { 0 o o o o o o o o + + # 3 @ - 8 u #.&XOXG.F.H.G.F.D.D.D.D.D.S.D.A.D.D.A.A.7.D.A.A.D.m.A.A.A.A.B.7.D.2.m.A.m.m.m.A.B.m.m.B.S.D.m.D.D.F.D.D.D.D.D.F.D.D.D.D.A.5.I 8 4 + + 2 o o o o + # * 8 < < ;XnXwXMXMXwXW.Z h 1 h N / 0XwXmX4XW ) lX;XlX",
"2 2 2 o 3 l v v v v ` 4 o + o o o o 2 + 3 # @ 4 4 < E `.iXhXiX_.G.G.H.F.G.D.D.D.S.D.D.D.D.D.7.A.A.A.A.D.m.m.m.m.A.A.A.m.m.m.m.m.m.m.m.m.m.m.m.m.m.m.S.D.D.m.D.D.D.D.D.D.D.D.F.D.-.q.e.%.[ 0 2 2 + o o o + @ @ - 8 1 *XMXMXMXMXbX6XN h s Z s E 7XxXbXwX( W 7X4X0X",
"+ o 2 o 0 l l v { { v 2 + o o + + o + 2 3 @ 4 8 u d.iXhXhXhXhXiXG.G.G.F.D.D.D.D.m.B.D.B.A.A.m.A.A.D.B.2.m.m.2.B.m.2.2.m.m.m.2.2.2.2.2.2.A.m.m.B.m.D.B.D.D.D.D.D.D.D.D.D.G.D.D.-.9.y.r.e.q.&.M 8 2 2 + 2 @ @ 4 - u 1 OXzXMXMXMXMXwXW s s 1 h G ;XxXbXbX@XW OX0X:X",
"+ 2 + 2 0 l l L { { m 2 2 2 + 4 4 o + 4 4 4 k 8.uXiXlXkXkXkXjXjX:XG.D.D.F.D.D.7.D.B.B.2.A.m.D.2.m.m.m.2.2.,.,.=.*.;.1.2.2.;.,.;.*.*. .,.2.m.m.m.A.A.m.B.m.D.D.S.F.D.D.D.D.7.5.9.e.e.u.e.y.e.q.%.m j 4 o @ @ - - - u R.mXmXmXMXbXbXOXZ s h s s OXwXnXwX5XQ ) lX%X",
"2 o 2 2 l v v { =.#.v 4 4 4 4 j i 4 i k g 3.*XsXlXkXkXkXkXkXjXjX&Xu.1.r.D.B.D.D.D.B.B.B.A.D.A.A.A.2.2.2. .F K U #.=.#.} =.U #.#.#.I A F ;.2.m.m.m.D.A.m.m.V.B.D.D.D.D.D.7.5.r.q.u.y.e.u.u.y.u.e.q.8.%.[ u 8 4 4 - - t.bXmXmXMXbXbX5XG s 1 s 1 t.lXbXnX0X( W 0X;X",
"2 o 2 0 0 l v v v x k k k k k j j k m &.iXiXkXkXkXkXkXkXkXkXiXyXs.e.e.-.4.B.D.A.D.B.2.m.A.A.m.A.m.2.2.;.S B B C C D J I U I J A f B B C P <.2.A.2.D.A.A.2.D.D.S.D.D.D.2.=.q.q.y.y.y.y.y.y.y.y.y.u.y.u.e.e.5.I u u u / zXmXmXmXmXbXqX! s p s s E 0XnXbXxXU.W :X7X",
"2 + 2 0 l l k j k k k k k k k k k k [ uXjXkXkXkXZXkXkXkXkXiX&Xs.a.u.r.e.9.1.7.A.2.D.7.D.A.A.A.A.A.m.<. .C S t B B B B t B B B B B t C C S 2.2.m.A.m.A.D.A.D.7.A.D.7.-.5.q.r.y.y.y.y.u.y.u.y.u.y.u.u.u.u.u.a.u.%.u < E :XxXnXmXbXbXvXY.Z 1 1 s Z *XxXbXnX@XW OXxX",
"2 2 2 l v v k m b b k k k k k k b n 8.jXkXkXkXkXdXkXkXiX=Xd.a.e.u.u.e.r.q.9.=.7.B.D.A.m.A.A.A.A.A.A.7.2.U C B B B t B V t B B B B t C S  .7.2.m.m.7.D.2.D.7.A.7.6.=.5.y.y.e.y.q.y.y.u.u.u.u.a.a.u.u.a.s.s.a.s.r.c - d t.R.=XlXvXbXnX$XZ d s s h t.lXzXnX4XW I.lX",
"o 2 4 v m l m k b m k b k k k k b m `.kXkXkXzXkXkXiX=X`.d.s.a.a.u.u.e.e.e.9.=.-.,.2.2.m.A.A.A.A.A.7.2.2.;.T P C C B V C B B C t C S P *.2.2.m.m.A.A.A.A.m.A.7.;.} 9.0.y.r.e.0.y.y.y.u.y.u.y.u.a.u.a.a.a.a.a.s.i.#.4 u #.`.'.'.*XlXxX5XH p p 1 s R 0XnXnX8XQ ) 7X",
"2 2 y v l m k m b k k k k k k k b E =XkXkXkXjXiX&X`.d.a.a.y.a.y.u.e.e.e.e.q.5.6.,. .2.2.7.A.7.A.A.A.7.m.2.<.;.T U F S C A F F P T T 2.2.2.m.m.A.A.7.m.m.A.6. .6.=.q.q.e.0.y.y.y.y.y.y.u.y.u.u.a.a.a.a.a.a.a.s.s.5.u # x (.`.`.'.*XcXxXW d < 1 p Z *XnXbXcXj./ :X",
"2 3 l v k m b k b k k b k k k k b 3.jXhXiXuX&X).d.d.a.a.a.a.a.y.y.e.e.e.q.w.=.7.2.7.-.,.7.2.m.A.2.7.A.A.m.2.7.<.:.X.T X.T T X.;.>.2.:.2.A.A.2.A.A.A.7.2.,.X.7.7.=.9.e.e.y.y.y.y.y.y.y.u.u.y.u.u.a.a.a.a.s.s.s.s.9.u 4 u y.(.`.`.(.:X8XI.1 w w a h R.lXbXvXQ.W OX",
"2 8 v m k m m k m k k k k k k k b d.&X'.`.d.d.s.s.a.a.a.a.a.y.y.y.y.y.e.q.q.5.7.A.7.7.1.;.-.7.7.A.m.A.A.2.7.2.2.<.2.2.<.2.2.2.2.2.2.m.2.A.2.A.7.7.2.*.;.6.A.A.7.=.9.q.e.y.y.y.y.y.y.e.y.u.u.u.u.a.a.a.a.a.s.s.a.e.g @ 4 %.s.`.).`.>.I.B.s d > < s / fXbXcX4XW ) ",
"4 l L m m b m b k k k k j k k m M e.a.d.p.a.a.a.a.a.y.a.y.y.y.y.y.y.w.e.q.q.#.7.D.7.7.7.7.,.T ,.2.<.2.2.A.2.7.7.2.2.2.2.2.2.2.2.2.7.2.A.7.7.2.7.,.| 2.7.7.A.A.7.=.w.e.q.y.y.y.y.y.y.y.y.y.u.u.u.a.a.a.a.a.a.i.a.r.c # 4 [ s.(.).(.2.-.;.U A d p g E 7XvXcX9XW / ",
"G N.R.M n n n b k k k k k k k m [ u.u.a.a.a.s.u.a.u.a.y.y.y.y.y.y.y.y.0.0.0.5.6.A.7.7.A.7.7.7.X.X.,.,.6.2.m.7.2.2.A.2.7.2.7.2.A.7.2.2.m.2.1.;.*.X.7.7.A.A.A.A.7.=.q.0.y.q.y.y.y.y.y.y.y.y.y.u.u.a.a.a.a.a.a.d.s.u.` 4 4 m s.(.).`.r. .*.*. .U J p G :XnXmXvX^ R ",
"^.@X3.m n b b x k b b k k k k m %.u.u.u.s.a.u.u.a.u.y.y.y.y.y.y.y.y.0.y.0.0.%.6.7.A.7.7.A.A.7.7.6.<.*. .,.2.2.2.2.7.7.2.A.2.2.2.m.2.m.;.*.*.2.2.7.A.A.A.A.A.A.7.=.q.y.0.y.q.y.y.y.0.y.y.y.y.y.u.a.y.a.a.a.a.u.s.u.[ # + k y.).).(.r.=.*. .X. . .I G &XcXbXcXz.R ",
"#XOXG m n n k n k k b j m k k _ &.y.p.u.a.a.p.u.y.u.y.a.q.y.e.y.y.0.y.y.y.0.5.6.7.A.7.A.A.A.A.m.7.7.7.2.-. .,.<.2.m.2.m.7.2.2.2.1.-.*.*.2.2.2.m.A.A.7.A.A.A.A.7.=.q.y.y.0.y.0.y.y.y.y.y.y.y.y.u.a.u.y.a.a.a.a.s.u.} 4 @ i y.s.(.)./.*.*.*.;.,.X.;.! R.cXvXcXU.R ",
"%XY.M n n n n n x k k k k k k _ y.u.a.a.a.u.u.u.u.y.y.y.y.y.y.e.y.0.0.0.0.0.5.-.7.7.7.7.A.A.A.2.m.A.7.2.7.<.,.,. . .,.2.2.,.;.X.;.,.2.2.2.7.A.2.7.A.A.A.A.A.A.6.5.q.q.0.y.0.y.y.y.y.y.y.y.y.y.y.y.u.a.a.a.a.a.u.e.[ 4 + i y.).).).(.*.*.X. .X.X.,.;.4.$XqXcXE.H ",
"#X3.M n m b b k k k k k k k k [ y.u.u.u.u.u.u.u.y.y.y.y.y.y.y.y.y.&.y.y.0.y.8.=.7.7.7.7.7.A.7.A.7.7.A.<.A.A.7.<.2.2.;.T | *.1.6.7.2.7.A.m.7.7.A.A.A.A.A.A.A.7.6.5.q.q.q.0.0.y.y.y.y.y.y.e.u.a.e.u.u.u.u.u.u.a.a.u.#.3 4 i w.s.).).i.=. . .X.-.,.;.<.~ N.^.,XU.H ",
"T.I M n b n b b k k k k k k v %.y.u.u.u.u.p.u.y.y.y.y.y.y.y.y.0.y.y.0.0.0.0.8.=.7.7.7.7.A.7.7.7.7.A.A.2.A.7.7.7.2.2.2.2.2.2.2.2.2.7.A.<.A.m.A.7.7.A.A.A.A.7.7.2.%.0.q.q.y.y.0.y.y.y.y.y.e.e.e.e.y.u.u.p.a.a.a.a.e.I # + i y.s.).s.(.5. .X.X.X.X.,.<.X.2.I.6X^.H ",
"=.M M n m n b k k k k k k k _ 0.u.u.u.u.y.y.y.y.y.y.y.y.y.y.y.&.y.0.0.0.0.0.0...7.7.A.7.7.7.7.7.A.A.7.A.A.7.7.7.m.A.7.2.A.m.7.7.7.7.7.A.7.A.7.A.A.A.A.A.A.7.7.6.5.y.0.q.0.y.y.0.y.y.y.y.e.u.y.a.u.u.u.u.u.a.a.u.r.I # 4 j e.s.s.).(.O. .X. .X.,.X.,.;.T m.$X^.G ",
"I M n n b b b k k k k k k m _ w.u.u.u.u.y.y.y.y.y.y.y.y.y.y.y.y.0.y.y.y.0.0.0.%.6.7.A.7.7.A.7.7.7.7.7.7.7.7.7.A.7.2.A.7.A.7.7.7.7.7.7.A.A.7.m.7.A.7.7.7.7.7.A.5.5.0.0.y.0.0.0.y.y.y.y.y.y.e.w.a.y.u.y.a.u.s.u.u.e.I # 3 k y.s.).s.i.=. . . . .X.X.X.;.X.<.N.U.G ",
"L M m b b x k k k k k j k x #.e.y.u.u.y.y.y.y.y.y.y.y.y.y.y.0.y.y.y.y.0.w.0.0.5.6.2.7.7.7.7.7.7.7.7.7.7.7.7.7.A.7.m.2.2.7.m.2.2.7.A.7.7.7.7.7.7.7.7.2.A.7.7.2.6.5.0.w.q.q.y.y.y.0.y.y.y.y.y.y.y.u.u.u.u.a.y.r.a.q.d + 2 n a.s.s.)./... . . . .;.X.X.,.X.<.2.Y Z ",
"n m m m b n k k k j j j k x %.e.u.y.y.u.y.p.y.y.y.y.y.y.y.0.0.&.&.&.&.0.8.&.%.%.-.2.2.2.-.6.,.1.2.7.2.2.1.,.2.2.7.2.1.-.1.1.1.,.<.,.1.,.1.-.2.7.2.,.-.2.2.2.2.=.%.&.&.8.8.8.0.0.&.0.0.8.w.w.y.y.e.e.u.u.y.a.a.a.9.d # 4 _ a.s.(.s.i.=. . .*.*. .X.X.X.X.X.:.T D ",
"M n b x b b k k j j j k k k %.e.y.u.u.y.y.y.y.y.y.y.y.[ g.g.f.p.g.f._ +.g.x $.&.c K | I &Xi g.$.=.1.=.9.y.f.3.8.K -.0.g.#.g tX@.[ p.`.g.+.f.I 1.#.p.#.G I G J I &.&.[ f.f.p.m @.f.@.eXy.f.b w.y.e.u.u.u.u.y.u.e.5.8 # 4 @.u.s.s.s.i.}  ...*. .X.X.X.,.;.X.<.:.F ",
"m n m b b x k k j k k k k j [ e.y.y.y.y.y.y.y.y.y.p.y.k yXAXsXdXpXSX# @.SXHXFXGXFXrXx `.pXi sXw.h < &.SXSXpXFXaX- I dXAXAX$.SXpX. @.HXp.&XdXe.I #.HXHXGXGXGXtXu tXFXtXaXg.DX# &.AXrXGXp.SXp.I y.u.e.e.a.e.u.u.r.#.8 + 4 &.a.a.(.s.r.| |  . ...X.X.X.X.X.X.<.>.T ",
"m m b b n b j k j j k j j i x q.y.y.e.e.a.y.y.y.y.y.y.m pXSXdXAXg.tX4 &XyXpXsXyXyX&.M DXf.yXdXg.sX  g.AXDXaXGXaX@.&.dXSXdXDXJXpXb DXSXHXJXaXDX$.g.SXtXtXaXtXm i f.DXpXDXAXGX# pXGXFXFXyXGXrXg w.e.e.u.u.u.e.e.e.[ # 4 i w.a.s.s.s.6.|  . ... . .X.X.X.X.X.<.<.;.",
"m m b b k k k k j j k j j 4 u %.w.y.a.e.e.y.y.y.y.y.y.j tXpXsXAXrXyX  aXyXaXDXdXsXM @.FX&.yXDXyXg.p w.SXaXaXsXpXu &.pXDX@.DXpX&.i pXtXFXFXpXyX# @.DXdXdXFXAX&.# tXHXtXsXtXDX  g.DXyXFXSXGXw.n w.e.u.u.e.u.e.e.e.I + 4 k e.r.s.s.s.=.}  .| |  . . .X.X.X.X.;.n.:.",
"m b m b k k j j j k k j j 4 # $.q.e.y.e.e.y.y.y.y.y.y.[ GXDXFXAX&.pX4 @.tXtXdXJXyXu M aX$.i GXyX# =.p.GXDXSXDXaXx E AXp.tXyXn sX# aXFXdXh JXrXc @.DXsXsXDXdXp.@.SXDXaXJXGXSX# &.AX@.dXyXSX+ &.y.y.e.e.e.y.u.e.0.d 4 4 M u.s.s.s.i.} ..|  . . . . .X.X.X. .<.:.n.",
"x m x b k k k j j j j j j 4 @ I 0.q.e.y.y.y.y.y.y.y.y.[ pXj yXdXpXaX# &.yXsXyXGXtXf.s sX$.tXyXsX$.I G yXAXpXdXf.@.M yX+.g.tX$.g.i SXaXsX&.GXtXh $.SXyXtXSXaXg.# p.aXi DXtXp.M f.pXrXAXg.pX4 $.y.y.y.u.r.u.y.q.%.8 2 4 @.e.u.s.s.u.} ..| | |  . . . .X. .X.<.n.n.",
"m m x k k k k j j j j j j + + i 8.q.y.y.0.y.y.y.y.0.0._ yXdXAXaX&.4 [ p.rX&.pXSX# x p aXdXaX& $.DXp aXFX&.$.HXGXg.p.g.$.g.DX&.AX# u # SXFX@.aXp.f.g.g.&.FXg.pXi p.dXdX@.g.JXp.tX  pXHXGXHXsXn y.e.e.e.u.e.e.e.E 4 + 4 $.y.a.i.u.6...] | ]  ...|  .X.X. .X.o.n.m.",
"b x x x x k j k j j j j j   # 4 #.0.q.q.y.y.y.0.y.y.y.[ 0 j i n j %.0.[ k b M d E I =.I g a =.| f s h p I U f g d g d s d d p g J *.U c p K J p h < g p g u 4 E I x i M M M i i M i u 8 u u @.0.e.u.y.u.e.e.8.c + 2 j 0.u.a.u.i.5.| | | X... .X. . .X.| X.X.<.<.",
"m m x k k k j j j j j j i 4   4 [ 8.q.y.0.y.y.y.0.y.y.0.0.w.0.0.&.y.y.&.&.0.&.8.&.#.7.,.,.1.7.2.2.2.1.2.2.2.2.1.2.2.2.2.2.2.2.<.2.2.7.1.1.7.<.2.7.1.7.1.2.-.%.0.%.8.8.0.w.&.0.0.w.w.0.0.y.0.y.y.y.e.e.e.y.q.%.8 + 4 _ q.e.i.u.i.=.}  .|  .] | X. .X.X.| X.X.<.n.",
"x b x k k j j j j j j k j 4 + + g 8.0.0.0.y.y.y.y.0.0.y.w.w.q.w.0.0.0.w.0.0.0.0.0.5.-.2.7.7.7.7.2.7.7.7.A.2.A.7.7.7.7.7.7.7.7.2.7.7.7.7.7.7.7.A.7.7.7.7.7.-.8.0.0.y.0.0.w.w.w.y.q.q.y.0.y.y.0.y.e.e.y.e.e.q.I = 4 4 @.q.i.a.s.r.} } ] |  .T | | X...X.| X.o.<.n.",
"b b k k k j j k k j j k _ b + + 8 #.0.q.q.y.y.y.y.y.q.w.w.w.w.y.y.0.0.0.0.0.0.0.&.8.=.6.7.7.7.7.7.7.7.7.7.A.7.7.7.2.A.7.7.7.B.7.7.7.7.7.7.7.7.7.7.7.7.7.<.-.8.0.0.q.0.0.0.w.0.y.y.w.w.q.y.q.y.y.e.y.e.e.q.8.g + 4 j &.q.u.u.i.9.} } | | | | |  . .X. .T ,.X.A.n.",
"m b x b k j j j j j j k [ @.4 + # c 8.0.0.y.y.0.0.0.y.w.q.y.w.w.0.0.0.w.0.0.0.y.0.8.=.7.7.2.2.7.A.7.7.7.7.7.7.7.7.7.7.7.7.7.2.7.7.7.7.7.A.2.7.7.7.7.7.7.6.5.8.0.0.q.y.0.w.0.0.w.w.w.0.y.w.y.y.y.e.e.e.e.w.#.8 + 4 _ 0.y.u.u.y.5.} | ] | |  . .|  . .|  .X.X.o.o.",
"x x k k j j j k j j k x @.%.j + # 8 #.0.0.y.0.y.y.0.w.y.y.w.w.0.0.0.0.y.0.0.&.0.0.8.5.,.2.7.2.7.7.2.7.7.7.7.7.7.7.7.7.7.7.7.7.7.2.B.7.7.7.A.7.7.7.7.7.7.2.=.0.0.q.0.0.0.0.w.y.0.y.0.q.y.q.y.q.e.e.w.q.w.8.I # 4 4 $.e.e.i.e.r.} } | T | ] T ]  . .| .. .X.o.6.<.",
"k x l k j j j k k j k m %.&.+.+ + @ I &.0.0.y.0.y.0.w.0.w.w.0.w.0.0.0.0.0.0.y.0.y.0.5.,.2.7.A.7.7.A.m.7.7.7.7.A.7.7.7.D.2.7.7.7.7.2.7.7.7.7.7.A.7.7.7.7.1.=.0.0.0.0.w.0.w.0.0.w.w.y.0.0.w.y.e.w.e.e.q.0.%.9 # + n 8.e.a.a.r.9.] } U | ]  . .T | |  ...X.X.X.o.<."
};
