/* XPM */
static char *out[] = {
/* columns rows colors chars-per-pixel */
"128 128 230 2 ",
"   c #0B0A0F",
".  c #0F0714",
"X  c #0C0B12",
"o  c #0E0C19",
"O  c #130D15",
"+  c #190D16",
"@  c #130E1C",
"#  c #190E1B",
"$  c #111017",
"%  c #191A17",
"&  c #14121C",
"*  c #1C131D",
"=  c #1A181E",
"-  c #21141F",
";  c #130F23",
":  c #180F24",
">  c #131124",
",  c #1C1322",
"<  c #1F1B22",
"1  c #221524",
"2  c #251926",
"3  c #2A1C25",
"4  c #261629",
"5  c #261A29",
"6  c #2A1B2C",
"7  c #331726",
"8  c #341827",
"9  c #341A2A",
"0  c #3A1B2A",
"q  c #231B32",
"w  c #2D1D32",
"e  c #2E1F38",
"r  c #311E31",
"t  c #262227",
"y  c #2C222B",
"u  c #2B2A2D",
"i  c #33222E",
"p  c #2E2133",
"a  c #2A2937",
"s  c #2C253A",
"d  c #342435",
"f  c #392536",
"g  c #362A36",
"h  c #3C2A36",
"j  c #35253A",
"k  c #3B263A",
"l  c #36293B",
"z  c #3C2A3C",
"x  c #343339",
"c  c #3C313D",
"v  c #452839",
"b  c #422C3D",
"n  c #44313E",
"m  c #49313E",
"M  c #362B42",
"N  c #3D2D42",
"B  c #3E2E49",
"V  c #3E3243",
"C  c #3E3C43",
"Z  c #3D334A",
"A  c #3F3A55",
"S  c #422E42",
"D  c #482F41",
"F  c #432F49",
"G  c #443244",
"H  c #4A3445",
"J  c #443A46",
"K  c #4C3945",
"L  c #44334A",
"P  c #4A364B",
"I  c #453A4B",
"U  c #4C3A4C",
"Y  c #513945",
"T  c #563748",
"R  c #523C4D",
"E  c #453551",
"W  c #4D3752",
"Q  c #453A53",
"!  c #4C3C53",
"~  c #473B59",
"^  c #4B3D59",
"/  c #523E52",
"(  c #543F5A",
")  c #613E4F",
"_  c #48474B",
"`  c #4D414E",
"'  c #54424E",
"]  c #5A424E",
"[  c #4E4253",
"{  c #464259",
"}  c #4D425C",
"|  c #544254",
" . c #5A4454",
".. c #534C56",
"X. c #5C4956",
"o. c #54435B",
"O. c #5A455A",
"+. c #56495C",
"@. c #5D4A5C",
"#. c #58575A",
"$. c #674555",
"%. c #694555",
"&. c #624A56",
"*. c #6D4758",
"=. c #624C5C",
"-. c #6B4C5C",
";. c #724A5A",
":. c #64515D",
">. c #69515E",
",. c #6B595E",
"<. c #474261",
"1. c #4D4765",
"2. c #564661",
"3. c #594262",
"4. c #564C64",
"5. c #5C4C63",
"6. c #524D6A",
"7. c #5B4E69",
"8. c #565467",
"9. c #5D5164",
"0. c #5C536B",
"q. c #5D5B73",
"w. c #654B62",
"e. c #624E62",
"r. c #624C69",
"t. c #655265",
"y. c #6A5465",
"u. c #6E5A66",
"i. c #65546A",
"p. c #6A556A",
"a. c #665A6B",
"s. c #6D5A6C",
"d. c #715766",
"f. c #735A66",
"g. c #785D65",
"h. c #735C6C",
"j. c #795E6B",
"k. c #615770",
"l. c #6A5771",
"z. c #655B73",
"x. c #6B5C74",
"c. c #645D7A",
"v. c #6C5E79",
"b. c #745E71",
"n. c #785F72",
"m. c #67646B",
"M. c #7A6165",
"N. c #76616D",
"B. c #7A626E",
"V. c #7F696E",
"C. c #73746F",
"Z. c #666377",
"A. c #6C6275",
"S. c #6D637C",
"D. c #756273",
"F. c #7B6473",
"G. c #766977",
"H. c #7E6974",
"J. c #72657D",
"K. c #7C6579",
"L. c #746A7E",
"P. c #7D6A7B",
"I. c #7A727A",
"U. c #80656E",
"Y. c #80696F",
"T. c #816774",
"R. c #826975",
"E. c #886E77",
"W. c #80677A",
"Q. c #856D7B",
"!. c #896E7B",
"~. c #897076",
"^. c #85717D",
"/. c #88707E",
"(. c #6D6681",
"). c #6D6981",
"_. c #716781",
"`. c #756C85",
"'. c #7B6E85",
"]. c #766C89",
"[. c #7A6F88",
"{. c #7D7185",
"}. c #797586",
"|. c #767189",
" X c #7C728B",
".X c #7D798D",
"XX c #7E7591",
"oX c #846D81",
"OX c #886F82",
"+X c #836F89",
"@X c #847284",
"#X c #8B7481",
"$X c #877885",
"%X c #8D7985",
"&X c #83758C",
"*X c #8A778C",
"=X c #86788F",
"-X c #8B7A8E",
";X c #907986",
":X c #91778C",
">X c #927D8A",
",X c #847591",
"<X c #877990",
"1X c #8B7C92",
"2X c #8B7E9A",
"3X c #917E93",
"4X c #86868A",
"5X c #95818D",
"6X c #98808E",
"7X c #8E8195",
"8X c #8E8695",
"9X c #928396",
"0X c #998697",
"qX c #948A95",
"wX c #93859A",
"eX c #98869A",
"rX c #96889B",
"tX c #9A8C9D",
"yX c #969797",
"uX c #A1A19E",
"iX c #8E89A7",
"pX c #9C8EA1",
"aX c #928DA9",
"sX c #9B95A5",
"dX c #A18EA1",
"fX c #A6A6A8",
"gX c #AEADB4",
"hX c #B4B3B7",
"jX c #C9C9CA",
"kX c #DCDBDC",
/* pixels */
"^.#X/.%X/.5X5X^.%X%X/.4X/.^.$XH./.5X5X5X4X/.;X/.%X/.%X^.%X$X@X@Xb.O.O.OX;X^././.%X#X#X#X%X^.%X%X;X/.#X#X#X#X#X/.#X#X#XOXd.Q.OXOXOX!.OX/.#XOX/.Q.#XQ.oXQ.oXi.^ / W.W.oXoXW.b.P / n.W.W.W.W.W.W.W.n.oXW.W.n.n.n._.K.n.J.b.l.b.b.b.l.h.x.h.h.s.s.s.l.s.5./ 7.I s a ",
"$X#X%X/.5X5X5X/.^.%X%X^.^.~.H.%X5X5X5X%X/.$X/.%X/.%X^.%X%X$X@Xy./ ( W.3X#X^./.#X#X/.#X#X/.^.4X5X;X/./.#X#X#X#X#X#X#XOXn.d.oXOXOX#XOX!./.Q.#X/.!.Q.!.!.oXD.W / w.oXoXoXoXoXw.R w.K.W.W.W.W.W.W.W.oXn.W.W.W.n.n.W.D.n.n.b.b.y.b.b.b.b.h.b.b.s.l.b.l.l.t.o.@.5.M s ",
"/.$X$X;X5X5X^.^.$X/.^.^.^.^.%X5X5X5X$X/.%X/.$X#X^.%X^.%XoXP.w./ / K.3X@X#X/./.#X#X#X/.#X/.%X>X>X/././.#X#X/.#X;X#X!.T.w.oXOXOXOX#XQ.!.#X^.!.!.@X#XQ.@XK.o.W ( n.W.oXW.oXW.w.( n.K.W.W.W.W.W.K.W.n.n.oX_.n.oXn.W.n.K.n.D.b.i.b.b.h.x.l.h.l.h.s.h.s.l.s.p.| 0.{ s ",
"%X#X%X5X>X;X/.4X%X/.^.Q.H.%X5X5X5X/./.$X$X/././.%X^./.^.P.@.R / b.3XOX#X#X$X/.#X#X#X#X#X/.5X>X/./.%X;X/./.;X/./.Q.!.w.W.OXOXOXOXoX#X!.Q./.Q.!.!.Q.OXQ.h.R W r.oXoXoXoXW.n.W y.W.P.W.W.K.W.W.K.K.oXn.n.n.n.n.n.n.n.J.D.b.b.s.s.h.b.b.h.s.h.h.l.l.l.s.l.s.e.3.9.Z ",
"#X;X5X>X/./.%X/.$X^.Q.^.>X6X>X>X^.^./.$X/./.#X$X#X#XQ.F. .R / p.:X:X#XOX#X#X/.#X#X#X/./.>X5X;X/.#XOX#X#X;X#X#X#XQ.y.y.Q.#XOXOXOX!.#X!.^.!.Q.Q./.OXOXT./ P ( K.oXOXW.oXoXF.o.K.P.P.W.W.K.W.W.K.K.W.W.n.W.oXW.l.W.n.D.D.b.b.b.l.s.b.s.s.l.h.s.b.p.l.s.p.p.p.( r.o.",
"#X>X>X#X/.%X%X%X^.H.^.%X6X>X;X/./././.#X/.;X#X#X@X+Xn.( / ! =.*X:X#X#X;X#X#X#X#X/.#X/.%X>X;X#X#X#X#X#X#X/.#X#X!.K.$.Q.OXOX@X!./.@X!.OXQ././.OX!.OXOXw.W U w.P.oXOXW.W.W.n.b.W.W.K.oXK.P.oXK.K.F.n.n.n.W.l.W.l.T.b.K.K.b.b.h.h.h.l.h.h.h.s.h.s.s.s.l.l.l.s.r./ 7.",
";X6X;X#X#X#X/./.F.^.5X6X>X#X/./.%X;X/./././.;X#XoXb.o./ / o.oX>X#X#X#X#X#X#X#X#X%X/.%X5X>X#X#X#X#X#X#X#X#XOXOXW.( j.oX#X!./.OX/.!.#XQ.Q.Q.Q.!.oXoXK.! P / K.W.oXoXW.Q.oXF.W.W.W.W.R.P.Q.Q.F.K.K.W.n.W.l.W.l.W.U.n.D.D.b.b.b.p.h.h.h.s.l.s.s.h.s.s.i.p.p.p.p.@.e.",
">X#X#X/.#X#X#X~.~.5X5X>X;X/.#X#X/././.;X%X#X/.!.b./ W ^ / G.-X#X#X#X#X#X#X/.#X#X/.%X5X5X/./.#X#X!.#X#X#X#XOXOXd.=.Q.OXQ.#X!.Q.#X/.Q.!.#X#XQ.Q.oXK.w.P P y.W.oXW.W.oXW.W.W.W.W.W.W.K.P.oXP.P.K.F.W.n.W.l.U.W.W.l.K.b.D.D.l.b.i.h.h.x.h.s.s.s.l.s.s.l.l.p.p.p.w.5.",
";X#X#X#X#X%XR.Q.>X5X>X#X/.#X#X#X#X#X#X/.#X#XQ.u./ P / W p.-X%X#X!.#X#X#X/.;X!././.>X5X>X#X#X#X#X#X;X!.;XOX!.j.) W.OX#XOX/.Q./.Q./.oX!.Q.!.!.Q.W.b.P P / K.oXW.Q.oXW.Q.W.Q.oXW.W.W.P.R.@XW.K.K.K.n.n.n.n.n.n.n.n.n.n.n.v.b.l.t.s.h.s.l.h.p.h.b.s.p.l.l.i.p.r.p.r.",
"/.#X#X#X#XH.R.>X>X>X/.$X/./.#X#X#X#X#X#X#XQ.h./ R P W ( @X*X^.#X;X#X#X#X#X!.#X!.%X5X>X#X#X#X#X#X#X#X#XOXOXW.O.w.oXOX#X!./.!.Q.#X!.!.^.#XQ.Q.Q.oX) W P 5.W.oXW.oXW.W.oXW.W.W.W.W.W.K.oX@XP.K.F.n.n.W.n.n.W._.n.W.n.l.b.n.b.b.t.h.l.b.h.s.p.p.p.p.i.i.p.p.p.p.p.r.",
"!.#X#X#XR.^.>X5X#X#X#X#X/.;X/./.#X#X#X@XQ.b.! W W U R n.%X#X#X#X#X#X#X#X#X#X#X;X5X5X#X#XOX!.#X#X#X#XOX!.oXy.R n.@X!.OX!.!.^.!.Q.^.!.Q.Q.Q.Q.Q.b.W W W K.P.oXoXP.~.$XP.P.W.P.P.P.P.R.@XoXP.K.F.n.n.W.n.oXn.n._.n.v.b.b.b.b.s.y.i.h.s.h.p.s.y.d.l.s.i.p.l.p.p.p.p.",
"#X#X#XE.~.5X5X%X#X/.#X#X/./.;X;X#X/.Q.oXh./ W W Q ! p.>X#X/.#X#X!.#X#X#X#X#X#X;X5X$X/./.#X#X/.#X!.!.!.OXn.R >.Q.!.!.oX!././.oX#X#XQ.Q.Q.Q.oXW.( W W -.W.Q.P.Q.Q.^.^.H.H.P.W.R.P.P.oX@XQ.K.F.n.K.n.n.W.l.n.n.n.n.n.b.b.b.n.h.p.w.p.h.b.p.p.p.p.p.p.p.i.p.p.p.p.r.",
"#X!.R.Q.>X>X$X/.#X#XOX#X/.#X#X#X#X!.OXn./ W W W ! | oX%X#XOX#X#X#X#X/.#X/./.%X5X>X/.^./.#X#X!.#X!.OXQ.W./ $.W.Q.Q./.oX/./.Q.Q.Q.Q.Q.Q.Q.Q.Q.h.P P ^ b.P.'.Q.P.Q.%X^.h.H.P.P.P.P.P.@X#XK.F.D.n.n.n.W.W.l.W.d.n.n.b.b.b.b.b.p.s.@.p.l.h.p.d.i.p.p.p.p.r.p.r.p.r.w.",
"!.Q.!.>X%X#X$X#X;X/.#X#X#X#X#X#X!.!.K.o.( W W W ^ K.*XOX#X#XOX#X#X#X#X#X/./.5X5X/./.%X/.Q.#XOX!.!.!.Q.y./ p.Q.Q.^.!.!.Q.!./.#XQ.Q.Q.Q.Q.Q.K.X.P P 3.K.Q.Q.P.@X#X^.N.u.H.R.P.P.F.Q.@XoXK.K.F.K.n.n.n.l.W.l.T.l.n.b.b.b.b.b.b.h.O.s.h.s.h.l.d.p.y.p.y.r.p.p.p.p.p.",
"Q.Q.;X>X#X$X#X#X!.#X#X#X#X/.;X/./.P.X.W W W W ^ 9.1X:X!.#X#X#X#X#X#X#X#X/.>X5X/.^./.%X^.^.!.#X!.!.!.F.R ( W.!.OX!.!.^.#X^./.!.!.Q.Q.Q.!.!.h.P P W b.P.Q.Q.P.@X#XR.=.j.R.K.P.P.K.@X#XP.K.F.n.K.n.n.n.W.oXW.n.l.n.b.b.b.b.b.s.b.X.p.s.p.l.d.l.p.p.p.p.w.w.p.p.r.w.",
"Q.:X;X#X#X#X/.^.Q./.!.#X#X!.!./.P.=.W R W P W / Q.;X#X#X#X/.!.!./.^.#X~.%X5X5X/././.^.^./.OXQ.#XOXW.w./ h.OX!.!.oX/.!.Q.!.oX^.Q.!.Q.Q.oXW.O.P H o.oXP.P.Q.^.#X@XG.O.F.P.H.K.H.^.^.oXK.F.K.n.n.n.n.n.n.;.l.W.n.n.b.l.b.b.l.h.l.| s.h.p.p.l.d.w.p.w.p.w.w.p.r.p.p.",
"%X%XQ.#X#X/.R.K.!.OX#X#X/././.Q.y.U U ! ! P / h.:X/.#X#X!.!.#XQ./.^././.5X5X5X^.~.^.^./.!.@X!.Q.Q.D.R  .Q.W./.Q.!.Q.Q.!.Q.#X/.!.!.R.OXQ.b.W P F u.P.Q.P.R.$X#XQ.t.=.P.R.H.H.H.^.$XQ.F.F.n.n.n.n.n.n.b.b.b.D.b.D.b.s.l.b.h.x.b.| p.s.p.p.p.p.y.y.y.p.y.X.i.i.y.r.",
":X#X!.#X/.!.F.Q.#X#X!.#X#X/.!.j.! I P U P U ( #X%X!./.OXQ.#X/.OX/.^./.5X5X%X/./.^.^./.!.#XQ.Q.!.K.| U b.oX@X/./.Q.#XQ.OXQ.Q.Q.Q.Q.!.W.W.=.P W U F.'.P.Q.~.%X$XN.U p.K.P.K.R.H.$X$XW.K.F.K.n.n.n.n.n.F.b.b.b.b.b.b.b.h.b.b.h.l./ i.p.u.p.p.y.t.p.i.y.y.o.w.i.w.p.",
"!.#X!.#XF.T./.#X!.#X#X!././.W.( U E W P P ^ l.:X#X#X!.#X#XQ./.!./././.6X%X/.^./.Q.#XQ./.Q.#XQ.~.y.H @.Q.@X^.oX!.Q.Q.Q.Q.Q.Q.Q.Q.Q.Q.P.b.T F P d.oXQ.^.H.%X$XH.=.K h.K.K.H.H.Q.^.Q.K.n.K.n.n.n.K.n.F.F.n.D.x.b.b.b.b.b.s.s.s.s./ t.p.s.s.s.p.y.p.y.t.t.| w.p.p.p.",
"/.!./.F.R./.Q././.Q./.!.OX!.w.! W E W I U O.*X%X!.Q.#XQ.Q.#XQ.#X/.^.;X>X/./././.#XQ.!.^.!.^.Q.K.R R j.oX@XoXQ.#XoXQ.Q.Q.!.Q.Q.!.~.Q.R.X.W P ( n.P.P.H.^.%X$XB.R R D.G.P.H.F.^.$XR.K.n.n.n.K.n.n.n.n.n.D.b.b.s.b.h.x.b.h.s.s.s.! e.p.p.p.p.y.y.p.p.y.w. .w.r.p.w.",
"!.Q.F.Q.Q.#XQ.OX/./././.oXx./ P P P P U U n.:XOX/.!././.!.!.^.#X/.;X>X>X/.Q.^.!.Q.!./.!.^.Q.R.w.R  .R.Q.Q.Q.Q.!.Q.Q.Q.Q.Q.Q.Q.oXoXoXK.P S H =.Q.Q.P.^.#X%XP. .P X.G.F.G.F.^.@X^.W.F.n.n.n.n.n.n.n.n.b.b.b.h.b.h.h.h.h.x.s.s.s.P @.t.s.i.y.p.y.w.t.y.p./ @.w.t.t.",
"Q.F.!.#X#X!.#X!.~.!./.!.G.| P P P Q U I | @XOX#X/.@X!./.oX/.Q.!./.>X>X/.^.!.!././.Q./.Q.@XQ.F.P R B.!.!.#XQ.Q.Q.Q.!.Q.Q.Q.Q.Q.Q.oXK.X.P F T N.H.R.P.~.$X$XN.J P t.F.F.G.H.^.^.Q.F.F.F.n.n.n.n.n.n.b.n.b.b.h.s.D.b.x.h.h.s.s.s.P O.p.s.s.i.y.y.t.p.t.y.| ( e.t.t.",
"j.#XR.#X/./././././.~.^.t.P U P P W L I b.;XQ.!./././././.oX#X!./.:X%X/.!.^.Q./.!.Q././.^.Q.O.I @.R.Q.Q.oX!.Q.Q.Q.Q.Q.Q.Q.Q.Q.Q.Q.b.P P I X.H.P.H.^.#X#XH.O.H P N.F.F.V.P.~.^.H.n.n.n.W.n.n.n.n.n.h.n.h.b.s.h.h.b.b.s.s.s.s.u.G  .p.u.s.y.y.y.w.y.t.t. .R @.e.t.",
"Q.OXQ.Q.^.!.!./.~.~.^.h.I P P E P P I  .#X@X!.!./.Q./.Q./.!.Q.#X;X;X/.Q.!.!.!.^.^.!./.Q.!.u.U U n.Q.Q.Q.Q.Q.!.Q.Q.Q.!.Q.Q.Q.Q.Q.oXw.P L U N.H.R.Q.^.%XoXh.U P | G.F.F.H.^.$X^.H.n.n.n.n.n.n.n.n.n.h.b.h.b.h.s.s.b.h.s.s.s.s.p.G | i.s.s.p.y.i.w.i.y.y.O.P 5.=.t.",
"!.@X#XQ.!./././.~.~.H.] J I P P P P J p.%XQ././.!.oX!.Q./.!.#X#X;X#X!.!.Q././.!.Q.!.Q.Q.K.X.I  .P.Q.Q.Q.Q.Q.Q.Q.Q.Q.Q.Q.Q.!.Q.W.K.R P P o.H.P.H.Q.$X#XP. .G P w.K.K.F.H.^.^.^.N.N.F.D.F.n.n.n.n.n.h.d.l.n.d.l.n.n.s.s.s.s.i.y.S | i.s.s.p.y.y.t.y.y.t.O.b 5.t.t.",
"Q.!.Q.!.oX/./.Q.~.Q.y.J I P P P P P U !.#X/.!.oX/./.@X!.Q./.Q.%X%XQ.!.^.Q./.Q.!.OXQ.Q.Q.h.R K h.^.Q.R.!.!.Q.Q.Q.Q.!.Q.R.Q.K.R.H.=.P P P u.P.Q.H.^.%X@Xh.R S F y.F.H.H.^.^.^.V.G.F.N.n.n.n.n.n.n.n.n.n.n.d.h.h.b.n.s.s.s.s.h.t.S I t.a.s.i.t.y.w.i.t.y.O.z @.t.@.",
"/.!.oX^.!.@XQ./.~.D.R L K P P E P P y.%X^.!.Q.!.Q.^.!.Q.!.!./.;X/.!.Q.^././.!.@X!.Q.Q.T. .U | H.Q.^.Q.Q.R.Q.Q.!.Q.Q.Q.Q.Q.Q.!.F.R F H / P.H.H.^.$X#XP.| H S U N.H.H.H.I.^.^.F.D.D.n.F.n.n.n.n.n.h.n.d.d.h.h.b.b.l.s.s.s.s.h.3.S U t.a.s.y.y.y.w.t.t.t.@.z O.t.@.",
"!.^./.!.!.!./.Q.Q.:.K P P P P P P ! oX/.#XQ.#XQ./.!.Q.#XQ.!.;X#X/.#XQ.~.Q./.~.Q.Q.#XQ.d.P K y.P.Q.Q.Q.Q.!.Q.Q.Q.Q.Q.!.Q.Q.R.R.y.H H K w.K.R.I.^.#X!.y.F G G @.F.N.F.P.!.^.H.F.B.B.F.n.n.n.n.n.n.n.n.l.n.s.s.s.D.b.h.s.s.s.s.o.b I y.a.s.i.t.w.e.t.w.e.@.z | t.=.",
"^.!.!.^.Q.Q.#X!.F.R L P E P P P P 5.#XoXQ./.Q.!.!.^.Q.!.Q.!.;X!.Q.Q.!.Q.Q.!.Q.Q.Q.Q.R.X.K R K.^.Q.Q.Q.Q.Q.Q.R.!.Q.R.Q.R.Q.Q.F.] H P G D.K.R.R.%X#XN.U G G K h.F.H.F.^.^.^.F.D.N.N.F.F.n.b.n.h.n.b.h.b.h.h.s.n.b.s.s.s.s.p.p./ S H t.p.A.i.t.t.e.t.e.e.@.G | @.e.",
"!./.oX!././.!.P.X.F P L E L P P P D.#XQ.^.Q./.^.Q.!./.@XQ.%X/.!.^.~.Q.Q.Q.Q.Q.Q.Q.R.n.P U w.R.Q.Q.Q.Q.Q.Q.Q.Q.R.Q.Q.Q.Q.Q.R.f.H S P  .K.P.P.Q.$XQ.:.G H S R D.K.G.H.^.^.H.G.F.N.N.F.n.n.n.h.n.h.h.b.h.h.h.s.G.b.p.s.u.s.p.y.P z F t.a.s.t.t.t.=.t.e.e.@.N / @.@.",
"Q./.!.Q.!.Q.Q.x.P P P F P F H G  .#XQ.Q.Q.Q.!.Q.Q.Q.~.Q./.#XQ.!.Q.Q.Q.Q.Q.Q.Q.Q.Q.W.X.H U j.^.H.R.Q.Q.R.~.R.Q.Q.!.R.Q.Q.W.K. .I F I n.W.R.H.^.^.u.U G G G =.B.T.H.^.^.^.H.B.B.F.D.n.n.n.n.n.h.h.h.p.h.s.p.N.D.y.t.p.u.p.p.y.F S S t.u.s.t.t.t.t.e.t.w.@.N R =.e.",
"Q./.!.!.Q.oXP.@.P P E P P P G P u.^.!.Q.Q.!.!.Q.Q.Q.!./.#XQ.^.!.Q.!.R.Q.Q.!.Q.Q.Q.n.P P R H.R.~.~.R.Q.Q.Q.Q.Q.R.R.R.E.R.H.F.I L G R K.W.W.Q.^.Q. .G G G H f.B.F.H.^.^.H.B.N.N.B.B.n.n.n.n.b.h.h.j.l.h.u.s.D.D.t.y.p.s.p.p.e.N z B e.a.s.y.t.t.=.t.w.e.=.z U @.e.",
"/.!.Q.!.!.W.n.U P P P P P P H P H.I.Q.Q.Q.Q.~.!.Q.Q./.Q./.Q.Q.Q.E.Q.Q.Q.~.Q.Q.R.P.y.L H w.R.!.R.~.R.Q.R.Q.R.R.Q.Q.~.Q.R.H.=.G V G =.K.R.T.^.Q.y.G G G H  .B.B.F.^.^.^.H.n.j.j.B.n.n.U.n.h.n.d.n.h.d.h.h.b.K.b. .p.d.p.p.p.O.N k N w.i.h.y.t.t.t.t.=.=.@.k H =.w.",
"!.!.Q.!.!.W.O.L L L F P L P F =.^.Q.Q.Q.Q.Q.R.Q.Q.Q.Q.Q.Q.Q.Q.Q.Q.Q.E.Q.R.Q.Q.^.H.' P / W.!.~.R.Q.R.R.^.Q.Q.Q.Q.R.R.R.Q.B.H G Z I x.H.R.R.^.F.P G S V G u.F.Y.H.^.^.H.F.D.j.F.N.U.n.d.l.h.h.n.l.d.n.l.d.b.n.p.@.p.p.p.b.y.W N k N 3.i.s.i.t.e.O.=.e.w.@.z P @.e.",
"!.R.Q.!.!.h.U L L L L L P P P n.^.R.Q.Q.Q.Q.Q.Q.Q.Q.Q.Q.Q.Q.E.Q.~.R.Q.Q.Q.Q.!.Q.p.K G @.W.^.Q.R.R.!.R.Q.R.!.Q.Q.R.R.R.R.y.G G G | G.P.R.!.P.@.G S S G I D.F.B.R.^.^.H.D.B.N.B.B.n.b.n.n.h.h.n.d.l.l.h.b.G.N.O.@.y.p.p.d.y.F z N z e.p.s.i.t.w.X.5.e.t.@.z H X.w.",
"Q.Q.!.Q.W.X.P L L P H L F H / Q.~.I.~.Q.Q.~.Q.Q.Q.~.Q.R.Q.Q.!.Q.!.Q.Q.Q.Q.!.Q.K.| G G h.Q.Q.~.R.Q.R.!.Q.Q.R.R.R.R.!.R.D.| G G G y.H.F.R.R.p.P S S S G  .F.B.F.R.~.I.F.j.N.F.N.h.n.h.n.d.h.d.h.h.h.d.d.b.D.p.J t.p.p.p.p.O.N k k k @.i.x.y.t.w.o.e.=.t.@.z G 5.=.",
"Q.Q.Q.Q.s.P L L F P L P H P -.Q.H.Q.Q.Q.Q.Q.Q.Q.Q.Q.R.Q.Q.Q.R.E.Q.Q.Q.Q.R.!.R.D.H H U F.Q.Q.R.Q.R.Q.Q.R.Q.R.R.!.Q.R.K.D.G G S P N.H.F.H.N./ G S F S H j.D.F.H.I.I.H.B.n.N.D.B.N.h.j.h.d.h.h.h.h.u.a.A.A.D.O.R y.d.p.p.y.W N e S N 3.i.a.a.t.e. .e.e.w.@.z S =.@.",
"Q.Q.!.H. .H L L F L L L L H n.W.~.~.~.Q.Q.Q.Q.~.E.Q.Q.Q.Q.Q.Q.Q.Q.Q.!.Q.R.Q.R.=.H G @.Q.Q.Q.R.Q.Q.Q.R.Q.R.Q.R.R.R.Q.K. .G P L | H.H.G.F.@.G S L S S  .N.H.N.I.^.Q.D.j.j.B.D.N.N.h.h.d.d.j.d.d.h.u.s.N.D.A.I -.i.w.y.p.w.G N v e N @.t.A.t.t.-.( =.=.e.@.k S @.5.",
"Q.Q.H.h.I G L L P F H S P R F.Q.Q.Q.~.R.!.Q.!.R.Q.Q.Q.E.R.Q.Q.Q.~.R.Q.Q.Q.R.D.H b P D.Q.Q.R.Q.Q.Q.R.R.Q.Q.R.R.R.R.R.N.P G b K s.H.H.H.:.n S S z L G u.D.F.H.^.^.P.N.F.j.B.N.h.j.h.j.d.d.d.h.h.h.h.p.G.A.@.P t.i.y.d.y.O.U z N N k O.i.s.t.9.&./ w.=.w.@.z S @.@.",
"~.Q.F. .H G L L F G F L L w.W.Q.~.R.^.Q.Q.Q.!.~.Q.Q.Q.Q.E.Q.R.Q.B.!.Q.R.Q.R.:.G G  .P.H.Q.Q.!.R.Q.R.Q.R.Q.R.E.Q.P.F.&.G b G ! F.H.H.N.K H L S L S ! N.N.N.H.$XI.H.F.B.n.B.D.N.h.h.j.d.d.d.d.h.h.u.D.D.a.G / w.y.p.y.t.| ! z k N k o.t.a.t.t.=.U =.5.e.X.k S O.=.",
"Q.Q.h.H F H F P P F L G K B.R.!.R.Q.Q.Q.Q.Q.Q.R.R.Q.Q.Q.R.E.Q.B.Y.R.Q.R.Q.H.R L H >.K.Q.R.R.R.Q.R.Q.R.Q.R.Q.~.T.Q.F.I G G G @.H.I.D.R S S B B S L i.F.F.H.Q.P.H.N.N.n.B.N.N.N.u.u.u.d.d.f.h.d.s.s.D.D.o.z =.p.y.p.y.w.O./ M k e z o.t.a.t.5.@.P @.e.:.O.k N X.5.",
"Q.H.O.L G L G F P F G G U K.R.R.Q.Q.R.Q.Q.R.Q.R.!.Q.R.Q.!.Q.R.j.!.R.R.R.H.p.G V I j.T.!.E.R.Q.R.R.Q.Q.R.R.R.R.T.H.>.G G G n u.H.F.t.L S F B B B R F.F.B.P.^.~.F.j.B.B.D.j.h.u.D.N.u.f.h.f.d.h.l.D.K.p.b P t.y.i.y.i.i.e./ v k k j / t.p.t.w.X.K @.e.w.O.f b X.=.",
"Q.h.U G L H L L F F P S @.P.Q.Q.Q.R.!.R.Q.Q.Q.Q.Q.R.Q.R.Q.R.H.y.T.E.~.E.G.U G V | F.E.Q.Q.R.R.Q.Q.R.!.W.!.R.E.T.H.I G G G Y B.H.u.J G S F B N S t.B.F.H.^.^.H.N.j.D.B.j.u.N.N.u.=.d.j.h.h.f.u.s.D.b.U z @.y.y.p.i.w.K.i.( S N v k ^ t.p.e.@.O.G @.w.w. .k b @.@.",
"H. .G L G F G L F F F K u.Q.R.!.Q.R.Q.Q.Q.R.R.Q.Q.Q.Q.Q.Q.R.u.j.E.E.R.H.u.G G L p.Q.R.R.R.R.Q.R.R.Q.R.R.R.R.T.F.u.H V G G >.B.h.U G z L B S S J f.G.H.P.^.H.N.N.D.j.j.j.N.N.u.>.X.d.u.d.d.d.h.D.D.w.b G 5.p.y.y.i.x.@Xl.( S e e k U e.i.t.@.| S @.=.@.@.k b ( =.",
"f.J G G F G L G F L G K D.R.Q.Q.Q.Q.R.Q.Q.!.Q.Q.R.Q.Q.R.!.F.&.R.T.!.R.F. .n b U K.R.Q.Q.Q.Q.R.W.R.Q.R.R.R.R.R.F.K G z b H D.F.X.n G S S S N G :.N.H.H.~.Q.F.N.D.N.j.h.j.u.h.u.] u.h.h.u.h.u.s.F.p.G b  .y.s.p.p.e.oX'.v.( S e S k P w.i.t.@.| b @.e.@.o.r S ( &.",
"O.H L G L G G F L L H  .R.^.!.R.R.Q.Q.R.R.R.R.R.Q.R.R.Q.R.j.>.R.R.R.H.j.H b G  .H.R.R.R.R.R.R.Q.Q.R.Q.R.R.R.V.y.b G S H / b.=.H b S B S B n K u.B.N.R.^.F.N.F.j.j.j.h.j.N.s.X.U s.u.d.f.u.u.n.D.R z G y.y.y.t.t.J.[.,Xn.( N N e j L e.p.e.5./ z @.@.@. .k z o.@.",
"L L L S L S L S L G H y.R.Q.Q.R.Q.Q.R.Q.R.Q.R.Q.R.Q.Q.R.K.&.F.R.Q.W.P. .H S G d.P.R.R.R.R.R.R.Q.R.R.R.R.R.H.H.| S S S S @.h.K G S S S z N n :.N.F.H.R.Q.B.N.N.j.j.h.h.h.h.y.J =.u.u.u.u.u.h.D.@.S b  .t.y.t.s.i.[. X[._.3.N e v d L @.i.e.@.! z O.@.@.| j z X.@.",
"G L F L L S S L L G I B.R.R.Q.Q.R.Q.Q.R.Q.R.Q.R.Q.R.Q.R.j.] F.H.R.R.h.K S F R R.Q.R.Q.Q.W.R.R.R.R.H.R.H.T.K.y.L S S B L t.L S S S B N S N K N.N.D.Q.Q.F.j.F.F.h.j.h.j.j.y.P R u.h.u.f.u.y.N.y.z z F e.y.y.y.9.`. X X[.'.3.N k e j S @.t.@.=.U z @.@.@.| d z O.@.",
"S L L B S B S S L z ' F.~.Q.R.Q.R.Q.Q.R.R.R.Q.R.R.E.R.R.&.=.F.!.R.P.X.K S F w.R.R.!.P.K.B.R.R.K.T.T.H.F.R.j.H b N F F S U S S N N N S N L y.F.F.N.^.F.N.B.j.F.h.j.h.d.d.| b =.s.s.h.u.u.u.u.G z z | t.i.t.t.(. XXX X[.].3.N j k r S w.e.e.e.L k  .5.@./ f l +.@.",
"L S L F S S S S L z O.R.!.R.Q.R.Q.R.R.Q.!.R.R.Q.Q.R.H.F.Y B.R.R.K.F.H G D H h.E.R.R.!.j.R.R.H.T.R.T.R.H.F.,.z S S F F b S S S b N S S S | N.N.F.^.H.F.j.j.F.D.j.h.h.h.] b U u.s.s.h.u.u.j.R f z K t.p.i.a.c.XX XXX[.+X'.7.F k j j N O.w.@.e.G z  .@.@.R l z +.O.",
"S L B S F S L S G G f.T.R.R.R.R.R.R.Q.R.Q.Q.Q.R.R.Q.T.>.] T.T.R.F.@.G n G / F.K.R.Q.B.d.R.H.T.R.H.R.T.H.K.R n S B S B S S S L S S S F P s.j.B.H.H.B.B.j.j.j.j.j.j.h. .z m y.u.u.u.s.u.s.| z z g O.i.i.i.k.|.XXXX X X X'.7.F j j j j o.@.@.@.S k o.@.@.I f N  . .",
"S S S S S S L L G J B.R.Q.E.R.Q.Q.R.R.Q.Q.W.R.Q.Q.Q.F.] ,.T.R.T.F.R G b m -.T.T.T.F.&.B.H.R.R.K.T.R.V.B.y.S S S S S S F S N S ! S F z =.D.B.F.H.N.N.B.D.h.h.j.b.n.X.b z ] u.u.h.u.s.s. .b b g ` t.i.l.i. X X X XXX|.[.[.7.W j d j l | @.@.@.z j  .@.@.L f z o.| ",
"L S S F S F L L c | H.R.T.!.Q.Q.R.Q.W.Q.R.Q.R.Q.R.R.d.m M.T.R.F.y.S c b H F.T.T.F.f.>.R.R.H.R.T.T.Y.F.j.H D S N S S S S S F i.P S S | h.D.B.F.B.F.j.B.D.N.j.j.s.| b v K u.u.u.u.u.a.@.S z z H t.y.r.i.'. XXX X&X|..X X|.i.P j s j j / O.@.@.z k | @.O.P d N  .| ",
"B S B S L S S S G @.H.T.R.R.R.W.R.R.!.R.R.R.R.H.R.F. .] V.T.T.B.Y G G G  .T.R.T.B. .B.R.F.R.H.T.T.Q.B.-.D b N S N S N S P '.@.F f H N.N.N.B.j.B.j.F.j.j.j.D.d.| v z S =.u.u.u.u.u.@.z k k z  .:.i.i.'.[. XXX X X|.|.|.].7.^ j j j j ! @.@.O.j d | @. .G d S | / ",
"S N S S S S S S H y.T.Y.R.R.R.R.R.R.R.R.W.R.R.H.T.B.K &.H.T.F.y.b S N G y.T.R.T.&.&.T.H.R.R.K.T.T.V.h.D D S N S S N S P K.D.G z b -.N.N.B.B.N.B.N.B.j.j.h.y.K v b h R y.u.u.u.u.:.G k k k | t.a.w.K.oX+X X X X X X|.|.`.k.^ j e s s P O.@. .d r | @.O.z r G / ! ",
"S S S L S L S S G N.T.~.R.R.R.R.Q.R.R.Q.R.R.R.R.F.&.Y j.V.H.F.R b b z K F.T.Q.y.Y B.B.T.K.R.R.R.H.H.O.v S v S z S S ^ '.oXS S b / j.B.B.N.B.B.j.j.j.h.j.&.H z k z R y.A.u.s.u.=.J k f k H e.y.9.J.&X&X X XXX X X X|.`.[.k.o.l j d j z @.@./ d d | @.O.z r G U | ",
"S S b S S D G H H B.T.R.R.R.W.R.P.R.R.R.R.Q.R.R.B.Y ] K.H.H.u.K S S b X.H.H.N.R &.H.T.T.R.H.R.R.F.N.K S F k N S S P @XwX[ z b R j.F.F.j.B.B.M.u.h.f.h.O.b k z S S y.u.d.s.p.t.R z k k b 9.y.9.A.&X}..X.X X X X X|.|.|.[.l.o.l j j p N X.@.U r r | @.o.f 9 L P / ",
"b S b H S D D S ] T.R.R.R.R.Q.R.R.R.R.Q.R.R.R.H.y.m =.T.H.F.' b S v m d.F.H.X.R j.H.T.H.T.T.H.F.B. .b S F N k S / :X1XO.G z H d.N.F.j.D.j.N.B.j.M.>.U z z z z z @.s.d.u.A.p.O.F k k z @.t.t.D..X.X&X&X X X X X|.|.|.`.[.z.o.j p e j k O.@.P r f | @.| r d P G | ",
"S D S S S S b H >.K.R.R.T.R.R.T.R.K.R.P.T.T.R.F. .m j.R.H.f.H b S b K B.F.u.H X.F.Y.V.H.K.T.B.F.y.v S S S S L w.3X9Xt.G c n :.B.F.B.F.j.j.h.j.h.| b z z k z b | u.u.p.h.y.p.K k z z @.i.t.D. XXX&X X XXX&X X X|.|.|.|.'.v.o.l j j j z o.O.z r r ^ O.U d r R S | ",
"S S b S S S b S F.R.R.T.T.P.T.R.R.R.T.T.K.R.T.j.m ] K.F.B.X.b b b z X.H.B.H H j.B.H.H.T.T.H.T.H.T k b z F S u.>X9Xy.V z n :.B.N.n.j.F.h.j.u. .b v b S f k z / y.d.h.p.i.h.I z z z o.e.t.G.*X,X,X XXXXX X X X|. X|.|.`.`.v.o.l j e j k | O.z f d | O.U d r I S | ",
"b S D S S S b U F.R.R.T.H.R.T.T.T.R.T.T.T.R.F.&.m y.H.F.j.H b S S G u.F.@.n X.F.T.K.T.T.Y.F.V.>.n S S S G D.9X9Xu.F G c X.N.N.B.j.h.j.t. .S v b P P z z k U s.h.p.y.b.b./ j k k / y.w.G.&X&X&XXXXXXXXX X X|. X|.|.|.`. Xc.o.j p p d j / o.z r r | O.P r r K S | ",
"S D b S D b S | K.H.H.R.T.T.T.Q.R.T.Y.Y.T.F.B.R H j.F.F.@.b b b b R F.y.b z d.F.T.T.F.Y.U.U.f.H b N B l i.&X3Xs.N b z ] N.H.N.h.x.t.S z z g N O.O.v k z P y.s.s.l.b.'.P k N j ( i.e.oX&X,X,X X,X X X X X|.|.|.[.`.`.`.`.A.o.l d p d d | / k d r | O.S r d F G O.",
"b b H S S G S &.R.K.T.R.R.R.T.T.T.R.Y.Y.R.H.d.m T F.T.j.U b b b S e.s.P b R F.F.R.T.H.T.U.B.>.b z V ^ *XrX9Xe.G z z / u.u.y.@.U G z z z S I x.o.v k b G i.s.s.i.D.[.( k j k / e.e.G.@X,X&X,X,XXXXX X X X X|.[.|.`.`.`.].Z.o.l p d p d | / d r r / O.z r r z P | ",
"S S b S S b H w.R.R.R.B.F.T.R.T.R.T.Y.Y.H.B. .b &.B.F.>.b b S S b y.R b H u.K.R.H.F.F.Y.U.f.n b G I *XwXwXl.S N z b / U G c n n z k z S 5.@XO.k v b L t.h.t.7.oXoX( k N j S 5.@.'.@X&X&X,XXX.X X.X X X X`.'.|.`.`.].'.[.Z.[ l p p p j / U d d w |  .z r r z / | ",
"b S S S S b G h.K.R.F.j.T.R.T.R.R.T.Y.Y.T.j.H b d.B.F.Y b z b S U  .H b R F.F.T.R.B.F.B.V.X.c c 9.7XwXwXt.L N V z z z z z k k l b z I K.oX| l z k T t.s. .A.%X'.o.z j j ! o.e.'.@X&X}.&XXX.X.X X.X X|. X`.`.|.`.|.`.`.'.S.o.j d p d j | P d 9 d / | k r d k / U ",
"b S S S S G P n.F.R.B.d.R.T.R.R.R.R.Y.V.F.&.b R B.F.y.n b b  .S P b b b t.F.H.H.F.H.F.H.u.G G a.7XwX7Xi.V z z z j z N V N M N z S O.*XP.! z z j / =.O.@.@X-XP./ k l k L U 5.'.*X*X&X&X.XXX.XXX XXX|. X X|.[.{.|.`.[.[.`.Z.o.z p p p f ! N p p r / / r r r k / G ",
"S b b N S R T B.T.T.j.h.F.R.R.R.F.T.E.B.B.R D -.H.N.R b S P @.S b S m R N.B.B.T.F.B.B.N...Z A.9XqXrX+.c l z z l z z N j l B z i.oXl./ N N z z U L P G.-X=XP.H l d d g J s.'.&X.X.X.X.X.XXX.X,X X X X|.|.{.|.[.].`.`.`.`.A.} N e p p p [ d p p 9 / R d r r z / N ",
"S b b N ^ P  .T.F.H.>.B.F.T.F.F.H.T.Y.Y.d.m S h.F.u.n b S p.U S b b n >.B.T.F.T.T.F.H.t.U G.qXwX&X| z V l z z l c l z N ! a.&X*X@Xe.N k j z z H p.*X-X-XD.I l j g z o.A. X&X.X.X.X=X X.X<XXX X X X|.|.|.[.|.`.|.[.`.[.`.v.2.B e p d g I d p p d ! I r r 9 z / k ",
"b b S L 5.L y.T.Q.B.&.B.R.F.R.T.T.T.V.B.] v Y j.N.| b S ( oXG z b z H B.B.Y.F.B.F.T.H.=.=X0X0X@XU N z c z l z V V c ! D.2X*X7XL.^ N k k N S ! t.G.-X@X9.V l l z z 9.G.@X=X=X}..X.X.X<X.X.XXX X|.[.|.|.|.`.|.`.`.`.`._._.S.^ N s p y d V p p p w / G r r w G / d ",
"S b F 5.@.G h.B.B.f.&.F.R.F.F.R.F.T.V.f.m b  .F.u.S S G #Xd.S N N b -.F.H.B.F.T.B.B.y.^.rXqXs.J c c V l V c V G t.{.1X9XwX<Xt.L S z k F e.oX@XD.p.i.U l g d l [ s.I.&X=X&X&X=X.X.X.XXXXX X X|.|.|.[.|.].|.`.|.`.].].`.J.v.( B p w d p N d p p p ! b r w r L U 9 ",
"b F O.e.o.L j.B.T.&.B.F.R.T.T.T.T.T.B.:.v S y.G. .S S s.3XW N b S R h.F.F.T.B.F.F.N.B.5X}. .l z V z z l I @.D.7X9X9XwX=XJ.I z z k L 5.'.2X3X:X*Xs.N f d d c ..s.G.{.{.@X{.L.`.}..X.X.X X X X X|.`. X[.].].].`.`.]._.]._.S.1.B w w p d N d p p p R k w r r U S w ",
"F 3.5.5./ K B.T.F.] B.Y.Y.T.T.T.H.B.F.R b R D.u.n N o.wX'.F N b v &.T.F.F.F.B.F.j.b.$X+.N N B N M L 9.&X7XwXwXwXwX7XL.! V N l G i.2X3X9X9X1XP.o.N z z f I @.y.a.a.u.a.a.D.|.&X.X.X X X X X X X].`.[. X].].'.].'.].]._.].S.o.B p w w e N j 6 6 d P d 9 r r P d r ",
"O.w.r.5.W U B.T.f. .B.Y.Y.R.R.T.B.T.y.H b  .D.| c V '.wX7.N N b D h.F.T.F.T.B.T.h.U L L ! +.t.A.@X1XrXwXwX7X*XJ.9.U B V L o.x.=X7X7X9X2X'.i.L j j l H i.K.@X@X@X+X'.oX*X&X.X.X.X X&X X X X X X[.[.`.`.'.`.`.'.`.].'._.'.A.} N w w w e B j w p p P r r r r H r r ",
"b.r.r.r.P / F.B.&.&.T.Y.H.T.T.T.T.B.] b v t.y.G z s.rX7X! B F v =.B.F.F.F.B.T.T.F.eX9X0XwX7X1X9X2X7X&XG.3.L N z L N G i.=X1X2XwX7X1X*Xa.U l j l N 5.`.&X<X<X<X1X<X<X,X,X&X.X&X.XXX X X[. X[.[.`.`.[.v._.'.].J.J.'._.'.v.z.o.S e w q e B N p 6 9 G r w 9 j S r r ",
"w.r.r.5.G @.F.B.Y u.H.Y.Y.T.R.T.F.j.H b b h. .c ` 9XrX'.B N N H n.j.n.T.F.F.B.j.N.F.D.z.i.7.@.^ I L Z V z N Z +.v.{.1X9X9X7X9X1XP.9.I N l j V 7.L.*X<X2X2X<X<X2X<X,X,X,X&X&X.X.X.X.X X X[.[.[.[.[.`.v.i.i.a.A.x.z.i.w.5.o.I N e w w e L N p p w k r r r z r w 9 ",
"e.r.r.o.G :.B.f.m f.T.F.B.T.T.T.B.&.b b | y.n b P.tXrX+.N N z O.T.U.T.T.F.B.B.T z z N V V l l N H L ! +.i.{.wXwX7XwX9X1X=X{.a.| B j j N ^ i.@X1X<X1X1X<X<X2X<X,X,X,X,X&X&X X.X{..X|. X[. X[.|.[.`.`.`.z.9.@.@.5.t.5.i.e.5.Q P r w w M L V w 6 r d 6 r 6 r r 6 w ",
"e.e.7./ G u.B.:.R B.E.T.T.Y.U.F.N.U z b t.| z a.rXtX$XV n z S j.T.U.E.F.F.H.N.I.G.a.a.t.s.J.K.'.1X1XwX3X7XwXrX2X7X{.s.o.L B j N L o.D.{.&X1X1X1X1X1X1X1X1X<X<X<X=X&X&X&X=XXX,X X X X X[.[.[.`.'.`.|.|.`.`.L.S.S.S.`.S._.v.Q E s w e M L F w w r 9 r r r r 9 w r ",
"x.r.5.W H h.B.] &.F.F.T.F.U.U.F.y.S z G p.L U >XtXtXA.c l z &.B.U.R.T.B.B.G.$XrX9X0X0X9XwX2XwXwX9XwXwXwX7XL.l.5.! ^ } o.7.a.J.'.=X2X1X2X1X1X1X1X1X1X1X1X<X<X<X<X=X&X&X&XXX,X X X X&X X|.[.[.|.|.|.`.`.`.`.`._.S.J.S.`._.c.! E j w r N L B r 6 r 4 w 9 r r r r 6 ",
"3X3.e.W n N.M.K j.B.Y.F.B.Y.Y.B.' z z P U L P.pXtXrXO.c g n h.B.U.W.T.B.F.y.0XqXwXtXrXpXrXwXrXwXwX3X@X&X+XL.L.'.'.*X&X*X*X=X<X1X2X1X1X7X1X2X1X2X2X1X-X<X<X<X<X&X&X&X&X=X X X X,X X[.[.[.`.|.|.`.`.`.`.`._.J._.`.`.J.(.J.A.o.! M e p P L F w 4 r 4 r r 4 9 6 9 e ",
"pX&X5.S U G.u.K j.F.F.F.T.U.B.B.n z z R S t.dXpXpX-XG z g X.B.Y.T.T.B.B.N.4X$XP.9XeXwXrXwXpXwXrXrXrXwX1X1X1X@X'.L.l.7.4.[ o.9.l.G.&X1X2X2X2X1X1X1X1X<X<X<X<X,X&X&X&X&X=X X X X,X X[.[.`.[.`.{.`.`.`.`.`.`.`.`.J.(.`.`.S.S.7.E N w e B Z e 4 w r 4 w r 4 4 r w D ",
"dXdX'.F R D.&.Y B.V.B.T.F.U.U.$.z c z U U 1XtXdXtXy.z z J m.B.Y.!.U.U.j.&.,.,.c i J m ` K I @.t.p.D.L.P.'.'.@X*X=X7X7X1XoXv.o.L L ^ J.2X1X2X1X1X1X<X<X<X<X*X&X&X&X&X&X&X X X,X X X'.[. X`.[.|.`.`.`.`.].]._._._._._._._.(.v.~ E r w Z j 6 6 6 q 6 6 6 6 6 6 r P ",
"pXdX3XH X.N.' ' V.B.B.U.Y.j.h.K z z N G P.tXtXtX9XG c h X.N.B.Y.E.U.j.,.v i t t t t 3 y y y t i n R ' ' ' K _ G c K t.I.4X$X1X'.2.U } P.*X1X1X1X1X<X1X<X=X<X&X,X,X&X&X,X X X X[. X`.|.`.|.`.`.`.`.`.`._._.]._.]._.(._._._.v.~ E N w z w p w 6 6 6 6 6 6 w 6 v R ",
"eXdX3XH &.u.K X.B.B.Y.U.U.U.>.v z z V +.qXtXpXtXI.n h m M.M.M.^.Y.B.j.&.y t - y 3 3 3 - 3 3 6 6 i g U ' ' n i 3 y 2 y i G A.=X1X=Xi.4.J.1X1X1X1X<X<X<X=X=X&X&X&X&X,X&X,XXX X X[. X|.|.|.[.`.`.|.|.`.`._.]._._._._.(.(.(.(.3.E E L d 6 w 6 6 6 6 w w 4 6 w 6 F R ",
"t.pX#Xv &.,.n u.H.Y.U.Y.U.j.R z z z L $XrXpXtXsXt.z b &.M.V.Q.Q.B.B.y.] i y y y y y 3 t 6 d n J ` | ' | ' z y 2 3 3 3 y d y @.1X7X2X{.&X1X<X<X<X<X<X=X&X&X&X&X&X,X X&X X X[.[.[.'.|.`.`.`.|. X`.`.`.`._._.]._._.(.(.(.(.l.W E E Z N 6 6 6 w 6 w 6 6 6 w w d / R ",
"G D.oXb :.:.n u.B.U.U.Y.B.g.v b c V s.rXtXpXtX7XJ N H j.B.V.~.V.B.f.y.u.p.D.G.G.I.G.L.I.P.L.G.D.m.s.s.y.y.:.[ G h g i h h h S @.&X*X<X2X1X1X,X1X<X=X&X=X&X&X&X,X&X,X,X&X[. X[.[.[.].`.`.|.`.`._.`.`.).`.`.(._._.(.).(.(.2.E E E L j w 6 y w 6 y 6 6 6 w 6 N [ U ",
"b G X.b >. .m N.B.U.B.B.g.] v h z ! 9XtXsXpXtXA.z z :.B.B.R.~.N.B.B.Q.9X9XqXwXwX9XqX9X8XqX9XrXwXwXqX7XrX7X-X4X8X5X^.m.' n K H U o.'.1X<X<X<X,X1X<X&X&X&X&X&X&X,X,X,X[.[.[.[.[.[.[.`.`.|.`.|.`.`.J.Z.7.8.0.c.Z._.(.(.(.c.~ E E E N p 6 w w 6 w 6 p p 6 6 6 J | C ",
"z b z z :.H ' B.Y.B.F.N.d.S v z c G.tXtXtXtX8X| z J N.B.V.~.Y.F.N.^.*XtXtXrXrXwXtXrXrXrXrXrXwXwXwXwX8XwXwX9X7X7X8X7X-X$XI.X.J ` m.a.A.&X,X<X=X1X&X&X&X&X&X&X&X&X[. X X X X[.[.[. X[.[.`.`.[.`.'.q.Q N Z A A E <.(._.v.<.E E E Z s 6 6 6 6 w 6 6 6 6 6 6 g K ` g ",
"z b f v :.n X.B.B.Y.F.n.-.b z z O.qXtXtXtXtX$XV z :.B.M.Y.R.B.H.G.}.7XpXrXrXpXwXrXrXrXrXrXwXwXwXwXwXwXwXwXwXwXwX8X7X7X1X1X7Xu.I | @X&X.X7X<X<X=X&X*X&X&X&X&X&X X X X X X X[.[.[.[.`.`.[.`.`.L.J.} o.0.z.c.S.c.c.3.k.7.W E L E N w 6 6 6 6 6 p 6 6 6 6 6 J U _ u ",
"z z z h X.n :.F.B.Y.T.B.H b z S I.rXtXtXtXrXs.z U N.N.V.~.V.N.D.9X*XeXeXeXeXrXwXiX9XwXrXrXrXwXwXwXwXwXwXwX8X7X8X7X7X3X2X7X1X=XG.[ a.=X7X<X<X<X&X<X&X&X&X&X&X&X&X,X X[.[.[.[.[.[.`.`.`.'.)._.J.9.l d d p s ..z.Z.S.z.! E Z Q F e 6 6 6 6 6 w 6 6 6 q 6 d [ ` g t ",
"z v h v ' h u.F.B.B.B.&.b b S | 9XaXpXtXtX8X` z @.N.B.R.R.V.F.^.%X*XwXiXrXiXwXpXrXwXwXwXrX8XwXwXwXwXwXwXwX8X7X7X9X7XwXwX2X7X1X1X}.t.{.1X<X<X<X,X&X&X&X&X&X&X&X X[.[. X[. X`.`.`.].`.].`.`.0.U y 2 - * , 2 p l I +.o.L J L L N w p 6 w 6 6 6 6 w 6 6 6 z ' ` t t ",
"k z v z K n u.N.V.B.B.R b b S *XrXyXtXtXtXI.l J A.F.F.~.Y.U.N.5XP.7XwXpXwXwXwXwXwXwXwXwX8XwX8XwX9X9X9XwX7X7X7XwX9X9X9X2X2X2X2X1X$X=XA.=X<X<X=X&X&X=X&X&X&X&X,X X X|.[.[.|.[.`.'.].`.`.v.{ N x d y 2 * + * t x g 5 4 z V Z Z s w 6 6 w 6 6 6 6 6 6 6 p I | J 2 = ",
"v k h b H m M.B.M.Y.u.b z z O.0XtXtXpXtX9X>.n :.N.M.V.~.H.N.#X-X%XwXeXeXeXeXeXwXwXwXwXwXwXwXwX7X9XwX7X9XwX7X7X7X7X7X7X2X9X2X2X1X1X=X<X=X<X&X&X&X&X&X&X,X,X[.&X+X[.].|. X[.{.|.`.`.L.L.A.Q c V ` [ ` V u y g c 2 * + * 1 z l 6 w 6 6 6 6 y 6 6 6 5 6 l ` ] g 2 = ",
"k k h v b H M.M.M.B.X.h l z G.wXtXtXpXpXqXK K u.M.V.Q.V.F.G.9X#X9X0XwXeXeX3XeXeXwX9X9X9XwX9X7XwX9X7X1X9X7X7X7X7X7X7X7X2X1X7X1X<X1X1X1X<X=X=X&X&X&X&X,X,X&X[.,X[.[.|.|.|.|.`.`.|.`.`.J.{ J +.z.A.A.A.A.z.9.I x p * * + + l p 6 6 w 6 6 y 6 6 6 3 6 y G ` [ t = = ",
"h k k v v H B.B.B.f.n h g I 9XrXtXtXrXpXG.n X.N.N.Y.~.V.d.-X5X$X0X0XeXwXeX3XeX2X9X9X2X9X2X2X1X2X9X1X7X1X7X7X1X2X2X7X7X1X2X1X<X1X<X=X<X<X=X&X*X&X&X&X[.&X+X&X[.+X[.[.|.|.`.|.|.`.`.`.4.9.A.S.S.`.S._.L.S.A.A.a...5 # + + * 6 6 6 6 6 6 6 6 6 y 6 4 g U ' n t = = ",
"k h k k h Y M.V.M.&.h h z U D.@X8XrXtXwX..K M.M.M.H.F.M.H.0X#X>XeXeXwX3X3XeXeXwX9X2X3X7X9X9X1X9X1X7X7X7X1X1X7X4X-X7X7X1X7X1X1X1X1X<X<X=X=X&X&X&X&X&X X&X,XXX[.[.[.[.|.|.|.`.`.`.`.`.Z.S.L.L.)._.`.(.(.(.(.(.Z.8.Z g # * , 6 q 6 6 w 6 6 6 6 6 6 5 c ` [ u % & & ",
"h k k v v ] B.M.U.m h z g g c Z s.rXtX@Xc X.N.N.V.~.G.M.>X9XoX0X0X3XeX3X3XwXeXpXrX9X9X2X1X1X9X1X7X-X-X1X-X1X7X=X7X7X7X2X1X1X1X1X=X=X<X=X=X&X=X.X&X*X&X X X+X+X[.[.|.|.|.|.`.`.|.`.`.`.`.J.L.)._._._.(.).(.(.S.8.Z L p 4 2 6 y 6 6 6 6 6 6 y 6 6 6 J | [ 1 & = $ ",
"f f k k h  .j.B.h.b f h k f e S  .tXrXD.c ,.B.M.~.H.N.N.qX$X5X9X9X9X3X3X3X3X0XeX3X3X3X3X3X:X1X:X1X3X:X1X3X1X1X1X2X1X1X1X2X*X1X<X<X&X&X&X&X,X&X,X&X,X&X'.&X X'.[.|.`.|.|.`.`.`.`.`.`.`._._._._._._._.J.(.v._.v.3.E L B p 6 6 q 6 6 p 6 6 6 6 6 w l U [ J = & & & ",
"v f h z z &.j.j.-.h k h k v v k S *XrX| ] B.M.Y.~.V.A.qX5X}.rXqX0X9X0X>X9X3X3X3X3X3X3X3X3X3X1X3X:X1X1X3X1X3X1X1X1X1X1X1X1X1X<X=X*X&X&X&X&X X,X,X,X&X+X&X'.oX'.[.|.|.'.`.|.|.`.).`.`._.`._._._._._.(.(.J._.J.v.^ L E N w 6 6 6 6 6 6 6 6 w 6 6 y G R | l > & & & ",
"k f f k z =.U.j.H k f f k v v k N m.$XJ u.N.U.Y.V.N.I.qX7X$X9XrX9X9X9X3X3X9X3X3X3X3X3X3X3X3X:X1X1X1X:X1X3X-X1X1X1X1X1X1X<X1X<X1X,X&X&X&X&X,X,X&X X&X&X'.'.'.'.|.`.{.`.|.`.`.`.`.)._.`.J._._.J._.S.S.S.J.J.S.v.! E B l w 6 6 6 6 6 6 6 w 6 6 6 6 J R | 5 & & & & ",
"k h k k z -.j.d.v k f f k r k M z | a.` N.B.V.~.G.M.5XwX}.9X9X9X0X3X0X0X3X>X3X3X3X3X3X-X1X3X,X<X1X:X,X:X:X,X:X,X1X1X<X<X<X1X<X<X&X=X&X&X&X,X,X&X[.&X'. XoX'.'.`.|.`.`.|.`.`.`.`.`.`.`.J._._.(.J._.S.S.v.v.v.v.E Z L j 6 6 6 w 6 6 6 6 6 6 6 5 y U  .K * & & & & ",
"k f k k z =.N.&.v k k f k v k k l V V O.N.B.Y.R.N.Q.0X9X$XrX0X9X9X9X9X9X3X3X3X3X3X3X3X1X:X2X:X:X-X:X-X:X,X,X<X<X<X1X*X<X=X=X=X=X&X=X&X&X&X,X&X[.,X X[.oX'.'.'.[.`.`.{.`.`.`.`.`.S.`.S._._._.S.S.(.J.S.v.v.v.i.E Z F e 6 6 6 6 6 6 6 6 6 6 6 6 z ` | d & & o & & ",
"v f h f v =.F.R f f f f k f f v f k b u.N.B.T.G.N.9XwX<X9XwXrXwXwXwX3X3X3X9X3X3X3X3X:X1X1X:X1X-X-X-X,X*X*X:X*X,X<X<X<X<X<X=X=X&X&X,X&X&X&X&X+X&X[.+X[.[.[.[.[.`.|.`.`.`.`.`.S.`.`.J.`._._.J.J._.v._.v.v.v.v.5.E L B w 6 y 6 6 6 6 6 2 6 6 1 6 J ` ` 2 $ $ $ $ $ ",
"k f f h z &.h.P h f 0 f r k k f f f ' j.B.F.R.D.G.7XwX+XrXrXwXwXwX3X9X1X9X2X3X3X3X1X:X1X:X-X:X<X1X:X-X*X*X,X<X<X<X<X<X<X<X*X&X&X&X,X,X,X&X[.@X X X+X X[.[.[.[.'.`.`.`.].`._.J.`.S.`.J.(.J.(._.v.v.J.v.v.v.v.^ E B j 6 6 3 6 y 6 5 5 6 6 6 6 6 U ' n $ X X X $ $ ",
"f f f k h @.h.b f k k f k f f f f v y.B.N.R.H.N.4X0X1X,XpXrXwXwXwXwX9X9X9X9X3X3X3X3X2X:X,X1X1X:X-X,X-X*X*X*X<X*X=X=X=X=X=X&X&X&X,X&X,X&X&X X&X&X+X X[.[.[.`.].[.'.`.`.`.`.`._.S.`.S.`.J._.v._.J.v.v.v.v.v.x.F B B e w 6 3 6 6 6 5 5 6 5 2 6 d ` ' g $ $ X $ X $ ",
"f f f f v  .=.k z f f f h f f f f G d.j.B.R.B.Q.0XrX=XwXrXrXrXrXwXwXwX9XwX2X1X9X3X1X3X3X3X*X1X-X:X,X-X:X*X<X<X<X<X*X<X<X=X&X=X=X,X&X&X,X&X+X X[.+X'.[.'.].[.`.`.`.[.'._._._._.J.S.J.`.(.S.S.J.v.v.v.v.v.l.r.E B B w q 6 6 6 6 6 4 6 6 4 1 6 g ` _ - O O     $ X ",
"f f f f k R / f h f f f h f h f h R j.B.F.F.F.$X0X9X&XpXrXrXeXiXiXwXwX9X9X9X3X3X3X3X3X3X3X1X*X-X1X:X*X,X*X*X*X<X*X,X<X<X&X&X&X&X&X,X,X&X&X[.oX'.'.'.'.'.[.].[.[.`.`._.]._.`._._.`.(.S.J.(.A.J.v.v.v.v.v.v.r.B B M q 6 6 6 t 6 6 3 3 6 1 1 3 G ` n + $   X $ X X ",
"f k f f k H P k k f f f f f h f v :.M.M.V.H.N.7XqX-X7XwXwXrXwXwXwXwXwX9X7X7X9X3X3X3X1X3X1X1X-X-X<X:X<X-X*X<X*X&X=X<X=X&X&X&X&X&X&X&X&X&X&X X X'.'.+X'.].`.`.[.'.'.'._._.J._.`.J._._._.S.J.S.v.v.x.v.n.v.l.3.F F e w 6 6 6 6 3 6 2 4 2 # 6 6 U ` y $ O $ $ X X X ",
"f k k f h b b v f f v r f g d h v f.M.M.Y.m.I.0XqX@X8XwXwXwXwXwXwXwXwX8X7X7X7X2X3X1X1X1X-X1X=X=X<X<X<X<X<X<X<X,X=X=X<X&X*X&X&X&X&X&X X X'.oX'.'.'.'.'.'.].`.`.`.'._.v.o.5.`.S._.J.`.S._.S.S.v.v.x.v.v.v.l.( F D r 6 6 w 6 6 4 6 2 6 * 1 4 i ' [ % $   X X X X X ",
"g z f h f k k f f f f f f f g h m M.M.M.N.N.8XqX8X&XqXrXwXwXwXwXwXwXwXwX8X7X9X1X2X1X1X-X1X1X1X=X-X<X,X-X<X<X*X,X=X<X=X&X&X&X&X&X@X&X&X[.'.'.'.'.'.'.'.].].'._.'.'.v.o.Q } _.J._.(.`.S.S.S.S.v.v.v.x.v.l.l.W F e 6 6 6 4 w 6 6 2 4 1 + 1 6 n U c %   X   X X X $ ",
"f h g f f h f k f f r f f d i f &.V.M.M.N.i.1X0X-X8XrXwXrXwXwXwX8XwX8XwX9X9X1X1X3X7X-X7X1X1X1X1X1X<X1X<X-X<X<X*X<X&X*X&X&X&X&X&X&X&X'. X'.'.oX'.'.'._.'._.`.`.'.].k.Q E ~ (.S.S.S.J.S.J.S.J.v.v.v.v.v.v.l.F F e 4 9 6 6 6 4 4 6 6 1 + 2 y J | 2 O   % $ $ X $   ",
"f z d f f f k h f f f f f f d h >.M.B.B.h. .A.wX&XqXrXwX8XwXwXwXwXwXwXwX9X7X7X9X7X7X1X7X7X1X1X1X1X-X<X1X<X<X,X,X<X<X&X&X&X&X&X&X X+X[.oX[.oX'.'.'.'.`.'.`.`.`._.`.v.^ E Q c.S._.S.`.J.(.J.v.S.v.l.v.l.l.r.F N r q 4 6 4 6 6 4 4 6 # : 4 d U G + X X   $   $   X ",
"k f f f k f f f f f f f d f d g ,.g.g.B.=.o.5.-X@X9XwXwXrXwXwXwXwXwXwXwX7X7X7X7X9X7X1X7X1X7X1X1X1X<X<X<X<X<X<X<X&X=X&X&X&X&X{.&X&X X+X'.[.'.[.`.'.'.].].].].`.`._.L.0.P Q 0.`.S._.S.S.S.S.(.S.v.v.l.l.l.( F e 6 6 6 4 6 4 6 6 3 1 # 1 6 g U g O O $   $ X X   $ ",
"d h d d f d d h d d f d d g g v f.g.B.j. .o.5.A.*XwXwXwXwXwXwX9X8XiX9X7X7X2X7X7X7X7X7X1X1X1X1X1X1X1X<X<X<X<X<X<X&X&X&X&X*X'.&X X{.&X'.'.}.}.|.`.`.`.|.|.|.).|.L._.J.S.0.Q 1.S.(.J.S.S.S.S.S.Z.Z.x.v.v.l.E V p 6 3 6 4 6 6 5 6 4 + # 4 6 G J < o X X X X X X X X ",
"f d f d d f d d f h d d d d d n f.M.B.d. .o.3.i.*XwXwXwXwXwXwX9XwXwX9X9X7X2X7X7X7X7X7X7X7X2X1X<X<X<X<X<X<X<X=X*X&X&X&X&X&X&X{.@X{.}.}.{.}.C.}.}.L.I.).).L.L.L.`._.L.(.J.i.} S.S.S.S.S.(.S.S.S.c.v.v.l.r.L M 6 4 4 2 6 4 6 4 4 - + 1 4 d J d O . X X   X X X X X ",
"d h h d h f h i d f d h d g g K f.M.g.y. .o.2.i.A.wXwXwXwXwXwX9X8X7X7X7X7X7X7X7X7X7X4X2X7X<X7X1X<X<X<X<X=X&X&X&X&X&X&X&X&X X X{._ c x J C C C u x C _ _ C C t Z.`.).`.).(.A.(.S.S.S.S.S.Z.S.S.v.x.v.v.3.L s 6 5 6 4 6 3 2 6 2 + # 2 6 z G , . X X   X X       X ",
"d d d d d f d f h d f f d d g ' f.f.g.-.X.O.2.r.5.*XwX9X7XwX8XwXwX8X7X8X7X7X7X7X7X1X1X<X2X<X<X<X*X<X<X<X=X=X=X&X&X&X&X&X*X{.@XJ._ qX4XhXhX4XC.% C.yXjXgXfX4Xu z.S.J.Z.S.`.Z.S.J.J.J.S.S.S.Z.S.v.v.v.l.E N w 6 4 2 6 2 6 6 2 1 # 1 6 6 I p O . . X X     X X   X ",
"f f f d d f f d d f i f f l z | M.f.g.X. .O.( w.o.i.2XwXiXwXwX7X7X7X7X7X7X7X7X7X7X1X1X<X7X<X<X<X<X<X<X<X&X&X&X&X&X&X&X&X&X'.'.{.#.c x jXm.u _ #.4X4XjXfXuXhX> Z.S.).S.S.Z.q.).S.S.).S.S.Z.S.S.v.v.v.7.B p 6 6 6 6 6 3 4 6 2 : : 2 5 x C * X X       X         X ",
"f f d f d d d f f f f f f V ! X.j.g.f.X.( 3.( w.O.w.L.wX7XwXwX7X8X7X7X7X7X7X7X2X7X2X1X1X1X1X<X<X<X<X<X=X&X&X&X&X&X@X&X X&X'.oX`.m._ jXjX4XfXx #.I.gXkXhXgXuXu S.J.`.J.).A.S.S.S.S.S.S.S.S.Z.v.v.x.v.^ j 6 6 6 6 6 2 2 6 4 1 # 1 6 p A t $ X               X     ",
"f f f d d f d f f d f f f l `  .f.g.f.X.( o.w.=.3.( 5.<XwX7X9X7X7X7X7X7X7X7X7X7X1X1X1X1X<X7X<X<X<X=X=X=X&X&X&X&XoX&X{.@X'.oX'.x._ fX_ uXu #.uX% C.yXjX}.hXyXx q.S.).J.S.S.S.S.S.S.S.S.S.v.S.v.v.x.7.B w 4 6 6 6 4 6 6 3 6 1 , 5 6 l V > O X X           X   X   ",
"f j j f d f f d f 0 f d f j I  .f.M.f.] ( o.e.( ) O.4.0.<X7X9X7X7X7X7X7X7X1X7X1X1X1X1X1X<X<X<X<X<X=X&X&X@X X&X&X[.&X[.'.'.L.P.J.x t #.uXu #.t u u kXyX4XyXt > m.S.S.).).J.S.(.S.S.J.).S.Z.v.v.J.k.Z e 6 5 6 4 5 6 5 6 4 4 : 2 5 p J 5 o o o X X   X X       X   ",
"j d j l z z z g f f r f r h c  .f.g.f.R ( 3.r.) 3.3.o.o.`.7X7X7X7X7X7X7X7X7X7X1X1X1X1X1X<X<X<X<X=X&X*X&X X X&X'.`.i.} P N M 3.J.Z.m.8.yXa Z.q.a 4XgXuXI.4X4X< m.L.S.).S.S.).S.S.S.S.S.S.v.v.v.v.^ M q 4 4 6 6 q 4 6 3 2 2 : 4 y L M ; o o o o     X   X       X ",
"s s B Q ^ N J f r f f f f f z ] g.g.f.( ( 3.i.3.( 3.2.o.3.&X2X7X7X7X7X7X7X1X1X1X1X1X<X1X<X<X=X=X<X,X&X&X@XP.s.U f 6 9 6 9 r r S t.A.Z.M M q.Z.8.a a Z #.A a A Z.).S.J.S.S.S.S.S.(.v.S.v.c.x.(.6.M e q 6 9 6 4 4 3 6 4 4 1 2 4 g J : ; o o o o             X X X ",
"~ ~ <.<.{ P R b f f f f f f h R d.g.d./ 3.3.r.( 3.3.( o.o.i.1X1X1X7X7X2X1X2X1X1X1X,X1X*X<X<X<X=X,X.X X'.@.z i 0 9 9 7 0 9 9 8 9 i g C ..Z.L.S.Z.8.8.8.m.A.Z.Z.J.S.).S.J.).(.S.(.(.Z.S.S.S.c.0.Z e q 4 4 6 4 4 6 4 6 6 4 1 6 6 Z q @ o o o o o             X o o ",
"q.<.<.<.<.! I K f r f d r f h m d.d.d./ 3.3.i.o.( o.( 3.o.o.v.-X1X1X1X7X1X1X1X1X1X1X<X<X<X<X=X&X=X=XG.P i 9 9 9 8 8 8 7 8 8 8 9 9 9 q < t M { Q A M < < a { S.S.J.).S.).).S.(.S.(.v.Z.v.v.k.A q 4 q 4 9 4 6 6 4 2 6 2 2 4 4 g l , @ o o o o o   X X X X o o o o ",
"XX6.<.<.<.^ V  .h f d f f f h m d.f.>.R 3.3.r.( } ( ( ( o.^ 2.'.1X1X1X1X1X1X1X1X,X<X<X<X<X=X&X&X&XoXH 9 0 0 8 8 7 0 7 7 7 0 7 7 8 8 3 1 # : * , > , * & > I S.S.).S.J.S.(.c.v.S.v.S.c.Z.c.Q q : 4 2 7 6 6 6 6 3 2 6 3 2 6 y Z < & & o o o o o o o o o o o o ; o ",
"aX].1.<.} ^ G X.b i 0 f i d i K ;.f.,. .3.3.r.( 3.2.( 3.o.o.o.3.*X1X7X2X1X1X<X,X1X<X<X<X<X&X&X&X&Xy.Y Y T T m m v v 0 0 0 7 7 7 8 8 7 4 # # # # # # @ & , 0.S.).J.S.S.S.(.(.S.c.S.S.S.k.~ q ; , 4 3 4 3 3 4 6 4 6 2 4 2 5 l p > @ o o o o o o o o o o ; ; ; > > ",
"aXaX(.<.{ { L ' ] h i f f i i n $.d.y.( ( 3.r.( ( ( ( } } ( o.[ 7.&X1X7X<X7X<X1X<X<X=X=X=X.X&X&XoX@.;.;.%.%.*.*.%.%.$.) T v v 0 0 0 7 3 - # @ + + @ & : I c.S.J.S.(.S.S.S.S.S.S.c.S.k.Q t ; @ , 5 5 4 3 4 6 6 4 6 6 5 6 y V < & o & o o o o ; o o o ; ; ; > > > ",
"aXaXXX{ { A { U >.v i i f g i h ] d.d. .( 3.r.( 3.( ( ( 3.o.( ( o.c.<X<X1X<X1X1X=X<X=X.X=X,X@X&X@X@.;.;.;.%.*.;.;.%.%.*.%.%.) ) ) T m f 2 # @ # @ # & 5 0.S.).S.S.S.S.(.S.S.S.S.Z.z.{ q > o @ < 2 6 6 4 3 2 6 3 5 5 5 5 l 5 o > o o o o o o o o o o ; > > > ; > "
};
