/* XPM */
static char *out[] = {
/* columns rows colors chars-per-pixel */
"128 128 110 2 ",
"   c #010103",
".  c #05030B",
"X  c #09040E",
"o  c #0A090E",
"O  c #0B0511",
"+  c #0E0915",
"@  c #0F0C19",
"#  c #110B17",
"$  c #140D1B",
"%  c #180E1F",
"&  c #0F101C",
"*  c #121017",
"=  c #15111D",
"-  c #19131E",
";  c #0D0E20",
":  c #150F20",
">  c #0F1022",
",  c #0F1528",
"<  c #151323",
"1  c #1A1523",
"2  c #161826",
"3  c #1D1926",
"4  c #14162B",
"5  c #1B1729",
"6  c #16192D",
"7  c #1D1A2B",
"8  c #191731",
"9  c #161A32",
"0  c #1B1D34",
"q  c #1D1C3D",
"w  c #201B27",
"e  c #221C2C",
"r  c #231E34",
"t  c #231E3A",
"y  c #1E2035",
"u  c #1E213B",
"i  c #25202E",
"p  c #29232F",
"a  c #252135",
"s  c #2A2434",
"d  c #2B2837",
"f  c #25223C",
"g  c #2A253C",
"h  c #2D293C",
"j  c #32263B",
"k  c #322B3C",
"l  c #38283F",
"z  c #36303F",
"x  c #1F1E40",
"c  c #201F41",
"v  c #1E2343",
"b  c #252442",
"n  c #2A2442",
"m  c #262845",
"M  c #2D2A44",
"N  c #23264A",
"B  c #2B2748",
"V  c #25294C",
"C  c #2C2C4B",
"Z  c #322D43",
"A  c #312E4C",
"S  c #2F304E",
"D  c #363042",
"F  c #383143",
"G  c #34324C",
"H  c #39344E",
"J  c #3A384F",
"K  c #262B53",
"L  c #2B2E53",
"P  c #2A2E59",
"I  c #322F51",
"U  c #2E3254",
"Y  c #2D325A",
"T  c #363455",
"R  c #393656",
"E  c #373857",
"W  c #3B3856",
"Q  c #36355A",
"!  c #39365A",
"~  c #36395C",
"^  c #3B395C",
"/  c #353662",
"(  c #383762",
")  c #373963",
"_  c #3C3B62",
"`  c #373868",
"'  c #3E3E6A",
"]  c #403B5E",
"[  c #413D62",
"{  c #423D6A",
"}  c #483869",
"|  c #3F4066",
" . c #3F406B",
".. c #434166",
"X. c #42426E",
"o. c #4A466B",
"O. c #4D4A6E",
"+. c #444470",
"@. c #484573",
"#. c #4B4B72",
"$. c #4E4C7D",
"%. c #524E7A",
"&. c #57507B",
"*. c #5A5484",
"=. c #5D5984",
"-. c #5D588A",
";. c #635D8B",
":. c #676295",
">. c #696293",
",. c #756BA1",
/* pixels */
"# # # # % e l F F F F F F z z F k - $ - = a W f 3 d k z d d 1 G W ] ] J s 2 g a - d W R W W W W ] W W W D h M G E G G T R R H W T R H R W R H J T G G G G G Z g r s s s e = $ < < # O X X O O 1 t r r # O # O - e - + O O O X O O $ e O O O X X X X . O O O + r ",
"# # # # % e z F F F F F z F z l i # % % < h G i i z z l k 3 e W ] W W J 7 w d 3 3 M W W W W W W W W R R M f Z W E G G R R H R H J R H R G G Z M k M h h k h h h a e k d a e r 0 0 $ # O O O O + r r r 7 O O O # w w + X O O O X O # e # X O O X X X . X X O # s ",
"# # # # - s F F F F F F F F z s = * = = a W M 3 s k z k a 3 D W ] ] W M 2 i i - a J W W W W W W W R H Z s f G E H Z G E R E H R R W R R R G T D D h h h h d h h d g G G D a r r r r % + O O + O : t r t e # + O # 1 = X O O O O o # p o O X X X X X X X X O + e ",
"# # # $ w k F F F F F H F F k - $ $ $ < h W g e d z k d < a W W ] W G 7 - i = 2 h T W W R H T G F Z h h d Z G J M M R H H R W T R G T T T E G J T T R G G G R G A M H H T Z a f r t g - + + O O O 0 r a f 5 # # O # - @ O X X O o # e # O X O X X X . X X O + w ",
"# # # $ w k z F F F D D D k 1 * @ @ = 7 J G 7 e j h d 3 < h Z Z Z k a = 2 - = 7 h k h k M k k Z Z h Z G m Z G S D T E T R T T R T G E J T J T T T T T E T T H H G M T E G G f a r t g g = + O + O @ r a g M 1 @ O O # # O X O . o # e # O X X X X . . X X X O 5 ",
"# @ $ = w z F F G D D D k e = $ @ $ = i h p 3 s k k w 1 p Z Z Z Z h 3 $ = * 2 s h Z k Z Z M Z D Z J E G h M G J E W E J E H T T T W G J G T T E G E G T T T T E G Z G G E E D g r r a G a # + O + + 5 a g A h - @ X O O X O O O X # w # O O X X X X X X X X O 5 ",
"# @ $ - p F F F D D D k e = @ + @ = 3 Z h 3 i h d e < e D W W J R Z = @ * 1 s E R W W E R W E W R R E D h Z E E W E W E W T G E G E G T T T T G E T T G T G T G T G M G G G M d r a r g D e @ O O + @ 0 a M G h < @ O O X + O O + + w $ O O X X X X . O O X O 1 ",
"# @ $ 1 j F F F z k d e = $ @ @ $ < M W M 3 d h s 1 3 G W ] W ] W 0 $ $ = r J ] ^ W W W ~ W R ~ W ~ R m Z J E E E W E W E W R R E T E T E T G E T G T G T T T W T G M g a r a a a 7 7 0 0 a 1 $ + O O < a g G G f @ + O X O @ O O + e $ O X X X X X O X O O O 1 ",
"$ # $ w k k z k k k i - $ @ @ $ = e ] W r e k s 1 1 d W W ] ] ] M = $ = 2 Z W ] ] W W ~ W ] W ~ R W W h Z E E E ~ ~ W E Q W E R R G T T G T T T G E E G J T T T G M a 3 3 0 a g h s a a h S G i @ O O @ 5 t Z R D e $ + X O * $ O O w $ O X O X X X X X X O O : ",
"# # $ e k z z D z a - # # @ $ < 1 D ] Z 5 s s w 1 p J ] ] ] W J < = $ < g R ~ W E ~ ] ^ ~ W ~ W ~ R G M Z E E E W E ~ E E E E W R E W E R E G G E G G E T G T G S a 7 0 a Z G T G f a a g G J J 9 @ O O @ e g G W Z 1 + + O @ 1 $ # w - O O X O X X X X X X O < ",
"# # : r D D D l a - $ @ # # = - d W W e w s 3 < 7 Z ^ ] | ^ W a = = - 7 G W W ] ] E ^ W W ~ ~ W E W C M G E ~ R E R W W W E R E E W T J E J W T T T G G T G T G M y a m M G G G M y 3 7 6 a f h g 1 @ O + # 0 M W G a = + O O @ w 1 w % O X O X X X O X O . O 1 ",
"# $ - l D D z p 1 $ @ @ @ $ = 7 J ] Z 5 e 3 < 5 g W ] ] W ] M < = = 2 Z W ~ ] ~ | E ^ W ^ W ~ W R W M M E W R R R E E E Q T E E E E R E T T G T G T T T T E E G M g S G G M g i * o . + @ o * * 3 3 @ O O O $ r D Z g 3 @ + O O : e w $ O O X O O X O X O O O 1 ",
"# $ 3 D F k r 1 $ $ # $ $ : < h ] W 7 3 1 = < a J ] ] ^ | J 2 * = < a W W | ^ ^ E ~ W ] ~ W ~ ~ R E M Z E R R R E R E E E T T E T T T E T T T E T G G T S G E G S G J G h 7 = o         o * o o * - = # + O + $ a M g y 1 @ O O + 5 r 1 # O O O O O X O O O O 1 ",
"# % p l k i 1 $ # # # # $ : p W ] g < - $ < e Z W ] W T D y = * * 3 G W W ^ W ^ W W E E W ~ W W E D h G ! R ~ E R ! E E Q E R E T W R T T E E G T T E T G T G E G E Z f 2 * o . .         o o   O = < - X . X + @ 7 e a 3 + . O O # e w : + O O X X O X . O O w ",
"# 1 s j w - $ # # @ # % < 7 G ] T 1 = = = 5 g G D m M a 7 = = = = y M E ^ | E E E W ~ W ~ W W ~ E M M E W R E W ~ R E E E R R E T E T W T E T T E G J G T G T G G h s 3 * * o . .           * + * - < * o   . X O @ @ + +   o O O + w r e : # O O X X O O O + e ",
"# : p w - $ # # @ # $ : 1 g ] ] r < = $ < r a g g M g 0 < @ $ < 6 y d D J J | E ] E E | W ~ E W G M M R ~ E E ~ R E E E E E T T E T T E E E E E T E T E G T E G h h y - * # + O o o . o o + & = * @ * * * o     . . . .   * 7 = + + 3 e r r 5 # O X O O X O # r ",
"@ @ : : @ # # # @ @ = 1 s W ..M < = = < s D G W W W G 7 @ @ = r Z f f h G ^ W ~ W W ~ W W W ~ E C k G E E R E Q R E E W R ! T T E T G T E E T E T T H E E G E G D a - - * * * & < 6 9 8 9 0 0 y y 2 2 & + o o       . . . + 7 i : + w 1 1 t r 5 = O X X O O # s ",
"# # # # @ @ # # @ $ < 3 D ] W 7 = = = r G W ^ ] ] W a * $ = 7 G W J W E R ~ ] ~ | W W ^ ~ E W E M Z T R R E E R ! R R E E T T R E E E T T E E E T T E G E T G E f 2 3 * - = 6 y 0 u f u u f u u a u u u y < *           . . o = 5 - w : @ < r r r < # X X O 1 j ",
"@ # @ # @ # @ $ # - 7 M R G y = = = e Z W | W H Z i = & # 1 Z W W | ^ ^ W ] ~ W E ] ^ W ~ W ~ G M Z ! E R Q E R E R E E R E R E T E E E E T T T G E T T G T G h i s - - 1 9 y u u v b u f u f m u u u u y y y 2 o             o + # 5 $ + + 1 t a 7 # X O O 1 d ",
"# @ # # @ # @ $ : 5 h W W M < = $ 7 a g a - + . o & @ @ O + 2 h J W W ~ ^ W ~ ] ~ ~ W ~ W E E Z M E R E E W R ! R E E E E ~ R E E E T E T T T T E T T T W G D f S i - 2 y u u u u b u u v f f u u f u v u u u u y =             5 w w w + O + < 0 r 1 @ O O 1 d ",
"# # @ # # @ @ $ 1 g W ] R 7 = $ @ @ # - * o   . o + + X . o # * w i d G W W ~ ~ ~ W E ^ ^ W G m G E E E Q W E W R E E R E E E E E E E E E T T J T T T T T G Z E z 2 2 y y u f v m N m C C m m m m f u m m u m u u u 6 o         X e s e e < @ + $ w 5 # + # 1 d ",
"@ # @ # + # $ 1 r G ] ] r = $ $ - 1 - #       X # # X . . o o * - p M M Z J W W E ] W ^ ^ E S M R E W R W Q E E Q E Q E E E E E E E E T T T T T T E T W T E E G 3 2 m f b C U T ~ ) ! ^ ^ ! ~ ! _ E T S M m u m b u f 6 o         O w e e 7 < # + O X O O O 5 s ",
"@ # # : # $ 1 e G W ] d 1 $ - 1 5 1 #       o @ + + o + # o * - - - 2 d E W E W ] W ~ ^ ^ E M G E W R Q R R ! R W E E E E E E E T W T E E T T T T G T T E G G h i M G S Q ~ ~ ~ ^ ~ ^ ~ ~ ~ E T E ~ ~ | ] E U S m f u f y .         - o . @ 0 r 1 + # o O O 1 s ",
"# @ @ # $ 1 e Z R G 3 = $ # - 3 w w % o X X # # @ $ * = - - = - - - 2 w a G W W E E ^ E J J D E W ^ Q W E R E E E E E E E E E T E T T W T T E T T E T T T E G i m E ! ~ ~ ~ ~ ~ ^ ~ T S f 9 6 8 y m G ~ ~ _ | ~ E S m v d 2         - 3 r a t a t r - # + # 1 j ",
"@ @ # @ % e l Z y + @ * +   o 3 1 1 1 = # @ @ 2 0 b f v y 9 3 2 - - 2 s s a S W W W ~ R E M G W Q ^ ~ W ~ E E E R E E E E T R T T R T W T E T T T T T T T T h M G E E ~ ~ ~ ~ ~ ! G u 6 6 6 6 6 6 6 6 f E _ _ _ | E S u u u &       * * e a r f a g 5 # O O w j ",
"# # @ $ 5 t g 1 . o @ o   o - - - @ O @ # < 6 f b b b b b b f y 7 2 3 i h S Z S ~ ~ W R G G W W R R W W E W E ! ! R R E ~ R R T E T E T R R R T T R R E T G M E E E W ~ ~ ~ _ ~ S 6 2 6 4 6 6 6 6 6 6 , u T ^ _ ~ | G d h u y o     - . @ 0 f a a a w # O # w s ",
"# @ # @ 1 1 @   o O o   o * * & & = $ $ 1 0 f m b m m b N b b v m y y 7 i h G E W W ~ W Z E E ~ ! W ~ ~ E W E ~ Q R E R T E R R T T T T E T R R T T T E T T T E E E ~ ~ ~ _ ~ S 9 > , 4 4 6 6 9 6 y 9 , 2 u E | | ~ E m m u u y .   =   . < a f f g w # # o 5 j ",
": : # .       . + o . o # = < 7 & & < 5 f b m m N N C C C S C S C m m f a i d G W ~ ! G G E W W R ! W W E ~ E W E Q R E E E T E W E T W E T T T E E R T T T R T T E ~ ^ ~ ~ ~ g < @ > , 4 4 6 9 m d 6 , & 6 M ^ ~ | E m u m v u * . =     o 3 f t a 7 # O # - j ",
"1 7 3 O     . o O     + = 4 < $ < 6 0 b m m C U U Y E ~ ) ) ~ ) E ~ ~ E E M a h J W E T E W W ~ W W E W ~ ~ W W Q E W Q T T R R T E T E R T T E T R R T T T T R R E ~ ~ _ ~ S 6 > ; ; > , < 4 8 E E 6 , , & y E | ] ~ S m u v f y * *       O 7 r r 1 # O O w k ",
"a Z M +   . o o     @ = 2 = < 7 a b m C U T ~ ^ | | _ | | | _ _ ) | ` _ ~ E G M M G G E ~ W E E ~ ~ E ~ W E W ~ E ! E R ! R R R W T R T R E R E E R R W T E R R T E ~ ^ ) ~ N 2 > > > > , , 4 8 Z Z y , 0 0 6 S ~ ] | D m m f f a 2 *         @ 7 s w # # O 3 j ",
"G S $   X o X     o < < < 6 u m C S ! _ _ _ ~ U U T E ) | _ | _ ) | ) | ^ ~ ~ W G S T R W ~ W ! E E ~ R E ! E E E R E Q E R E R R E T R T R T T T T R T E T E E R E ! ) _ ~ m 4 < 4 6 6 6 4 6 9 y y , 9 y u y m | | | U m u f u u y -         . 5 s w # o + w j ",
"R < X o o X   . O = 6 r f m S T ~ | .._ U m u u y y u f L ~ ' ' | ` | ) | ^ ! R E E W W ~ W ~ E E W R E R E R E R E E R R E E Q T R E E T E E R T E E T E E R E R R E ~ ^ E u 6 0 u M b q 8 4 4 9 9 9 9 y u y f E ~ | E m f v v h y - o .     O 5 r 1 # O + w d ",
"r @ + o o . o & y u m m S ~ _ | | | E f u y 9 u 9 9 9 9 6 f ~ _ _ ` | ) _ ~ ! R ! ~ ! W ^ ~ ! ! ! R W R ~ R R E E E E E E R E R E E E T T E E T T T E T E T E E R E ~ ~ ~ T g 0 S o.&.#.L u 9 , 4 v u u y y 9 u E _ ] E M f f v f d 2 o o . . $ r a - # O + w j ",
"= # X . . o 2 u m m S T ~ | X. .X.~ y 6 9 y 9 u 9 u y 9 < 4 y Q ` | _ | _ ) ! R W ~ ^ ^ ! ~ W ~ R R E E R E R E E E E E E E E E E R E E E T T E E E E T T T E E R R ~ ~ ~ T b u | &.%.| Y u , , 4 v v u 9 y y u U _ | ~ S m m u m u 2 & * # * e s e 1 # O # 5 j ",
"* X       & u m S S _ ..X.X.X.X._ 0 6 y y y 9 9 9 u y 9 < 4 4 0 ~ | | _ _ _ ~ ~ ^ ^ ! W ~ ^ ~ W ~ ~ ! ! ~ E ! ~ Q T E R T E E E E E E E T E T E E E E E R E T R E E ~ ~ ) T m u C U Y U V v , , 9 v K V v f u u E _ | ] m v f m v d 2 - - - 6 a r s 1 # O O w j ",
"        & u S S U | X.X.X.X.X.| f 6 6 9 9 y 9 9 u u u y 4 ; , < N ) | ` | _ ^ ^ ~ W ~ ~ ! W ~ ~ ~ R ~ ! E E Q E E R R R T R R T T E T E E E E E T T E T E T R T E R E ~ ) ~ m 0 m v v V K v 9 , v K V L U ~ V m E | ] ~ M v m u m a 2 - 2 3 a a r e - # + @ 1 k ",
"      o y m S E X.+.+.+.X.X.X.~ 4 4 4 9 0 9 9 9 9 u O.G 6 , , , 4 ~ | ) ` | ^ ^ ~ ! W ~ ~ W ! ~ R ~ R Q R ! E E Q E T Q E E R R E T T E T W T T E E E E R E T E T E Q Q ) ~ C y v N v V V V V V V V C ~ =.;...S ~ | | _ S v u m f y - - 2 p a f r e 1 # O # 1 j ",
"      3 m S ~ X.X.X.+.+.X.+.X.m 4 < > > 4 , , 4 y u | L y 6 u y 6 f ~ | | ~ ^ ^ W ^ ~ ! W ~ ! ! ~ ! ~ E ! Q Q ~ ! E T R R R T E T W R T T E E E T E T T T T T R E E E ^ ) ~ U b N V N v V V K V K K V Y %.>.#.T _ _ ] _ m m v u u y - - 7 a f f r e - O + # w g ",
"    @ m S ~  .+.X.X.+. .+.X.| y 4 4 < 4 4 9 9 9 y u u u 0 9 u f u y ~ | | | ~ ! ^ ! ~ W W ~ ! ~ ~ R R E ! ! R ! ! R Q ! Q T Q E R E T R W T T W T T E T E E T E R Q Q ^ ~ ) Q U v V V N V U U U U U U U ~ ) E ~ | | | _ S m v d u 2 - 2 a f s a 7 e 1 # O O w j ",
"  . i C T | +.+.@.X.X.+.X.X._ 6 < 6 8 0 u q u 0 9 9 y 9 0 q u u u u ~ | ) ) ^ ! W ! ~ ~ ! ! ! R R ~ ! ! ~ R ~ ! E ! Q E R Q Q E T E T E T E T T E W T E T E R T R Q E E ~ ) ~ U V V V K Y U U U U Y U Y U U U ) | ] | ~ S u f u f - 3 i f f f a 7 e - # # # w g ",
"  = m U | +.+.+.X.X.X.+.+.X.~ 9 6 9 f G T U N u 9 , 9 v v u u u u u S ` _ ) _ ~ ~ W ! ! ! ~ R ~ ! E ! ~ R ! T ! E ^ Q Q T ! E T T E E E E R T T R R R T E E E R R ! R E ~ ) ) ~ U v L L U Y Y E U ~ U U U V T | _ | | ~ C m f u e - e t g f f a 7 w - + + # w j ",
"o g C ~ X.+.+.+.@.X.+.X.+. .~ 6 y u | =.>.$.Y v 9 4 4 v K v u u u u m _ _ ) _ ~ ~ ^ ^ ! ! R R ! R ~ ~ R R ~ ! ! Q Q W Q ! E Q ! E E Q E R R R E T E T E E T R ~ E R E ! ~ _ ) ^ Y C L U Y E Y ~ ~ ~ E U C U _ | | ^ | ~ m b f u 3 5 t t f g f g e w - + O + e j ",
"2 m T | +.+.+.+.+.X.+.+.X.X.~ 9 y S =.:.=.| Y N 9 9 4 v K K v V v u m _ ' _ _ ! ! ! ! ~ ~ R ~ R ! ! W Q ~ E ~ ~ ! R Q E T Q ! Q E Q Q T R T T R E T T E R T T R R ~ E ! ~ ~ ) | ^ ~ S V U Y ~ ~ ~ ~ U L U ~ _ | _ | ^ E m b b 7 3 0 b g g t g t 5 w % + o # w j ",
"a C Q +.+.+.+. .+.+.+.X.X. .^ y y m U | Y Y P K v 9 9 v K K L Y L N V _ _ _ _ ! ~ W ~ W ! ! ! ~ ! Q Q E E Q T T E ! ! E Q E R E R T T T T R E T E E E R T T E R E R E R ~ ) ) ~ ) ~ ~ U S U E E E U U U _ _ _ _ | _ | E m b y 7 r f t g f g a g 5 5 $ # + # e k ",
"m S ~  .+.+.+.+.+.+.X.+.X.X.| u y v v V K P K K v v v K K Y @.$.| P U ` _ _ ) _ ! W ~ ! ! ~ R ! W Q Q E ! R E Q Q Q E Q E Q E Q E Q Q Q Q Q E Q ~ T R T R T Q T E E E E ~ ^ _ ~ _ _ ^ ^ ~ U U U U U ~ ~ | | | | _ | | S m f 0 e a b f g g b g a w w * # + + e j ",
"m S | #.+.+.+.+.+.X.+.+.+.X.| V u v v K V K K K K K K K Y Y :.,.*.Y ~ _ ) ' _ ~ ~ W ~ ! ! ! ~ R Q Q Q ^ T ! E E E E E E Q T R ! E Q T T Q T E T R T T E E R T T E E E E ~ ~ ~ | ~ ) ) _ _ _ _ _ ~ | ) | | ) ~ | | _ | S m y 0 a a g g f t g t r e w $ # + + p j ",
"v S )  .+.+.+.+.+.X.+.X.+.X.X.~ q v K K N K K K P Y P P Y ) $.-.$.Y _ ` ' ) _ ~ W ^ ! ! ~ E ! E Q W Q T ! T Q Q Q R ! R ! Q Q T E ! Q E Q E T ~ T E E E T R R R E E R R T E ~ ~ ) ) ) _ _ _ _ _ | | | ~ ) | ^ | _ _ ^ S a 7 3 a t g t g g t a s r w $ O + $ s k ",
"S S | X.+.+.+.+.X.+.+.X. .+. .| v v K K K K P Y Y Y / Y Y Y ) | / Y ` | ) ' _ ^ ! ~ ! Q E ! R ~ W Q Q E ! Q T E Q Q T ! R E Q ! Q T R ! E E Q E E T T Q T ~ E E T E E T T T E E E ~ ^ ~ ) _ _ _ | ~ ~ | | ^ | ) _ | T f y y f a g t t f t g f r r 5 # # O * d j ",
"m C ~ +.+.+.X.X.+.+. .+. . .+.' / V L L P Y Y Y Y Y | Y / Y Y Y L ~ ` ' ( ' ( ^ Q W Q Q W Q ! ! ~ R W Q ! Q T Q ! T T T Q T ! T R ! T Q ! Q R ! Q T R Q Q Q E R T E R C M M A A R T T I T _ _ ) _ _ _ | | _ _ ) _ T M r r t g t t t g g a f t t r 1 # + + $ s k ",
"f C E +.+.+.X.+.{ +.+. . .+.{ +.' Q V P P Y / / Y Y Y ) Y | Y K Y _ ' _ ' ( ( Q ^ Q ^ E ! ! Q T ~ R Q E E R T ! Q R Q T Q R T E T Q R E T Q Q T T ! Q R T E R E E T T G C M g n M A A G G A C S U ~ _ ^ _ ^ ! T M M g g a t g t g t t t g t g r p 1 # O + - g k ",
"y m U X.+.+.+. .+.+.+.' +.+.+. . .' U K Y Y Y / ) | ) ) | Y U U ) ' ' ' ' _ ^ W ^ E W Q R ! E ~ T E Q Q Q R Q R Q E T T T T Q Q Q T Q T T T R Q Q Q E T ! T Q R T E T E E T A A A A C A Z T A T G M M M M M g M M M G M f g g g g t g t t g t r e 1 @ @ # 1 k k ",
"i d U | X.X.+.+.+.' +.+.+.' '  . . ._ Y K K Y / ) ) ) ) Y K U ~ ' ) ) _ ( _ ( ! Q ^ Q Q ! ! E T E Q E E ! E Q Q Q R Q ! Q T T T T T Q R ! Q T T R Q E ! T ! T Q ! T E ! E E E W T E E E E Q W W R E T T G T H W R R R A g t t r t g t g g t s r e 1 O # $ w d k ",
"i i h _ X.X.X.+.+.+. .+.X. . .{  . . .` Y K K Y ~ / ~ Y L Q ( _ ' _ ' ) ) ! Q Q E E W W T ! E Q Q R E Q T Q Q E Q E ! Q Q T T T T Q T ! T T T Q T Q ! Q Q Q E E Q ! E T E ! E R E E Q W ! ! W W R W ^ W W W ^ W W ] W W j t g g t s g r t g g w w = # $ $ w j k ",
"Z i i S X.X.X.X. .+.+.{ {  .+.X. . . . .| | ~ Y L L Q Q _ ( ' ' ( ' ( ( Q ! Q ~ ^ Q Q Q Q R ! E T ! E Q Q T E E T Q T T T T Q ! T T T ! T ! R ! ! T R T R Q T ! R Q T R T T R E E E Q W R R Q W W ^ ^ W ] W W W W W W W Z t r t t t r t t r t e 1 $ + - - w j k ",
"| G a d E ..X.X.{ +.+.+.+. .X.'  . . . . . .| | ' ' ) ' ) ' ( _ ` _ Q T R I A E Q Q R ! E ! Q E Q E Q T T T R T T R T T T Q I ! Q R T I B A A R T R R Q R Q ! T Q E ! R ! ! ~ R E E R E ~ W W W W W ] W W ^ ^ W W W W W Z r j t r r g r s t r e 1 $ @ 5 - e d k ",
"....W h s J X.X.+.+.'  .' +.X. . . .`  . . .|  .' ' ' ' _ ) ' _ ( I I R M n B R E Q ! E Q T Q Q Q T R T Q Q T Q Q T Q Q T R R T I A n f g t b t B A T T T Q R ! E Q T ~ R ~ ! ! ! ! Q W W ^ ^ W W W W W ^ W W ] W W W W ] n t t r t r t r t r e - # # 3 1 p k k ",
"o...| | G f G | | X.X. . .X. . . . . . .{ ' ' ' ' ' ' ' ` _ _ L C E T n n C T Q Q Q Q E Q Q E T T T T Q T T Q Q T T Q T T T I A n c g t n t t t t g M T T Q ! R T Q E Q W Q Q ! W Q ! R ! ! R R ^ W R R ] ] R ] ] ! ] H H n t t t s r t r r r r w # = w - s k k ",
"........] W Z G _ |  .X.{ X. . . . .' ' _ ' ' ' ' ' ' _ ( I B ! R C f Z I ! Q Q ^ W Q W T T R T R Q T T ! T T T T Q Q T T A n n g t t g t t t t t t t n Z I T ! Q ! Q E W Q ! ! ! W ! ! R H ] ] W W ] ! R R R H H ] H ] ] Z j s r r s r t r r e 2 # 1 w < s k h ",
"..........] ] H C T _ | X.' { {  . . .' ' ' ' ' ' _ ~ L B H ! I n A T R ! ! ! ! Q ^ W ! E ! Q T Q R Q T Q Q T Q T T T A M n t t t t t t t t t t t t g t t M A I ! T R ! Q Q W ! Q Q ! R ] R R R ^ W ! R ] R ] H ] H ] H ] H t t t r r j r r r e - # 3 e 1 s k k ",
"............] ..A M G ~ _ _ _ { { { ' ' ' _ ( ! T A M T ! ! A I E Q Q ! ! ! Q ! R Q Q Q Q T ! T T T E Q Q I T R T T C f t t t t t t t t t t t t t t t t t n t n A T T W W Q Q W ! W ! R R R H ] W ! ] R R H ] R H ] H ] H H Z r t r r r r r s w = $ e w 1 s k k ",
"............[ [ [ W I A B A T R ~ ~ Q T T T C C C T ! ] ! ! ! ! W ! ( Q ! ! Q ! ! Q Q W ! R Q ! T Q Q I ! T Q I C n b t t t t t t t t t t t t t t t t t t t t t c B A I R R Q Q Q ! ! R ! R ! R H ! ! ! R H ] H ] H ] H H ] B s j t r r r r s e $ % e w 1 d k k ",
"............[ ] [ [ [ W ! I A n n n n n n C R W ^ W ! ! ] ! ! ] Q ! ! ! ! Q ! Q Q Q Q Q Q Q T T T T T ! ! I A M n t a t t t 0 t t t t t t t t t t t t t t t t t g t n M C A T R Q ! ! ! R ] ] R ! H ] ! R ] ] R F ] H ] ] ] F s r r r r r r r 1 # 1 p w w j k k ",
"..........] [ o.[ [ [ _ [ ] ! R Q R ! W ^ ^ ^ ] ( ^ ( ] ! [ ! ! ^ Q ! Q Q Q ! ! Q Q Q W Q Q T ! ! Q I I I C n f t t t t t t t t t t t t t f f b n n n t t t t t t t t n t n M B A I T T R I R ] ] H H ] H ] H ] I ] H H ] H Z t t t r r r a i 1 $ 3 p 1 w j d k ",
"o.] ........[ [ [ [ [ [ [ ] ] ] ^ [ ^ ] ] ^ ] W ] W ] ! ! ! ! ! ! ! ! ! ! Q Q Q Q ^ Q Q T T Q T R T R A n t t t t t t t t t t t t t t r a n B A A T A n c g t g g c t t g t f b g g n n Z B A I I ! I ] ! R R H ] H ] ] H ] ] j j r j t a a e = $ e p 1 i k z k ",
"o.....o.o.[ [ [ [ [ ] ] } ] I ] ] ] ] ] Q ] I ] Q ] ] ] ] ] Q ] I } Q Q ] / Q / Q Q Q ] I ] Q Q ! I A c t t t t t t t t t t t t t t g n B I T T T T T C n f f g t t g g t c n t n c g n n n n C T W R R ] H R R ] A ] H ] H ] s r j r t j r w % - r p 1 e k k j ",
"[ [ ....[ [ [ [ [ [ ] ] ] ] ] ] ] ] Q ] ] ] ] ] ] ] I Q I I ] I Q I ] ] I I ] I Q Q I I ] Q I l B n t j t c t t t t t t t n t t t n B A I Q T T T I T T T C C B n t n t t g t g g f g n M C A T R W ! W R ] H ] ] A F ] H ] ] Z r r t r t r w # 1 s e $ s j j Z ",
"[ o.[ } [ [ [ [ ^ [ ] ] ] ! ] ] Q ] I ] ] I I ] Q ] I ] ] Q ] ] ] Q Q I ] I } I Q ] ] I B B n n t t t t j t j t t n t t t t c n B A T I I Q T Q I M C T T T T I I A B M M n g n n M A I T R W ^ W ! ! ! H ] ] H ] ] Z ] I ] Z Z j t r t r r w $ 1 s w 1 s k j F ",
"[ [ [ [ [ [ [ ] ] ] ] ] ] ] ] ] ] ] ] ] ] ] ] ] ] Q ] ] I ] I ] I ] ] Q Q ] I ] I B B B n n c t n t t t c t t t t t t n n n B I T T Q T T T T ! T C G Q Q R E Q R ! R T I I I A I I T ! Q ! ! W ^ W W R ! ! H ] F ] ] ] ] ] ] Z t t r j t r 1 $ 7 s w 1 s j j l ",
"[ [ [ [ [ [ ] [ ] ] ] ] ] ] ] ] I Q ] ] ] I } I I I ] ] ] I ] I ] I ] Q ] I I B B n n c t n t n t t n t t c t t t t n B B I ] Q T T Q T T T T I T I I T T Q T ! Q ! T T R ! Q W Q Q E Q W Q ^ W ! R R ] ! ] ! H ] H ] ] ] H ] H s j r j r r 5 : e s 1 5 j k l j ",
"o.[ [ [ [ ] ] ] ] [ ] ] ] ] I } } ] ] I I ] ] ] ] ] ] I A ] I ] I ] ] I I n n n n c t n n t c t c t t t j t c n B A B ] Q I I Q T T Q I T T Q U Q T Q T T T T T T T Q R ! E E Q ^ Q ^ Q Q W Q W ] ] ! ! H ! ! ] H ] I ] R ] R H j t t t s r 1 % s e 1 w d k l s ",
"....[ ] [ ] ] ] ] ! ] ! ] I ] ] ] ] ] ] ] ] I ] ] I I ] I } I } ] I I B n n n t c t n t c n c c c t n c c n B I I I I Q Q Q I ( I T T T U T T T T T Q T T T Q T R Q T Q T Q Q Q E Q ^ W ^ ! ! ^ H ! ! R ] R ! ! I ] ] I ] H H ] c t s r s e : 1 s e - e d k l 3 ",
"..] [ ] ] [ ] ] ] } ] } ] ] ] Q ] ] I ] I ] } I ] ] } I ] I ] I I ] Q B n n n n n n n n n n n n B B B H I I ] Q Q Q Q I I Q ! I Q T T T Q T T T T T Q I T T Q T T E Q T Q R E Q W Q E Q Q ^ ! ^ ! ! ] ! R ! H ] ] H ] ] ! ] ] R n s t j s e : e j e - p k k l 2 ",
"[ [ ] ] } ] ] } } } } } ] I } ] I } I ] ] I } ] ] I ] I ] I I ] ] I I Q ] Q I ] I Q I Q Q I I ( R H Q I Q I Q I I Q I Q I / Q I T T U T Q T I T T T T T U T Q T Q T T T Q Q ! T ~ R R ~ ! ! W ^ ! ! ! ] R ] R ] R ] H R W W W ] n t g r a 7 - e k w - s j n j % ",
"[ ] [ ] ] ] ] [ } } ] ] ] } I ] ] ] ] ] I ] ] I ] I I } ] ] ] I I ] ] I I Q ] I Q Q ! ! ( I ! I Q I Q Q I Q Q Q Q I / I I I I / Y T Q T T T ! T I Q T T Q T T Q T Q ! T R E E Q T ~ ! R ! ! ! ^ ] ! ! ! ] ! R ! ] R W ] ] W W ! Z g r s a 7 1 p s 1 1 s k k e - ",
"[ ] [ [ } ] ] ] ] ] I ] ] ] l ] I I ] } I ] ] I l ] ] I I I ] ] ] I ] ] ! Q Q I Q Q Q Q I I ( ! Q Q I P P Q I Q ( Q I I ( ( Q I Y I T T I Q ! Q Q Q T T T Q T T T T Q T Q E ! T E Q ! ! ! ~ W ~ ! ! ] ! ] ! ! ] ! ] W W W W H ] Z g t g a 0 5 s p 1 5 s l l w $ ",
"o.] ] ] ] ] ] ] ] ] } ] ] ] ] ] ] ] ] I ] } I ] ] } I ] I } I I I ] I Q Q Q Q Q Q Q Q Q ( ! Q I Q Q Q I Q Q I Q I I ( / I I I Q I ! Q I Q T I ! T T T Q Q Q I T Q R T R T Q T ! Q R R ~ ! R ~ ~ ! ! H ] ! ! ] ! ] W W ] W ] W R M a g g a 7 5 s e - w g j s w # ",
"o.] } ] ] ] ] ] ] ] ] ] ] ] ] ] ] ] ] ] ] I ] I ] I ] I ! ! I ] ] } } I ! ! I } ( Q I Q Q Q Q I Q Q Q Q I I Q I / I I I I Q I Q Q Q Q Q Y Q I I Q I T T T T T ! Q T Q E T E R Q R T E Q E ! ~ ! ! ! ^ ^ ^ ^ ] ! R ] ! ] ! ] R ] A g g r r e e j w - e g k s - # ",
"] ] ] ] ] ] ] ] ] ] ] ] ] ] I ] ] } I I I ] ] } I ] I } ! I ] I I I I ! I ! I I I ! } I Q Q Q Q I I Q I Q Q I Q I I / I I I / I Q I Q Q T T Q Q Q T T T T Q T T T T E Q Q Q Q T Q ~ R Q ! ! ~ W ! Q ^ W ! ] ^ W ^ W ] ! ] W R ] n g g g r 5 r s 5 = a k M w $ # ",
"[ [ ] ] ] ] ] ] I } ] ] ] I ] ] I ] ] ] I ] l ] ] A I ] I } I ] ] B ! ! Q Q Q ! I ( ! I Q I Q Q Q Q Q Q Q Q Q Q I / I Q / I I / Q Q I Q Q T I T T Q T Q Q T Q T T ! T Q R Q E ! Q E ! ! ! ! ! W ! ^ ^ ^ W ^ ^ ! ^ ! ] ] ! W ] ] k g g r r 3 a s 1 - a k j w # + ",
"..} [ [ ] ] ] ] ] ] ] ] ] } } I ] ] I ] } ] I ] } I ] } I I ] I I ] I ! Q I } I ! ( I ( I / Q I Q Q Q Q I Q P Q I / I I I / Q I I Q P I U Q Q Q Q I T T Q T Q Q Q T ! R ! E E E ~ ! E ! R ^ ~ ~ Q ^ ^ Q ^ Q ^ ] ^ ] W ^ ] W ! W n g g t r w s p 1 1 g j j 1 # O ",
"....] ] ] ] ] ! [ ] Q ] ] ] ] I ] ] ] ] I ] I ] I I ] I I ] I ] ] I } I I Q ] Q Q Q I ! ! Q Q I I I ( I ( I Q I Q Q Q I Q I / Q Q I Q I Q I Q Q Q Q I Q Q Q Q Q Q ] ! Q ! I ! ! ~ R ~ ! ! ! ^ ! ^ ^ ~ ~ ~ ~ ~ W ~ ] ^ ^ ^ ] W W n g g g r 5 s e - 7 g k s % # + ",
"..] ..] ] ] ] ] ] ] ] ] ] ] ] ] I ] I ] I } ] I } ] I ] ] I ] I I ] Q Q ] Q Q Q Q Q Q Q I ! Q Q ( I I ( Q ! Q Q Q I Q Q I Q Q I Q Q I Q Q Q Q Q I Q Q Q Q Q Q Q Q I Q I ! ! ! ! ! ! ! ! W ~ ~ ! ~ W W ] W ] ~ ] ~ ^ ] ] ^ ^ ^ W j g g f r e g w % w g k w $ @ + ",
"o.[ ] [ [ ] ] ] ] ] ] ] } ] ] ] ] ] ! ] ] ] ] ] I ] ] I Q ] ] I I Q } I I Q ] Q I Q Q Q I Q Q Q Q Q I Q Q ( I ! I Q I / I Q I Q I Q I I Q P I Q Q Q Q ! I Q Q I Q I Q ] Q ! ! Q ! ! ! ! ~ ^ ! ^ ~ W W ~ ] ~ ] ~ ] ~ _ ^ ^ ] ^ R n g b t e r s 1 - e k j 1 $ @ # ",
"[ [ ..[ [ [ ] ] ] ] ! ] ] ] I ] ] Q ] ! ] I I } ] I ] ] Q ] I ] } ] Q Q } Q I Q Q Q Q Q / Q I Q I Q / Q I I ( I ( Q Q I Q Q ! Q Q Q Q Q I Q Q Q Q Q Q I / Q Q Q Q ] / Q Q ! Q ! Q ! ! ~ ~ W ~ W ^ ^ ~ ] W ~ ~ ] ~ ] ^ ^ ^ ^ W G k n g t e d s 1 1 r k s : @ @ O ",
"[ [ [ [ [ [ ] ] ] ] [ ! I ] ] ] ] ! ] ] I ] ! ! ] I I ] Q } ] Q Q Q I Q Q Q Q Q ( I Q ! Q ( I ( ! Q Q Q I / Q Q I I I / I I ! ! Q Q Q I / I Q Q Y Q Q ! I Q Q ! Q ! ! Q ! ! ! ! ! ! ! ! ! ! ^ ^ ^ ^ ^ W ~ ] W ~ ] ~ ] ~ W ^ ^ M n n t t e g p $ 5 s j r : $ @ # ",
"[ o.[ [ [ [ [ [ [ ] ] ! ] ] ] I ! ! ! ! ] Q ] ] I } ] Q Q I I ] ] Q } I Q Q Q Q ! Q Q I I I ! I I Q Q I I I Q ! I ( Q Q I ( I ( Q Q Q Q Q Q Q Q ! I Q Q ! Q Q ! Q Q Q Q ! ! ! Q ! ! ! ~ ! ^ ^ ^ ~ ^ ] ^ ~ ] ~ ] ~ ] ] ] ..^ W M Z g g r 5 j e = w j j w % # # # ",
"[ [ [ [ [ [ [ [ ( ] ] } ! ] ] ] } ! ! ] ] Q ! ( ] ] Q ] } ] Q Q Q ] Q ] ] Q Q I Q Q ! Q I I Q Q ! Q ( I ( I ( I ( Q Q Q ( I ! I Q Q Q Q Q Q Q Q ! Q I ! ! Q Q Q ! Y Q ! ! ! / ! Q ^ ~ ~ ! ^ Q ^ W ~ ^ _ W ~ ~ W ] W ~ ] ^ ^ G M g n g r w s w % w k j 1 : $ # # ",
"..[ ..[ [ [ [ [ ] [ [ ! } } Q ] ! ] ] ! ! } ! ] ] Q ] Q Q Q Q ] ] I Q Q I / Q ] Q ! ( I ( ( I Q I ( I ! I ( I ( I ! Q I I ( I ( Q Q Q Q Q I ] I Q ! ! Q Q Y Q Q ! ! ! T / Q ! ! Q ^ ^ ~ ^ ! ^ ( ^ ~ ] ~ ] W | | ~ W | ~ W ^ G M n g t w e s 1 % r k r : # @ # O ",
"| ..[ [ [ [ [ [ [ [ [ [ ! [ ! [ ( ] ] ! [ ! ] ! ] Q Q } Q ] Q ] ! Q ! ( Q Q Q ! Q ! Q I ( ! Q I I ! Q Q Q Q I I I Q I Q I Q Q I I Q Q Q Q ! Q Q Q Q Q Q Q Q Q Q ! Q Q Q ! ! ! ! ! ~ ! ( ^ ( ^ ! ^ ^ ^ ^ ~ ^ ] ^ ] _ ~ ~ ] W M g n n t w r s % : r j e : $ # @ # ",
"....X._ [ [ [ [ [ [ [ [ [ [ [ [ [ ! ! [ ] ( ( ! Q ] Q Q ] Q ] Q ! Q ! Q I ! Q Q ( I Q Q I ! Q Q Q ! Q I Q Q Q / ! Q ! Q Q Q Q Q Q Q Q Q ! I Q Q ! Q Q Q ( Q ! Q Q Q ! / Q Q Q ! ! ! ~ ! ! ^ ^ ! ^ ^ ^ ^ ^ ^ ^ _ ^ ^ ] ] ~ E M g n c r 1 s e % w s j w % $ # @ + ",
"..........[ [ [ [ [ [ ! [ ] ( ] ! [ [ ^ ] ] ! ] ] ] } I Q Q Q Q Q ! ! Q ( ! ! ! Q ! ! Q / I Q Q Q P Q Q I Q I I Q Q Q P Q Q Q Q I Q Q Q Q Q Q Q Q Q Q ] Q Q T T I Q Y ! T I T Q ! ^ ! ! ^ ^ ^ ( _ ^ _ _ ^ ^ ^ _ | ^ ] ] W G h g n g w 1 s w % w k s 5 $ @ # + # ",
"..| ..[ .._ [ [ [ [ ] [ ! [ [ ] [ [ ! [ ! ( ] ! ] Q Q ] Q ] Q Q ! ( Q Q ! ! ( I Q I Q Q I Q Q I Q I Q I Q Q Q Q Q I Q Q Q I Q Q ! ! ! I Q Q Q Q Q Q I I T T ( ( ` ` ( ( ) ! L n I Q ^ ( ( ! ^ ^ ^ ^ ~ ^ ^ ^ _ ] ^ ^ ] ^ W D h M j t : 1 s w : e k s - # @ # O # ",
"] ......X.| [ [ _ [ [ [ [ [ ^ [ [ ^ [ ^ [ ! ! ] Q ! ! ! ] Q Q } Q Q ! Q ! ! Q Q ( I Q Q ( I ! I Q Q I Q P Q Q Q P I Q Q I Q Q Q Q Q I I Q I I Q I Q ! ( ( _ _ _ _ ` ' ` ( _ Q b n T Q ! ^ ! ^ ! ^ _ ^ _ _ _ ^ [ _ ] ^ ] I Z h n n e : 5 s - - e l e : # @ # @ # ",
"D [ { [ _ | [ _ [ [ [ _ ( } [ ^ ^ _ _ ^ ( ] ( ^ } Q ! Q / Q Q Q ! Q ! Q ! ( Q Q I ( I Q I ( I ( Q Q Q Q Q Q I I I Q Q P I P Q P Q P Q Q / ` / / ( ( ` ( ( ( ( ' ( ( ( ( ~ Q L m n C ! ! ^ ( ^ ( ^ ^ ^ ^ ^ ^ ^ ^ ^ ^ ^ ] Z Z g n g 1 % w r % w e j 5 : : # # @ O ",
"a W ..[ | ..| { { _ [ _ _ [ ( ] [ ^ ( _ [ ( ( ( / ! ( ( } I ! ! ( Q Q Q Q I ! ( ! I Q Q ! I ( I Q I Q I I P P ( P / ( / / / / / ( / ( / / / Q ` ` ( ( ( ( ( ( ) ` ( ! Q U Q / ~ C n A Q ^ ! ( ^ ^ _ _ ^ ^ ^ ^ _ ^ ] ^ W A Z g n r $ $ e r % w s s 1 # # # @ @ # ",
"1 M ^ ..[ | ..[ _ ..{ _ [ _ [ _ ^ _ [ ^ [ ( [ ( ! [ ( ! ( ! ( Q ! ! Q ! Q ! ! I ! ( Q Q Q Q Q ! Q Q P Q Q ` / ( ( / / / / / / ` ( / ( / / } / ` ( ` ( ` ( ' ` ( ( ( / ( ` ' ( _ C b C R ^ ^ ^ ^ ^ ^ ^ ^ _ ] ^ _ ^ ^ ] G n n n g 1 $ : e w $ w j r : : # @ @ O # ",
"< 3 G ] ..| _ [ _ .._ [ ' | _ _ | _ _ [ _ _ _ _ _ ^ ^ ^ ! ! ( ! ! Q Q Q Q ( Q Q T Y ! I T T Q Q I Q Y ( / Q ( / / P / / / / / / / ( _ / / ( ( ( ` ( ' _ ) ) ' ( ` _ ` _ ' ) ' ( L n n T ^ ^ ^ ^ ^ ( _ ^ [ ^ _ ^ ] ^ Q Z Z g n r $ $ < e w $ w k r % $ $ @ + # # ",
"< 3 r E [ ..| | | | .._ _ _ .._ _ _ _ _ _ ^ _ ^ ~ _ ( _ ( ^ ! ! ! Q ! Q ! ! Q ! Q Q Q ( U Q Q P T Q / / / / / / / / / / / / ` / / / ( / ) / ( / ( ( ( ) _ ) ` ( ' ` _ _ ( ` ( ` I n B Q ^ ^ _ ^ ^ ^ ^ ^ ^ _ ] _ ^ ^ G n Z g g 1 $ $ - a 1 % e k e $ $ $ + @ # O ",
"- 1 1 g W ..[ _ _ | | [ .._ | | _ _ _ [ _ _ ^ _ _ _ ( ^ _ ~ ( ! ! ~ Q Q Q Q Q T Q Q Q I I Q T I / ( ( / / Q Y / / / / / / / / / / ~ ( ` ( ~ ( ` ` ( ) ) ( _ _ ' ( ' ( ` ' ) _ _ I n I W ( [ ^ ] ^ ^ _ ^ ( ^ ^ ^ W W Z Z g g r = # $ $ s 1 - e j w $ # # @ @ # + ",
"$ % 1 7 D ^ _ ....| _ [ _ .._ _ _ _ _ _ _ _ _ _ _ ^ ^ ( ^ ( ( ! / ! ( Q Q Q Q ! I Q ! B I T V C P P U Y P P / Y Q / / / / P / / / / ( / ( ( ( ` / ( / / ! ( ( ( ( ( ' _ ( ' _ ( T T Q ^ ^ ^ _ ^ _ [ ] _ ] ] _ ] ] T B n M s < $ $ $ - r $ 1 s s 1 $ # # # # @ @ ",
"% % 1 1 0 G _ [ | _ ....[ _ | ..[ _ ^ [ _ _ ^ _ _ _ ( _ ( ^ ( ! / ! ~ ~ Q Q Q Q ! ! I B I A m L Q P P / / / / / / / / / / / / / / ( ( Q Q Q T Q Q Q Q Q ! Q Q Q ( ! / ! ( ! ( ^ ! _ ! ^ ] ^ ( _ _ ] _ [ _ ^ [ ^ W B B n g e $ $ $ $ - s % 1 s s : : # # # @ # # ",
"% $ % : 1 s R ] .._ | ^ _ | _ _ | _ _ _ _ _ _ _ ! ! _ ! ^ ( _ ! ! ! ! Q Q Q Q Q I Q A n I c V / / / ` / ` / / / / ` / / / / / } Q Q Q T Q Q U I A I T T ^ Q ^ Q ! ! ! ! ! ! ! ~ _ ! ! _ _ ^ ] ^ ^ _ ^ ^ ^ [ ] ^ I M n Z s 5 $ % # $ - r $ w s p : # : : : # # @ ",
"- $ $ : 1 1 s E ..| .._ | _ _ | _ ^ _ _ _ _ _ _ _ _ ~ _ ( ~ _ ~ ! ( Q Q Q ( Q Q ! I B c n B K / / / / ` / / / / / / / / / P P I P Q Q T T A B M M B M C I Q ! ( ( ! ( ~ ^ ^ ^ ^ ^ ^ _ ^ ^ _ [ ^ [ _ ] _ ^ _ ] E A n M k 7 $ $ $ $ $ 1 p % 5 s p : : : # : # @ @ ",
": $ $ $ : 1 5 g ! _ [ [ _ ..| _ _ | _ [ _ ^ _ ^ ~ / _ _ ! _ ( ! ( ^ ( ( ! Q / Q ! Y B c t c B ` / / / / ` ` / ` / / / / Q I Q I Q Q Q I B M B B I T I I ! ^ ! ! ^ ^ ^ ^ ^ ^ ( ^ _ ^ ( ^ _ ^ ^ _ [ ^ _ ^ [ [ ^ A M n n g w $ $ $ % $ 1 r % 1 j i % % # : # # : # ",
"% $ $ $ 1 $ 1 5 n ! [ _ [ | _ .._ _ _ _ _ _ _ ^ _ _ _ ! _ ~ _ ! _ ! ~ Q ( ! ! Q Q T B c t c c ( / / ` / / / / Q / P I Q Q Q Q Q Q Q Y I ! Y I ! Q ! ( ! ^ ^ ! ^ ^ ! ^ ( ^ ! ( ^ ] ^ ^ ^ _ ^ _ ^ ^ ] _ ^ ^ [ R B M n g r 1 # % $ $ $ w s $ w j e $ # $ $ $ $ $ $ ",
"- % $ % $ $ $ 1 5 M ^ [ _ | | _ | [ _ _ _ [ ( _ _ ! _ ! ~ / ~ / ~ / ( Q Q ! / ~ Q ! I n n c c Q / / ` / / Q Q / P Q Q Q ! I Q Q Q Q ! Q ! ! ! ( ! ! ^ Q ^ ( ^ ^ ^ ( ! ^ ^ ^ ] ( ( ^ ( ] _ ^ ^ ] _ _ ^ [ [ ^ A n n g e w 1 $ $ $ $ # 1 s % 5 j w $ % $ $ @ # $ % ",
"% $ - $ - $ $ = 1 7 M ~ [ _ _ _ _ _ _ _ _ ^ _ _ _ _ ^ ( ( _ _ ! ) ! ! / / ! / ~ Q Q Q I A n c Y / / Q / / P P Q Q Q Q I Q Q Q Q I ! ! Q Q ! ! ! Q ^ ^ ( ! ( ^ ( ^ ^ ^ ^ ^ ^ ^ ^ ^ ^ ] ^ ^ ( ] _ ^ _ _ ] [ I Z n c e 1 w - $ $ $ $ % w r - 5 s w $ $ $ $ $ $ $ $ ",
"% 1 $ $ $ = % = = < 3 h ^ _ ..[ ^ .._ _ _ _ ^ _ ^ ( _ ^ ~ ! ~ ) ! ( ! ~ ! / ! ! / Q / Q T T Y c I P I L Q ! ! Q I Q Q / ( I Q Q ! ! Q ! Q ! ! ! ^ ! ! Q ^ ^ ! ^ ^ ( ^ _ ( ^ _ ^ ^ ( ^ _ [ ^ ^ _ [ ] _ ^ W B M n r : w w 1 $ $ % $ % w s - 5 g w $ $ # $ % $ % $ ",
"% - $ $ $ $ $ % $ $ : 5 g ! ^ [ | | ^ _ _ _ _ _ _ ~ ~ ( ( ! _ ! ( ! ! ~ ( ~ Q Q Q ! Q Q Q Q Q / Y ! Q Q Q Q ! Q / Q I Q Q Q Q Q I ! ! Q ! ! ! ! Q ( ^ ^ ^ ( ^ ^ ^ _ ( ^ ^ ^ ] ^ ( ] ^ ^ [ ^ [ ^ _ ^ ^ ] A n n s 1 : w 1 # % $ $ $ % 3 d - 1 s w - $ $ $ $ : % $ ",
"% $ $ $ $ $ $ $ $ $ $ 1 1 a R ] _ _ _ _ _ ^ ~ _ ^ _ _ ( ~ _ ! ( ! ( / ! Q ! ( Q Q / ~ / Q Q Q Q Q Q Q Q Q I P Q Q Q Q Q Q Q Q Q / Y Q Q Q / ! Q ^ Q ! ! ^ ! ^ ( ^ ^ ^ ^ ^ _ ( ^ ^ ^ ^ _ ^ ( ^ _ ] _ ^ T Z n r 5 % % w 1 $ $ $ $ $ $ 3 d 1 w s w $ $ $ : $ $ $ $ ",
"$ - $ $ $ $ $ # $ $ $ $ = < e G ^ ^ _ _ _ _ ~ _ _ _ _ ! ~ _ ) ~ ( ^ Q ~ ! / ! / Q Q Q ~ Q Q / ! Q Y / Q Q I / / I Q Q Q Q Q Q Q ! I Q ! Q ! ! / ! ^ ^ ! ! ( ^ ^ ^ ^ ] ^ _ ^ ^ ] ^ _ ^ _ _ [ ] ^ _ ] E M n r 5 $ % % e w % $ $ $ $ $ e h 5 1 s e $ $ $ $ $ # $ % ",
"$ % $ % % $ $ $ $ $ $ $ = < 1 7 D ^ _ ] _ _ _ _ _ ~ _ ! ( _ ! ~ ! ( Q ~ / ! ! Q / / Q Q Q Q Y Q Q Q Q Q Q Q Q Q / Q Q Q / Q I Q ! ( Q ! Q Q ! ! ! ( ! ! ^ ^ ^ ( Q ^ ( ^ ^ ^ ( ^ ^ _ ] ^ _ ^ _ _ ^ ^ A n g 5 % $ $ $ e 1 $ $ $ $ $ - 7 h w 1 s e $ $ $ $ $ 1 $ $ ",
"$ $ % $ $ $ $ $ $ $ $ % $ % : : 3 g Q ~ ] ] ( ( ( ( _ ^ ( ! _ ~ ( ! ! / ! ~ Q ( Q Q Q Q Q Q Q ! ! Y ! ! / Q / Q / Q Q Q Q Q Q Q ! Q / ! ! ! Q Q ( ^ ( ^ ^ ! ( ^ ^ ! ( _ ^ ^ ] ^ ^ ^ _ ] _ [ ^ ^ ^ A n t 5 $ $ $ $ $ e 1 $ $ = @ $ = w k e 1 e e $ $ % $ % % $ $ ",
"$ % - $ $ $ $ $ $ = $ $ $ % : % 1 7 M T I ] ] ( ( ] ^ ( ! _ ! / ! ( ( ! ! / Q Q Q ( / Q ! Y / Y Y / Q Y Q Q Q Q Q Q Q Q Q ( Q Q ! Q Y ! ! Q Q Q ! ! Q ^ ! ^ ^ ^ ^ ( ^ ^ ( ^ ( ^ ^ _ ( ^ ^ ] [ ^ T M a 1 $ $ $ $ $ $ e 1 # @ @ @ # $ 5 k s - e e $ * # $ $ $ $ % ",
"% - % = $ $ $ # $ $ = $ $ % : % % 5 n n I ] ] ] ^ ( ^ ! ! _ _ ~ ^ ! ! Q ~ ~ ~ / ! Q ! Q Y ! Q Q ! ! ! ! Q Q ! Y Q Q Q Q Q ! Q ( Q Q ! ! ^ ( Q Q ( ! ( ( ! ( ! ( ^ ^ ^ ^ ^ ^ ^ ^ ] ( ] ^ ( ] ^ R n r < @ # @ O + # # 3 = O . O O o O w Z d - 3 i # # # $ = $ $ $ ",
"$ % % $ 1 $ $ $ $ $ $ % $ $ $ $ $ 5 g n n n B ] ^ ( ( ] ( ~ / ~ ( Q ( ( ! / Q Q / Q / Q Q / Q Q ! Y Y / Q Q Q Q Q Q Q ! Y / Q Q / ! / ! ! Q ( ~ ! ! ^ ! ( ^ ^ ^ ^ ^ ( ^ ^ _ ( ] ^ ^ ^ _ ^ ^ R C g : . .   . . .   . < +     . o O @ 5 l j 1 3 w # + # % $ $ $ % ",
"$ $ % - % $ $ $ : $ $ % % $ $ $ % 1 j c B n B A A ! ( ^ ~ ( ! ~ Q ( Q Q Q Q Q / ~ Q ! Q / Q / Q ! ! Y ! Q / Y Q / / P ! Q / Q / Q Q ( Q ( ! _ ~ ( ( ( Q ^ ! ( ^ ^ _ ! ( ( ^ ^ ^ ^ ( [ ^ ^ ! B r 1 @ O . .   .       < O   .   . . O 1 k h 3 1 w - # # $ % = $ = ",
"- $ $ $ = % $ = - $ $ $ : # $ $ % 5 n n B B n n B A I ! ^ _ ~ _ ( ! ! ( ( ! Q / / Q Q Q Q Q Q Q / Y Q ! Q Q Q / Q Q Q Q Q Q Q Q ! / Q Q / ! ! ~ ^ ! ^ ! ! ^ ^ ^ ( ^ _ ! ] ^ ( ^ ^ ^ ^ ( ! A b 5 < < & O o . .   . . 2 @ .     . X o < Z l e 1 3 1 # $ $ $ $ % $ ",
"% % % $ % $ $ $ $ % % $ : % : : % 1 c n n n n n n n n C I Q ! ~ / ! ! / Q Q Q Q ~ ~ Q Q Y Q Q Q Q Q Q / Q / Q Q Q Q Q Q Q / Q ( Q Q ( Q ~ ! ! ! ! ( ^ ^ ^ ^ ! ( ! ( ^ ^ ^ ^ ^ [ ^ ^ ] W A c t q 0 9 6 > & @ & o o o w = @ + * & @ & 3 k z i 1 3 1 $ $ $ $ $ $ = ",
"= : % $ $ $ $ 1 $ $ $ = : # % : % 1 n n n B n n n n n n n B A Q ! ! / ! / ( ! ! Q Q Q / ! / Y Q Q Q ! Y Q Q Q Y / Q / Q Q Q Q Q ! / Q ( ! / / ( ! ^ ( ^ ( ^ ^ ( _ ^ ( ( ! ^ ^ ( _ ^ ^ I b t q q q q q 9 6 > & & & + i 3 = = * = = = < k z d 1 3 1 $ $ $ $ $ 1 $ ",
"% % $ $ $ $ % $ : % : : % % : # % 5 l n n n l B n n n n n n n n n I Q } Q Q ! ! Q / Q Q Y Q Y Q / Q / Q Q Q / Q Q Q Y Q Q / ( Q Q Q / ! ~ _ ! ( ( ( ( ^ ( ! _ _ _ _ ! ~ ^ _ ( ^ ! ( K x x x x x q q q q q 8 4 , < $ 7 3 & * - * = - - d D k w 1 - # @ $ $ $ = $ ",
"% = % % 1 $ : : : : % % : # : : % t n n n B n n Z c n n n n c n n n n B Q Q ! ( Q Q Q / ! / Q Q Q Y Y Q Q Q Q Q Q Q / Q Q Q Q Q ( ~ ~ ( ~ ~ / ! ! ^ ^ ( ^ _ _ ! ! _ _ ( ^ ^ ^ ^ ! P x x , x x , q q x q q q x x b 0 a 7 = & & = = = 1 g D j w 1 1 = # $ $ $ $ $ ",
": % % : 1 : - : : : : : : : 8 q x x n n n B n n n n n c n c n n n n n n c B A I Q Q ( ! ! Q T Q Q / Q Q Q Q Q Y Y / Q Q Q / Q Q Q Q ~ Q ~ / _ ~ ( ~ ( ^ ^ _ ( ~ ~ _ _ ( ( ^ ( ^ Q c x , x x x x q q q q c c x N / Q m i < = & * * = 1 d z k e 1 1 - @ $ % $ : % ",
"1 $ 1 $ $ $ $ : : 5 8 8 t x x x x q n n n n n n n n n j n n n n c j c n n c n n n L I I ! Y / Q Q Q Q Q Q Q Q / Q Q Q / Q Q Q / Q ( ~ ~ ( ! ~ / ( ^ ^ _ ( ^ ( _ _ _ ^ _ ^ ^ ] R c c x x x x x x q x x q c c c Y ) ) Q m y < & & * * = a D D s - - - * = $ = $ = ",
"4 4 < < 5 8 8 t q x q q q x x q x q n n n n n n n n n n n n n t n n n c n c c j c n n n A T Q Q / Q ! ! / Q Q Q / Q Q Q ( Q / Q ! ! / ~ ~ / ! ! _ ( ! _ _ _ ^ ( _ _ ^ ! ] ( P x c c x q 8 x x 8 q q x x c c P ( ) ) ` S M u 6 & = = < 7 F F s 1 = = $ $ $ = = $ ",
"c x x x x c x x x q x q x q x q x q n n B l n n n n n n n n n n c j t n n c j c c c c n g n B B I T Q ! Q Q ( Y Q Q Q Q Q Q Q Q / ! ~ ! _ ! _ ~ ! ! _ ^ ^ ( ^ [ [ ( ( [ ( Q c x c c q q x x x x q q x x c K / ` ` ` ) T U S m y < & = 7 Z Z s 3 = $ = $ % $ $ - ",
"c c x c x c x x x x q x x q x x x c n n n n n n n n n n n n n c n n j n n c j c n t n j t n n n c n H I Y ! Q Q Q Q Q Q Q Q Q ~ ~ ( / ! ! ( ! ( _ ~ ( _ ! _ _ _ ( ^ ! ] ! c x x x 8 q q 8 x x 8 q x c x c / ` ` ` ) ` T ~ U M V u 2 < 2 Z D k w $ = = $ $ $ $ : ",
"c t x c x x x x x x x q x x q x x n n n n n n n n n n n n t n n n c c n c j c n t n c c n t c c n c c c n A Y Q Q Q / Q ~ / ( ~ ~ ! ~ / ( ! ~ _ ! ( ^ _ ( _ ^ _ [ ( ( ] A c x x x x 8 q x x x q q q c c P ` ` ` ` ) ) E Y ) U V m f 7 3 h D Z e = $ = = $ $ - $ "
};
