/* XPM */
static char *out[] = {
/* columns rows colors chars-per-pixel */
"128 128 256 2 ",
"   c #030205",
".  c #04020D",
"X  c #09050D",
"o  c #040312",
"O  c #0B0314",
"+  c #090817",
"@  c #0C061B",
"#  c #0C0A1E",
"$  c #120717",
"%  c #140B1B",
"&  c #1B0D1C",
"*  c #1A111E",
"=  c #210E1D",
"-  c #23121D",
";  c #0E0C22",
":  c #0B0925",
">  c #120E23",
",  c #160E27",
"<  c #0E112B",
"1  c #131226",
"2  c #1C1323",
"3  c #1C1A26",
"4  c #15142A",
"5  c #1A162B",
"6  c #16192D",
"7  c #1B1A2D",
"8  c #151335",
"9  c #191435",
"0  c #161B31",
"q  c #1C1B32",
"w  c #15153A",
"e  c #1A163A",
"r  c #16193D",
"t  c #1B1A3C",
"y  c #210E21",
"u  c #231424",
"i  c #2A1525",
"p  c #281728",
"a  c #241B2C",
"s  c #2C1B2B",
"d  c #321B25",
"f  c #321D2C",
"g  c #221D33",
"h  c #2B1D33",
"j  c #221B3B",
"k  c #341E31",
"l  c #1F2032",
"z  c #35202E",
"x  c #38232D",
"c  c #242234",
"v  c #2C2334",
"b  c #2A2937",
"n  c #25233C",
"m  c #2A253B",
"M  c #2C2A3C",
"N  c #342333",
"B  c #3A2434",
"V  c #34253B",
"C  c #3B2738",
"Z  c #342A3C",
"A  c #3C2B3B",
"S  c #392D3B",
"D  c #40272F",
"F  c #422B36",
"G  c #422C3C",
"H  c #46323E",
"J  c #171940",
"K  c #1C1D42",
"L  c #221E42",
"P  c #1E2145",
"I  c #242245",
"U  c #2B2544",
"Y  c #2D2944",
"T  c #23244B",
"R  c #2C2648",
"E  c #26294C",
"W  c #2C2A4C",
"Q  c #332644",
"!  c #332B44",
"~  c #3B2C44",
"^  c #342C4A",
"/  c #3B2D49",
"(  c #2D3149",
")  c #343244",
"_  c #3D3145",
"`  c #36314A",
"'  c #3B334C",
"]  c #3C3A4D",
"[  c #292B55",
"{  c #2B2D54",
"}  c #322E54",
"|  c #2D3255",
" . c #2E325B",
".. c #343254",
"X. c #3C3552",
"o. c #33345B",
"O. c #393958",
"+. c #3C3B5C",
"@. c #2F3460",
"#. c #353A64",
"$. c #3B3D63",
"%. c #422E44",
"&. c #442E4B",
"*. c #492E4C",
"=. c #443344",
"-. c #4A3444",
";. c #44334C",
":. c #4A344D",
">. c #483948",
",. c #4C3A4B",
"<. c #533C45",
"1. c #523C4C",
"2. c #482F51",
"3. c #4B3451",
"4. c #433A55",
"5. c #4C3B53",
"6. c #523D53",
"7. c #563B54",
"8. c #433D63",
"9. c #3F445D",
"0. c #3D4167",
"q. c #3F4871",
"w. c #58434D",
"e. c #49445A",
"r. c #554253",
"t. c #524551",
"y. c #5A4454",
"u. c #584759",
"i. c #5D4A5B",
"p. c #624B55",
"a. c #624C5C",
"s. c #685057",
"d. c #665258",
"f. c #65515D",
"g. c #6A545D",
"h. c #434364",
"j. c #4A4866",
"k. c #43456B",
"l. c #4C4B6D",
"z. c #554C66",
"x. c #4D526D",
"c. c #5A546B",
"v. c #464A73",
"b. c #4C4D72",
"n. c #514E72",
"m. c #4D5174",
"M. c #4E5279",
"N. c #535374",
"B. c #5B5775",
"V. c #53557B",
"C. c #555A7D",
"Z. c #5B5B7C",
"A. c #634E62",
"S. c #634E68",
"D. c #655262",
"F. c #6B5563",
"G. c #6D5965",
"H. c #68576B",
"J. c #6D5A6B",
"K. c #725A65",
"L. c #745965",
"P. c #735D6B",
"I. c #635B73",
"U. c #695C74",
"Y. c #625D7B",
"T. c #735D72",
"R. c #735F79",
"E. c #5D617E",
"W. c #6D606C",
"Q. c #76606D",
"!. c #79626D",
"~. c #7E696F",
"^. c #686379",
"/. c #6C647C",
"(. c #756273",
"). c #7B6573",
"_. c #7E6974",
"`. c #72647C",
"'. c #7C6679",
"]. c #73697D",
"[. c #7D6A7B",
"{. c #816A76",
"}. c #81667B",
"|. c #826C7B",
" X c #85717E",
".X c #565C82",
"XX c #5A5D82",
"oX c #595C88",
"OX c #635E82",
"+X c #5D6284",
"@X c #5E6489",
"#X c #5E6390",
"$X c #626484",
"%X c #6B6683",
"&X c #6D6984",
"*X c #62658A",
"=X c #696789",
"-X c #646B8C",
";X c #6C6B8C",
":X c #746B83",
">X c #776A85",
",X c #7B6D83",
"<X c #726D8C",
"1X c #6C718E",
"2X c #767287",
"3X c #7C7286",
"4X c #75728C",
"5X c #7C748B",
"6X c #7E798D",
"7X c #676E92",
"8X c #6A6E91",
"9X c #726E91",
"0X c #6C7294",
"qX c #6E749A",
"wX c #747393",
"eX c #7A7593",
"rX c #7D7993",
"tX c #72769A",
"yX c #747B9C",
"uX c #797A98",
"iX c #757BA2",
"pX c #797DA3",
"aX c #846D82",
"sX c #827385",
"dX c #8A7586",
"fX c #81768C",
"gX c #847B8D",
"hX c #8B7C8D",
"jX c #917E8F",
"kX c #817790",
"lX c #847C92",
"zX c #8A7E93",
"xX c #837E9A",
"cX c #917E92",
"vX c #7C819E",
"bX c #7C83A3",
"nX c #7B85A5",
"mX c #89808E",
"MX c #90808F",
"NX c #868195",
"BX c #8B8194",
"VX c #86829B",
"CX c #8B849A",
"ZX c #8C889D",
"AX c #918394",
"SX c #94869A",
"DX c #92899D",
"FX c #8B86A2",
"GX c #8488A7",
"HX c #8E8AA3",
"JX c #938BA3",
"KX c #958DA8",
"LX c #8690AD",
"PX c #9791A8",
"IX c #A19BAB",
"UX c #A7AAC6",
/* pixels */
"7 7 5 q q 9 q j q 8 6 6 6 l 7 7 l q 7 7 5 5 g g g g g h g g g h g 5 5 q q q q q 9 q q q 0 0 6 6 < 0 0 0 6 0 0 6 6 6 7 6 7 7 3 6 l 6 6 6 l E.nXLXnXnX@X0..XnXnXvX#.v.q.q.v.oXtX#X8.#XiXiX#Xk.M.pXpXpXpXiXiXtXtXpXnXLXbXyX0X0X0X0X0X0X0X1X;XwXyXyX-XV.*X*X*XoXM.8.",
"7 7 7 q 9 q t q q 8 6 6 l 6 7 7 7 7 7 g g v V m V Q ~ ' ~ ~ ~ Q Z m h m j g 5 9 5 9 6 q 6 0 0 0 6 0 0 q 0 0 0 0 6 6 6 6 7 7 7 6 6 6 6 6 ( ^.nXnXnXnX.X0.E.nXnX+X#.q.v.8.n.OXxX#Xk.v.iXiXqXk.v.pXpXpXiXiXtXtXqXpXnXnXpXtXyXtX0XyX0X0X0X1X0X0XtXiXtXv.b.v.M.b..X.X",
"7 7 7 7 8 q q 8 0 n m Q n c c 7 5 7 h Q _ ' ;.&./ ' ;./ _ ;.;.;.' ;.~ ~ Q Q m m n n c q 9 4 4 6 0 0 0 q q 0 6 6 6 6 4 6 0 6 6 7 6 6 0 6 ( 1XnXLXnXnX@X9.+XnXnX@X8.q.8.v.OX9XkX9Xv.@.#XpXiXk.8.tXpXpXpXpXxXtXtXiXnXnXnX0X0X0X0X0X0X0X0X1X8X0X0XyXtX$.#.{  .[ [ [ ",
"7 7 q 9 q q 8 q Y O.4.8.j.e.e.) ! ~ ! _ ;.;.;.3.3.3.;.;.;.:.:.;.;.;.;.' &.' / / / / ! Q h j g g q q 5 4 6 7 6 7 4 6 4 6 6 6 6 6 4 6 0 6 ] vXnXLXnXnXC.0.E.nXnX.X#.v.k.8.OXkX#XkXM.@.v.iXiXk.8.#XpXpXpXpXiXtXtXtXnXnXnXvXyX0X0X0X1X0X0X0X8X8X8XqXtXk.#.o.o.[ [  .",
"5 q 9 0 q t n ( h.c.B.B.I.z.5.3.5.5.7.7.z.A.S.J.T.T.T.S.6.%.%.%.*.:.;.&.&.&./ / / / ~ / ' ~ Q m j g 5 5 5 5 5 5 6 2 6 6 6 4 6 6 6 6 6 0 0.vXnXLXnXyXv.$.C.LXnXM.#.q.k.v.#XKX9XtXoX@.#.#XiXv.8.oXpXpXpXpXiXtXiXtXnXnXnXqX0X7X0X0X0X0X0X0X7X-X8X0XiXoX8.v.n.k.8.o.",
"5 7 7 q 0 t ( j.Y.%X%XH.3.4.5.z.H.U.R.R.aXaX|.T.S.7.*.*.-.7.a.A.A.7.7.,.:.:.&.&.&.;.&.;./ ' &.~ Q m h 5 5 5 5 5 6 5 4 6 6 6 6 6 6 6 6 0 j.vXnXLXnXiXv.$.C.nXbXm.@.q.k.v.=XxXkXtXoX@.#.v.#XM.#.M.pXpXiXpXtXpXiXtXqXnXnX0X0XvX0X7X1X0XqX1X-X-X8X7XqX#X8.OX#X#XoXoX",
"5 5 5 q 0 I e.B./.U.j.2.2.5.S.`.,XaXaX>XaXR.y.*.*.*.7.L.}.}.R.aXaXaX'.R.'.`.H.S.A.5.3.;.~ ~ Q Q &.%.~ ! g g g 5 4 4 3 6 1 1 1 6 4 4 4 < x.vXvXnXnXqXv.@.V.GXbXM.#.v.8.8.aXxXKXiXqX#.@.@.oXoX#.#.iXpXxXpX9XpXtXtX7XnXnXvXvX7X7X0X1X0X7X1X1X-X0X-XqX#X$..X#X7XOX#X",
"5 g q c l ] c.c.z.4.;.3.c.R.,XaXaXdXaX>X7.*.*.1.y.L.}.}.}.|.}.}.}.}.aX'.H.A.y.3.:.7.:.;.%.%.%.3.5.5.3.&.~ h a 5 5 3 1 6 1 6 4 4 1 4 < 6 x.vXvXnXnXiXk.o.N.pXpXM.8.v.8.v.kXKXKXpXqXv.@.@.v.M.#.8.qXpXpXpXtXpXtXtXvX0XvXnX-XvXvX0X0X1X1X7X1X7X1X-X7X9X#..X=X7XOX=X",
"q 7 a q c 4.z.5.' ;.u.U.sX3X|.aXaX'.A.,.%.1.A.P.}.aX|.|.|.|.|.}. X}.).H.7.7.:.%.~ :.A &.5.;.3.3.3.5.5.;.' ~ m g 4 5 5 1 6 1 4 4 1 6 < < x.vXnXnXnXqXq.o.v.yXpXb.#.v.8..X>XcXKXxX9XoX#.@.@.8.#.o.#XpXtXtXyXyXyXwXyXyXvXvX0X0X0X0X1X7X1X1X;X8X=X7X7XtX$.b.#X*X#X=X",
"5 6 2 5 h ~ =._ r.H.(.,X[.sXsXsXH.1.G >.a.T.|.aX}.aXaX X|.|. X|.(.'.).a.,.i.T.A.7.,.3.&.u.3.u.*.~ Q A 4.~ _ ~ Z g 5 5 5 4 1 1 1 1 1 1 6 x.vXnXnXnXqXq. .0.wXiXM.#.q.8.8.9XKXKXxXtX7X8.o.@.} o. ..XiXtXtXyXtXtXqX0XyXvXyX1XvX0X7X1X7X-X;X7X8X*X8X7XtX$.v.OX*X*XOX",
"1 6 7 h Z %.,.D.W.).[.[.[.[.(.i.=.>.i.(.}.|.sX|.}.|.|.}.{.}.|.}.P.P.A.,.7.(.[.'.P.H.J.5.7.6.6.8.=.;._ ;.~ Z Z ! ! g 5 5 1 1 1 1 1 1 < < x.1XvXnXnXqXq.@.o.9XtXv.8.8.8.n.aXKXIXKXpXtXv.o.@.[  . .v.tXtXtXtXtXtX0X0XqXyXqX0X0X0X0X7X7X0X-X-X-X7X*X#XqX8.8.oXOX#XOX",
"4 7 Z ' r.A.T.).[. X[.[.3XQ.r.-.r.F.).}.sXaX|.|.}.}.}.}.{.{.{.L.).P.,.1.J.aX[.].T.H.T.J.z.z.6.7.;.=.4.~ ' Z ~ ~ Y Z g 5 4 1 1 1 1 1 3 + x.1XvXnXqXqX0.@.o.;XtXv.#.8.8.S.>XcXKXKXxXpXM.#.[ #. . .$.qXiXtXtXwXtX0XqXqXyXvX0X0X0X7X1X7X-X-X-X;X8X*X=XqXv.#.oX*X*X*X",
"s ~ 6.T.[.[.|.{.|.|.}.|.(.w.,.D.[.|.). X X|.|.|.).|. X}.}.T.p.P.'.A.-.A.sX}.}.).'.T.'.T.7.J.7.A.A.;.7.5.&.V ~ ~ ~ Z ~ m 5 > , , 6 6 1 + j.1XnXnXqXiXq.#. .oX9X8.} 8.8.8.5XKXPXKXKX;X#Xo.o.@.}  .[ #XiXtXtXqXqXqXqX0X0X0X0X0X7X1X7X1X-X-X-X-X-X-X*X*Xv.{ b.-X7XoX",
"~ i.[.}._.!.{. X{.|. XD.1.y.).'.}.|.[.|.|.}.}.|.|.|.).}.}.p.a.}.|.y.y.'.aX'.).[.T.).'.).A.P.y.A.T.a.7.7.=.:.A G Z ~ V m h u , , 1 1 6 < 9.-XnXvXiXiXq.#. .oXiXv.@.8.8.B.5XKXPXPXKXpX=X8.o.o.} }  .oXiXqXqXqXtXtX0X0X0X0X0X0X0X7X7X-X-X1X-X;X*X-X7XOXv.{ 8..XoXoX",
"F.}.}.}.(.{.|.|.{._.D.y.F.'.|.|.|.}.aX_.(.).).|.sX{.).}.g.7.T.}.T.7.P.aX}.).T.}.).'.).).F.T.A.a.T.R.A.A.y.:.:.) Z ~ V Z V h , , 1 1 6 + ..E.iXiXiXiXv.@.@.v.qXq.@.8.8.z.9XKXKXKXKXGX<Xn.} @.[  .} b.tXqXqXtX0X0X0X0X0X0X0X7X7X7X1X-X-X-X-X*X*X7X7X#XM.T  .$.b.V.",
"aXaX'.G.).dX X{.).G.y.P.'.}.aX}.}.}.'.G.G.[.|.|.}.{.|.G.-.f.}.}.A.i.'.'.).'.'.).T.}.).).P.T.T.y.S.R.T.a.H.:.5.,.A ~ V ! U v g a + 1 6 < E V.qXqXiXiXv.@.@.v.#X8.2.8.8.8.kXKXKXPXKXKXxXXX@.} }  . .$.7XqXqX0X8X0X0X0X0X0X0X1X7X1X-X1X-X-X=X*X*X*X*X*XV.[ T T T [ ",
"aX).!.{.dX X_.{.).a.Q.[.(.}.}.).[.'.D.f.Q.|.|.}._._.).p.1.(.}.}.D.P.T.).).}.}.).)._.(.).}.!.P.7.S.T.T.a.F.A.=.z.;.C Z V ~ V V g 3 1 > > n x.1XvXvX7Xq.@.@.0.oXv.[ $.8.S.xXKXKXKXKXKXLX9X8.} @.} | @..X@X-XnX-X@X.XvX.XvXvX+X.XnX-X-X-X-X-X$X+X-X-X@XV.[ T T T T ",
"}.!.}.jX X{._.!.G.P._.|.dXaX'.'.|.F.y.P.|.|.|.}.[.|.F.1.A.).|.}.P.).).|.aX).[.}._.Q.(.(.T.T.T.y.A.T.J.S.H.T.y.6.u.V V ~ ~ ' V h 3 * # 1 l j.@XvXvXqX.X@.@. ..Xv.} #.8.8.kXcXKXKXKXIXKXtX8.} } } |  .q.vXnX@XnXvXnX+XnX+X.XnX-X-X1X-X-X@X-X-X-X+X*X@XV.{ T K T T ",
"P.). X X{.{.Q.Q.!.{.}.|.|.}.}.'.P.1.a.}._.[.).}.|.).r.1.).)._.{.).{.|.|.}.).).'.{.).).).P.).T.S.a.L.T.H.A.H.F.y.i.5.N V _ _ ~ v b 2 % 1 6 9.C.vXvXnX+Xo.[  .q.q.o.2.8.8.kXKXKXKXIXcXIXcX#X2.@.[ @.| q.nX+XvXnX+X+XnX-XnX-XnX.X-X-X-X-X-X+X-X@X@X*X+XC.{ T T T T ",
"{.|.{. X{.!.!.!._.|.|._.).}.|.).6.6.Q.}.|.}._.{.}.G.-.y.).[.)._.{.{. X{.{.).).).).!.(.!.).T.).F.7.H.T.P.A.F.H.i.i.u.%.V ~ =._ V b c 1 # 1 ( q.-XqXnX@X#.[  .q.q.o.} 8.8.kXKXKXKXKXKXcXKXxX8.} } E [ @..XnX@X@XvXvX+X@XvX-X.XnX-X-X-X-X-X-X-X@X@X*X@X.X{ T T T T ",
" X{.{.{._.Q.!.)._. X|._.T.|.).a.G D.|.).}.[.).[.!.7.-.K.). X).!.{.).{. X{.).!.).).!.).Q.Q.Q.).G.7.L.R.L.A.A.G.a.r.D.r.A k ;.~ ~ V N 5 @ # b 0.-XyX0X-X0.@.@.#.8.o.#.8.z.kXcXKXKXKXKXKXIXKX%X} } [ [ [ .X-XnX@X@X+X+XvX.X-XnX.X-X-X-X-X-X-X+X@X-X#XOXoX} T T T T ",
"{.{.{.{.!.!.!._.|.|.}.{.'.}.F.%.1.(.}.)._.).}.(.F.C r._.}.|.Q.Q.).!.{.{.).(.!.).).!.!.!.P.Q.T.J.7.F.T.T.F.a.J.A.5.H.H.:.f ~ ~ =.~ v s , # 6 9.E.yX7X@Xv.@.[ @.@.} 2.8.8.kXxXKXKXSXIXSXcXcXxXV.{ @.| @.q..XvX-XnX-XnXnX-X-X-X-X-X-X1X-X+X-X+X-X-X#XOXoX@.K T T T ",
"~.!.~.~.!._.)._. X{.{.|.|.P.7.F A.}.).}.).).'.P.w.F F.{.|.).G.Q.{.~.{.{.!.!.P.).!.!.!.Q.P.(.P.L.*.A.J.T.H.A.G.A.1.a.H.y.C V ~ =.;.N v 2 # < ( x.wX7XoXv.@.[ T [ } 2.8.8.9XKXKXJXKXSXKXKXxXxXpX8.E | | q.nX@X@XvX-X+X.XvXvX.XvX-X-X-XE.x.E.E.@X-XOX#XoX8.J T T K ",
"~.~.!.~._._._._._.}._.{.).7.G :.P.).).}.}._.).D.%.w.P.!. XQ.g.!.{. X X{.).P.P.!.!.!.!.P.Q.P.P.P.<.S.L.T.G.a.D.F.1.r.z.A.5.B >.~ 5.Z g a 1 # l 9.-XqXM.b. . .[ [ [ @.2.8.kXKXKXcXKXKXcXKXKXKXKXtX#.P | | .X.XnX.XvXvX-X.X-X@X.X-X-X-XE.9.C.E.+X@XOX#X#X#.J T T P ",
"~.~.Q.!._.~.{._.)._.!.{.G.1.F a.P.P.}.{.}.(.}.y.F F.(.|.|.g.a.Q.{. X{.!.!.).!.!.!.!.Q.!.T.P.L.T.*.p.J.T.F.a.S.F.t.-.i.D.A.A =.~ =.;.v h 5 @ : O.Z.yXV.v.@.@.[ [ } } } 8.<XJXJXJXDXSXJXSXKXHXJXGX-X| { E m.1X0X1XvX@X-X+X@X@X@X-X-X@X@X0.k.+X@X+X*X*XXX$.L T K L ",
"~.!.G._.{.~._.~.{.).).!.p.=.H L.{.{.!.{.).).).1.%.J.).sX_.y.a.!.{. X{.!.).!.(.!.!.!.Q.!.).P.P.T.*.p.J.P.L.a.F.F.y.%.i.A.A.>.G ;.C ;.V h 3 @ > R N.tXV.v.#.@.[ T  .[ } 8.<XKXDXDXJXSXDXSXDXHXHXHXnXC.( I 0.$XqX7X-X-X-XvX.XvX+X.X-X+X@Xl.o..X*X+XOX#XZ.0.T L T L ",
"_.K.G._.!.{._.~.!.{.).G.-.F 1.P.{.{.{.L.{.{.g.G y.T.[.|.F.-.G.!.{. X).).!.).P.P.Q.Q.P.}.T.P.P.J.G 7.L.P.F.p.F.A.p.B r.A.a.r.A 7.C %.V a g > > 8 8.7XXXk.#.@.[ T T { } 8.%XcXJXKXJXDXDXJXDXJXHXFXLXZXx.( ..+X1X-X-X@X-X-XvXvX.XvX@X-X@XC.| v.@X+X*X*XoXk.[ K L T ",
"!.G.Q.~.{.~._._.).{.!.i.B F a.T.{.{.{.P.).!.<.F A.).}.).,.H P.!. X|.!.(.(.!.!.!.!.K.!.!.P.P.P.J.G 1.L.T.F.a.F.A.A.B 1.A.a.i.%.r.~ ~ ~ s a 2 , < W OX*X$.#. .[ [ L T } 2.OXxXFXKXDXJXDXDXCXJXFXFXvXLXvXc...B.*X0XvX-X@X@X.X+X.X@X+X-X@X@X{ o.+X+XoXXXXXb.T T K K ",
"G.G._.Q._.!.{.!.!.!.P.<.k H g.}.{.{.{.L.).F.F H J.'.|.D.F 1.Q._. X_.!.!.Q.Q.Q.Q.K.Q.!.Q.P.P.J.F.F -.L.T.F.a.a.A.D.B >.a.i.A.=.6.;.V ~ h a g , : q l.$X$.o.[ [ T J T [ } B.xXxXKXJXDXDXJXCXHXHXJXxXFXHXuXh.j.*X1X1X7X-X-X-X-X@X-X+X-X+X-X| { m..X.X.X+XM.T K K L ",
"p.P.!.!.!.{.~.~.{.!.g.G F :.L.{.L.L.P.L.}.p.B 7.T.[.).1.B a.!. X|.!.!.Q.Q.P.Q.Q.Q.K.~.Q.P.P.L.A.k %.J.).J.A.y.F.D.H G a.a.D.1.:.5.N ~ V a h 2 : < W XXl.{ [ [ T 8 T R } n.kXKXKXJXHXFXJXCXDXFXFXFXFXFXFX;XB.+X@X0X0X-X-X-X+X-X-X-X+X@X+X0.P 0.+XC..X+XM.[ K K K ",
"a.Q.~.)._.~.~.!.!.!.7.F F y.L.T.L.{.{.L.P.1.B i.(.}.G.%.G K.!. X{.!.P.!.Q.Q.Q.P.Q.P._.G.G.L.L.A.k %.F.}.L.a.7.F.D.-.A u.A.i.6.-.7.V %.k a h a % > t l.N.o.{ E E 8 K [ R 8.xXKXxXFXJXHXVXlX5X<X:X>X5XlXrXxX$XE.-X-X1X-X-X-X-X@X@X@X-X-X+Xk.P | C..X.X.XM.[ P K L ",
"F.Q.!.!._.!.!.!.}.!.G F F a.P.{.P.P.{.P.G.G B F.).[.y.B ,.P._. X).(.P.P.(.P.Q.Q.P.K._.d.F.L.F.7.k F a.T.F.a.7.g.F.1.B r.a.y.y.%.6.Z ~ N p a g > : , ..N...E E T J J [ L 2.OXxXKXHX5X:X/.&X2XzXlXlXkXCXHXFX&X+X-X-X-X-X-X-XE.-X+X-X$X@X@Xv.E P v.+XC..X.X[ K T K ",
"P.Q.!._.{.!.!.K.~.g.F B H g.(.).{.P.{.{.p.D -.L.T.T.%.k i.P.{.|.!.Q.P.Q.P.Q.P.Q.K.).!.g.G.P.D.1.F k 7.J.F.a.1.a.D.y.B 1.a.y.i.%.7.~ V V a u v 1 + < n x.9.E E P I r O.W Q l.HXFX5X^.4X6XBXCXZXCXFXDXlXkXxXeXV.8X-X+X-X-X-X@X+X-X+X-X+X+Xx.| J #.C.+X.XC.| P r P ",
"Q.Q._._.~.!.!.!.Q.d.A x w.F.!.).L.{.L.{.7.k w.{.T.p.k G F.P.{.{.Q.K.P.P.Q.K.P.Q.Q._.g.p.J.P.a.-.1.k 1.P.L.A.-.a.a.y.B ,.a.y.i.A 3.%.k A v u v 2 + # 6 ( E r 0 0 n ; U O.O.z.:XeXeXVXHXZXCXCXZXCXCXCXSXSXxXxXZ.$X-X-X-X-X+X-X-X-X+X+X+X+XC.| r | M.+X+X.X@.P r P ",
"Q.Q.).!.!.!.K.!.g.w.x x y.P.!.).P.{.P.P.H B s.T.F.G B -.P.!.{.!.Q.Q.Q.P.K.Q.Q.K.!._.w.y.P.P.y.y.A.k -.P.P.A.-.y.i.p.B %.i.y.i.G ,.:.p ~ s u N a @ # < + ; ; < < < # q /.rXkX2XlXlXJXVXCXHXJXZXBXzXzXzXzXCXFX+XXX-X+X-X-X@XvXC.+X@X+X+X@XC.#.P P q.E.+X.X#.P P r ",
"Q.Q._.K.!.~.!.Q.K.H x B D.P.!.P.L.P.}.g.D F A.P.7.k B y.P.{.{.L.!.!.Q.P.Q.K.Q.Q.!.g.-.g.G.G.y.P.'.G G A.F.A.-.7.i.i.G A i.y.i.%.:.:.a A s a V v % 1 < ; # ; ; # + # @ j.CXFXJXPXHXKXHXCXCXNX].c.5.5.`.zXVXxXwXV.+X-X-X+X+X+X+X+X+X@X+X@X+X#.P P #.C.C.E.0.P P r ",
"Q.Q.!.L.!.Q.L.Q.D.D z G G.P.P.!.P.).{.p.k -.L.A.=.k F g.(.{.{.L.Q.Q.L.g.L.L.Q.L.Q.w.-.G.G.A.i.sXsX,.B y.G.f.H 1.p.a.G B i.y.i.=.%.>.s Z k h N V 2 # @ # + : + # o : # q 4XZXHXNXCXZXCXDXDX3Xe._ c.6XNX5X5XeXwXm.+X-X-X-X+X-X-X+X-X+X+X+X+Xq.E r [ .XV..X0.I t j ",
"K.!.!.!.{.g.{.Q.p.B N -.P.P.P.P.P.}.P.-.k 1.P.1.F f H L.{.{.L.{.!.K.{.p.L.!.K.Q.g.C r.G.T.u.(.hXdX1.f 1.G.f.H H y.A.-.k y.p.p.>.G -.f B B A h ~ 2 @ @ # : # # : : : # # I.VXHXZXCXCXBXZXDXW._ ^.6X^.4.M Y n Y ( x.x.E.-X-XE.-X+X+X+X.X.X+Xq.E r L 8.OXOXx.t j U ",
"K.Q.K.Q.L.K.{.Q.1.G f ,.P.Q.!.P.T.P.L.k f y.L.F D i w.L.{.{.L.P.K.Q.g.w.s.L.L.Q.-.C f.H.J.A.fXzXhXa.N %.F.f.<.G y.a.-.d 5.y.p.,.H ,.f N B A f ~ 5 $ : # : + # # # @ @ @ e.VXJXCXZXBXZXSXPX^.e.,Xe.b c 1 < : < q 9.vXE.C.E.-X+X+X+X+X+X+X+XC.P P K 8..XV.n.L L / ",
"Q.Q.K.Q.K.g.L.g.G B N t.Q.K.P.!.T.P.a.f F p.s.f f x g.}.{.{.L.L.L.K.<.g.L.L.!.s.B w.H.D.i.sXzXdXzXP.C F a.a.r.B 7.p.>.i -.6.i.1.H -.f k B %.s ~ p @ : % # # # # # : @ @ M 6XJXCXDXAXNXBXDXsX].c.2 7 c 7 l n q 8 9.+XE.vX+XE.+X+X+X+X.X+XC..XE P K  .V..Xb.L L / ",
"L.Q.Q.L.g.L.P.p.B x B u.Q.K.P.Q.}.P.<.B F y.-.k x y.K.!.!.!.P.!.!.p.H K.K.Q.Q.<.H i.J.i.(.mXzXgXhX).>.N r.a.y.x -.a.1.s G 1.w.r.S ,.d s C =.p =.h @ > # # # # # # : # # 5 /.ZXNXDXDXBXCXlXNX3X4.v c c M ) ] ( ( ] C.-X@X+X-XE.E.+X+X+X+X.X.X| P J T v..Xn.L L &.",
"!.!.!.L.s.g.}.p.z f B i.).Q.P.Q.!.F.C k F 1.D f H K.!.P.P.K.K.!.g.H y.Q.g.Q.g.H w.F.G.J.BXmXzXzXgXaXr.f -.a.y.x G i.1.s G 1.1.t.A >.d s A =.a =.h @ % : # @ # # @ @ @ # ; z.CXZXCXJXCXBXNXSX:X>.>.] c.I.^.^.B.x.O.x.$X+XE.-XE.+X+X+X.X+X+X.X0.J J K k.XXb.L L ^ ",
"!.L.{.L.s.F.!.<.f f C D.!.Q.Q.K.P.a.F f k G k f w.P.(.P.P.P.P.g.H H g.Q.K.g.g.>.w.Q.f.3XSXgXhXcXgXsXa.N =.i.i.z G p.6.d B 1.1.r.S -.s s B =.p &.h @ > : # + # : @ % : : # e.NXCXCXCXCXBXBXDXgXc.W.I.hXIXDXCXVXuXZ.x.+X$X+X+X+X+X+X.X.X+X+XC.m.P r r o.V.N.I L Q ",
"L.{.L.L.p.P.F.G x d %.G.Q.G.Q.P.L.7.k f k B k H F.P.P.P.P.K.F.H D w.G.G.g.Q.>.<.D.H.(.mXzXzXzXBXgXfX(.Z B r.y.x B 1.r.d s 1.,.r.B >.i s k :.p ~ N @ @ @ : # # # # @ @ # + ] 6XBXZXCXCXZXBXBX3X].3XW.W.gXvXZXNXvXuXC.E.+X+X+X+X.X+X.X+X@X.X.XM.P r r E m.XXI j Q ",
"!.!.K.s.p.!.s.D z f >.J.G.Q.!.Q.L.G f f f f d 7.P.!.G.G.K.G.-.C G P.).P.Q.F.C i.D.J.hXcXhXzXzXhXfXhX].,.z 1.i.B k 1.7.k i <.-.r.Z -.u f f >.u ~ m @ @ % # # # + # : @ # @ Y 5XNXVXNXCXNXCXBXgXhXmXW.t.] c.mXVXvXvXC.E.+X+X+X+XE.+XC.+X+X+X.XM.P J K I k.V.L j Q ",
"!.L.!.w.d.P.y.f z z u.D.G.!.Q.!.p.x f k i i -.f.F.!.P.P.a.-.A x a.D.F.D.!.-.i.g.G.|.jXzXzXgXzXkXfXgXaXA.p G i.G d :.w.x i %.-.1.B G i k k :.u %.h @ @ : # : # # # @ # : @ U 5XZXNXNXVXCXCXNXhXSXgX].d.t.d.vXNXbXbX-XC.+X@X^.E.C..XE..X+XC.+XV.| P K J $.n.U j U ",
"L.L.K.H f.L.<.d f B i.f.G.Q.Q.G.7.f f f d B a.g.P.D.a.r.B -.A r.i.D.G.'.t.y.D.D.[.gX,XgXzXkXhXlXzXhX3XJ.N V y.H i G 7.B i F H 1.N G i s B -.y ~ v @ # # # # # # @ # : + # ! 6XCXVXlXNXCXNXBXBXBXsX X~.W.I.6XmXVXvXyXx.+XE.+XC.x.C.+X+X.X.X+X.X+.P r J | b.L t M ",
"{.{.L.H d.g.D z d -.u.f.Q.Q.G.F.G f f f D 7.a.p.f.w.H d H C H 1.i.i.P.u.S w.i.Q.[.(.sXhXzXhX>X5XgXgXfX(.=.p ,.-.i B 1.F u B A 1.x S s i C %.u ~ c + # # : # # : @ @ @ + @ ] NXZXCXVXCXCXCXgXBXzXgXmX_.(.W.vXvXNXVXvX0.N.E.+XC.x.C.+X.X.X.XC.+X0.P r J R k.U g U ",
"L.L.g.F s.s.z z i 7.1.g.L.L.g.y.f f i k *.}.s.p.7.f f 7.<.-.r.r.u.z.H z ,.r.W.sX).W.fXgXlXgX^.].3XsXfX[.r.p =.>.i f 1.A - z B 1.z A s - S H u S V @ # # ; # # # # @ # @ @ e.CXCXCXCXCXCXJXfXzXzXgXhXsX3X].6XxXVXVX4Xe.m.E.E.C.q.C.@X+X.X+XC..Xq.P 0 J P q.E q U ",
"K.K.s.<.L.<.z i D y.<.L.L.L.}.<.f d i *.7.y.*.f f k 1.-.G y.f.H.W.-.A >.D.3XhX3X].].CXgXNX3XW.].^.(./.W.i.v Z =.p - -.A u d B 1.z N - i H C u ) s + ; ; # * + # + + % @ 5 /.lXCXAXCXlXCXzXxXCXCXCXBX6X:XU.U.U.H.U.Y.^.c.E.E.C.@.q.@X#X.X.XC.+Xq.P r J J | ( e U ",
"K.L.w.<.F.-.f f F -.w.{.g.L.s.D d d f f k k f B %.1.G %.1.y.D.,.H s ~ H.[.mXhXmXSXzXBXgXhXzXsX3XsX`.D.u.u.v s Z u - A A i i f ,.B x - d >.N u A v + # # # # + # o @ @ + ' 3XzXCXCXJXCXxXCXcXSXxXCXlXkXNX3X/.U.U.`.fX2Xc.E.B.C.#.q..X.X.XC.C.C.q.E r r J R L e U ",
"s.L.H w.A.G d B G F s.L.L.}.y.d f f d f f i i B %.k k B =.6.;.s 2 =.'.sXMXhXgXhXmXNXgXNXgXgXNXmXzXsX3X[.(.t.a s N u f G i y f >.C z = s >.N 2 ) a @ # # # # # + # > @ % /.NXAXzXCXzXCXBXxXzXxXzXzXCXNXfX6XNXzXfXfX5X].c.E.E.C.O.@..X.X.X+XC.C.x.E r r 0 e e j U ",
"L.g.G a.i.B f k F H g.L.g.g.<.z i k k i B *.*.H B k -.r.7.C s A D.sXzXBXBXMXmXmXmXNXmXgXmX6XsXgX3XsXdXgX3XW.a u A k p Z s y i %.F s & x >.z * S l # # + ; 1 + ; # @ + 4.lXBXNXzXzXzXzXxXCXzXCXlXkXzXCXzXkXlXgXfX,X>X>XI.B.E.C.#.[ q..X.X.X.XC.m.} e J 8 e 9 e L ",
"L.p.F p.6.B s f B <.F.g.L.d.x d i f C 7.S.*.D *.f.J.7.C p C u._.zXSXcXAXBXAXAXAXNXAXNXgXgXmXmXsXsX6X[.3X[.].>.c Z ,.s A s y s %.B i - S >.p * _ 3 # # + # ; # + + # m ].BXCXgXNXzXCXCXzXxXzXzXxXlXxXCXlXfXfXsX,XaXsX>XI.z.E.E.0.E q.oX.X.X.XC.C.o.J J e K 9 e U ",
"L.p.F a.1.k i f d p.L.g.g.p.d 3 i f i = y = D G p p p H T.dXMXDXAXcXAXmXBXmXNXmXgXNX6XNX6XsXgXgXmXgXsXsX[.^.H.v a H.k k k p s C N - - H H u * S u 1 + + # + + 1 # 7 ].lXCXBXBXBXCXzXCXCXcXxXzXcXzXzXlXlXfXgXfX'.'.,XR.I.z.Z.E.k.P q..X.X.X.XM.C.#.L J L L e e U ",
"L.<.G A.G s s f B g.K.K.K.H t.~.(.). XaXT.L.g.L.G.i.i.r.1.D.dXdXhXAXAXmXmXmXmXmXgXNXmXgXmXgXgXgXsXsX3X3X3X3XH.>.u e.5.p h y y k f - s =.S * s Z % # + 1 ; # ; + 7 ^.NXNXCXCXCXNXzXBXxXzXxXSXzXxXxXlXlXkXfX3X,X,X,X'.>XOXe.c.+Xk.E @..X.X.XM.C..X8.L J e e e 9 j ",
"L.w.F s.C k k f -.L.g.L.p.t.W.d.f.f.u.t.t.t.t.>.S t.f.].W.t.H.MXMXMXDXmXmXmXmXmXmXmXgXgXgXgXgX3X3X3XsXgX[.3X].H.b N u.v , = = y p - s =.C * a V % % # 1 + # + l ^.mXvXNXCXCXCXNXzXCXxXzXxXcXzXxXzXzXzXfXfX3X,XaX,X'.,X`.z.c.E.k.T { V..X.XN.V..X8.P w w J J e j ",
"K.H H 1.k k B k 7.L.g.L.p.p.d.S * % $ $ c t._ 2 * 2 * v W.SXgXMXdXAXmXmXmXmXmX6XvXgXmXgXgXgXgXgXmX3XJ.^.]./.].].z.s v V 9 u , & * * C -.f * s v % # # 1 # # # c.ZXNXmXmXAXNXAXBXzXzXzXzXxXxXzXzXlXlXkXfXfX,X,X,X}.,X,X].c.c.E.x.T [ M..X.XV.V.Z.v.P J w e e 9 j ",
"K.F H H f F k F y.{.L.g.x - $ X * 3 l c M b b b c l 3 b A H.sXjXAXmXmXmXmXmXmXmXgXmX6XgX6XsX6XmXgX(.5.=.>.e.e.J.H.z.a 2 p u & y u - A =.i * N s & @ ; # + > # e.vXmXCXNXCXBXCXNXCXxXxXCXcXxXzXxXzXlXkXfXfXsXsX[.,X'.aX`.Y.z.Z.M.T P k..XV.C.V.Z..XT J J L e e L ",
"s.D -.C k k d *.s.{.L.w.- * % l M S ] ] ) ( ] ] ] ] b Z ) u.].3XMXmXmXmXgXmXgXmXmXgXvX6XgXgXgXsX3X^.i.4.] _ t.z.H.I.Z V h s 2 , & - =.H - * C a 2 @ % 1 > 1 # 6 ^.NXCXCXNXCXBXNXCXzXcXxXxXcXzXxXxXlXkXfX5X3X3XaXaX'.,X>X:Xj.B.B.T K 8..X.XC.V.V.b.T J J e 9 9 j ",
"s.x -.k B B d 7.}.g.L.F = y Z ] z.I.^.x.( M | ( Y ( ( ( ) e./.fXSXmXmXhXmXmXgXgX6X6XmX6XgX3X6X3X`.5.g > , $ 2 a _ ] ] S A _ V s 2 i -.S * & _ 2 * + 1 # 1 1 3 1 ] 2XNXNXNXCXBXNXzXCXzXzXzXzXzXzXlXlXkXkXfXfX3XaX,X>XaX>X3Xe.C.C.T J #.C.V..XN..X.XL e J e e 9 L ",
"y.B %.i F k G F.L.L.s.F V u.W.6XDXLXZX] 9.9.9.x.$.o.O.0.e.U./.fXSXBXBXNXlXlXhXNXmXmX6XgX6XmX3X^.e.Z h h 5 u 7 a * X % p S A C & y f >.N 2 s V 2 > 1 1 < 1 1 1 + 1 e.6XZXNXVXVXZXCXlXCXxXkXxXxXzXlXlXlXkXfXfXfX5XkX5XaX>XkXI.x.C.W r { V.XXXXV.V.M.[ J L J e 9 j ",
"1.B k k G B <.L.L.g.7.-.A.3XJXJXZXLXZX1XvXnXvXx.#.q.x.O.h.kXlXfXgXBXBXmXNXzXzXzXgXgXgXmX3X3X6XW.~ m g c U M c g 2 + $ * z S B u & N -.s & a l * * # # 1 1 # 1 1 # 1 ] /.NXrXZXZXlXCXlXzXzXxXzXlXlXlXlXlXkXkX5XfX5X5X5X2X5X/.l.B...r E M.XXV.V.V.M.} L J J e 9 j ",
"=.k i F H D g.P.L.g.w.<.].CXDXJXZXPXLXIXUXUXvXx.x.M.+Xx.B.VXBXzXBXBXBXmXmXgXgXgXgXgX6X6X6XmX].I.z.Y g Y ! U ^ Y M a $ $ 2 Z N - & C =.u & v 2 % 1 1 1 1 1 1 < # # 6 > ) &XNXNXVXNXlXlXxXzXxXlXzXlXzXlXlXkXkXfXrXfX5X5X5X>X<Xl.B...r T b.V.V..X.XM.o.L J e e 9 j ",
"G d i %.B -.G.!.K.w.P.L.i.gXSXJXNXHXPXZX1X&X;X;X;X0XGXeXlXCXBXBXmX3X3XmXmXmXmX6X XvX XvXvX3X].vXB.` ..0.O...T ^ 4.] a X $ p p & & G A y y h % , % , ; 1 1 1 1 1 1 1 5 7 4.5XNXvXNXNXlXBXzXlXlXlXlXlXzXxXkXkXkXkX5XkX5XkX>X9Xn.B.O.K K k.V.V..XV.V.$.P w w w 8 q ",
"k d B -.B y.P.Q.f.p.).MX(.I.BXJXPXZXHXHXrX%X=XeXrXtXGXFXVXxXBXmXvXmXmXmX6X6XgXmXmX XmX X X3XvX].^.1XeXl.o.$.o. .B.^.4.% + - * & u G N & 2 a 2 % > 1 1 > 1 1 1 1 # > > , 7 c.6XNXNXNXxXBXzXxXzXxXlXlXkXkXkXkXkXkXkXkX9XaX,X<XY.V.+.J r $.V.V..XV.V.k.P w w w 9 L ",
"k k -.1.F f.!.Q.a.D.dXSXDX`.].zXPXJXJXHXPXZXrXrXeXGXFXCXVXCXCXNX XmXmXmXmX6X3XmXmXsX XvX3XvXvXvXvXLXLXZ.b.b..X8.$X=Xc.b $ & * * N -.s - 2 p 2 2 1 > 1 1 1 4 4 1 1 > 1 > 1 ) ].NXrXNXlXBXzXlXzXlXlXlXxXkXkXkXkXkXkXkXaXfX>X<X=XB.+.r r o.V.V.C.V.V.l.P w 8 e 9 j ",
"i f 1.G w.P.G.D.D._.MXSXSXgX/.H.].sX5X:X].,X5XxXCXFXDXxXlXCXNXBXmXmXvXmXmXmXmXmXsXmXgXgX3X3X2X1X1XV.N.$X*XoX=X8X;X<XB._ Z u - * Z =.i % p u > 4 2 1 1 1 1 1 1 1 1 1 4 5 1 1 ^.vXrXCXkXkXlXlXlXlXkXlXkXkXkXkXkXkXkXeXkX9X5X5X=XV.9.r r { V.V.V.C.C.k.K r w e e e ",
"k k *.B i.Q.Q.d.H.[.BXSXJXSXcXsX].(.(.,XfX>XfXkX5XzXxXfXW.c.W.3XmXmXmXmX XmXsX XmXmXmX[.5X5X4X4XvX$XZ.E.XXZ.-XwX4X%XB.V k p u i H -.- & - 2 2 2 1 1 1 1 1 1 1 1 , ; 1 1 5 1 ! c.,XrXlXCXlXlXlXlXkXhXlXkXkXkXkXkXeXkX5X5X2X4X=XN.h.K r E m.V.V.C.V.v.P t w e 9 e ",
"k B *.%.g.Q.G.d._.gXAXBXcXcXcXcXmXAXCXzXhXcXcXcXBXCXzX,X^./.2XgXmXmXvXmXvXmXmXvX3XsX[.vX3X5X2X4X2X6X&X&X4X<X<X4X4XI./ k h y s s H S & & u * 2 2 3 4 4 4 1 1 1 < 4 2 4 , 1 1 # 5 ] ^.:XlXzXCXzXlXkXkXkXkXkXkXkXkXaXkXkX>X5X5X;Xj.0.K K T m.V.C.V.V.v.P J w w 9 j ",
"d 7.<.<.K.G.g.D.sXAXAXBXzXhXcXcXhXcXjXcXcXzXcXzXhXSXSXAXDXAXNXNXgXgXgXmXvX X3XgXmX3XvX[.3X3X3X4X4X:Xc.j.j.B./.%Xz.~ / Q p y f k H S - & 2 * u 5 5 1 1 2 4 1 1 1 1 1 1 , > 5 g > b &X3X5XfXCXzXkXlXkXkXkXkXkXkXkXfXfX5X5X>X5X0Xj.e.P K P v.V.V.V.N.m.E J 8 e 9 e ",
"i a.7.p.Q.G.r.P.dXSXBXBXcXcXcXcXdXdXdXjXcXcXhXhXhXMXhXhXBXmXdXmXBXmXmXgXmXmXsXgX6X XvX X2X3X3X:X:X2X,X/./.c.u.4.k k %.Q p d d B <.N = & & 2 5 3 5 5 6 6 4 4 1 4 4 1 1 1 4 1 7 5 b ^.lXlX5XkXkXkXlXkXkXkXkXkXkXkX9X5X5X5X<X5X1Xj.$.P r P 0.V.C.V.M.m.T J 8 e 9 e ",
"k y.%.p.L.f.<.).sXSXhXBXcXcXcXdXcXcXcXcXcXcXcXcXdXMXMXMXmXNXBXBXmXvX6XmXgXfXgXfXfX6X6X6X3X3X,X,X:X,X,X>X`.U.H.r.~ %.%.k , d k G ,.x = & % 2 3 3 5 3 5 6 1 1 1 4 1 3 1 4 1 1 > 1 5 m I.lXlXlXlXfXlXkXlXkXfXfXeX5XfX5X5X>X4X5X9Xj.+.E J K k.V.C.M.N.M.E r w 8 8 9 ",
"i %.B s.T.y.r.[.MXAXAXjXjXzXhXdXcXdXcXcXdXdXcXcXhXmXMXhXhXhXNXgXgXmXNXgXgXgX3X5X3X].].3X6X3X5X,X,X:X`.>X(.`.`.r.~ ~ k f = k k F ,.p u % * 4 3 7 6 6 6 6 2 6 4 5 4 4 5 1 4 5 q 5 4 1 Y /.lXlXVXlXkXfXfXfXfXfXfXfX5X5X5X5X6X4X=XB.O.I t J $.N.V.M.b.V. .r w r t 9 ",
"d d f a.D.t.t.).jXjXcXjXjXhXhXhXkXdXdXkXdXcXdXzXhXhXhXhXzXzXlXNXhXgXgXlXgXgXgXfXc.e.:X5X3X,X2X,X,X>X`.`.`.R.].6.%.B N p = C f G ,.p * 2 1 3 7 7 6 6 6 5 4 4 4 3 3 6 6 1 4 7 5 5 4 < 9.$XeXeXkXlXfXgXfXfXfXfXfXfXfX2X5X<X4X4X%XB.+.U r r 8.V.V.M.M.V.o.w w e 9 9 ",
"i i i p.t.S S (.jXjXAXMXcXzXcXhXcXcXcXdXzXzXdXhXhXMXmXmXhXzXhXlXmXgXmX6X6XsXgX3Xc.] H.3X2X,X5X,X,X].R.`.R.`.R.5.~ C k i i C i %.-.u * 2 1 3 7 6 6 5 5 5 3 3 4 4 4 5 5 6 5 7 5 8 9 e B.=X&XeXkXfXfXkXfXfXfXfXfXfX5X<X5X5X5X2X&XY.e.U r K $.V.V.V.m.V.o.r w e e 9 ",
"i i - =.Z p S J.BXmXMXMXAXzXzXzXcXhXhXhXdXhXhXhXmXmXmXMXhXhXgXzXmXgXmX6XgXsX6X6X:Xc.H.2X>X5XaX>X`.>X`././.R.U.5.~ V f i z C - H S 2 * 2 3 7 7 7 7 7 q 7 4 5 6 4 5 3 6 7 9 5 5 6 9 ( $X=X^.uXVXrXfXfXfXfXfXfX5X3X5X,X5X<X5X<X%XY.l.I r r 0.N.V.m.M.M.o.r w r 9 9 ",
"i d i p - v c =.sXSXAXAXAXAXcXcXhXhXjXjXcXzXhXhXdXmXmXmXmXNXmXlXgXgXgXmXgXgXsX6X5X5X:X4X5X5X>X,X>X>X`.R.R.U.U.:.A V s u S z p S S * % 2 a l l 3 7 q q 7 3 6 4 3 5 7 7 q 7 4 5 q q e.=X=XB.E.rX6XkXrXlXfX5X6X5X5X5X2X>X5X5X<X>XY.N.U r e $.V.V.V.N.C.o.r w r 9 9 ",
"i i a s Z >.t.u.[.DXSXAXBXAXcXzXhXhXhXhXhXhXkXdXgXmXmXmXhXmXmXgXmXgXmX6XmX6XgX6X5X5X:X>X2XfX,X>X`.>X`.R.`.U.H.;.~ N s i S - a t.N & * 3 7 l 7 l l q 7 7 7 6 3 6 3 7 5 q 7 5 4 q q c.1X=XB.O.^.rXkXfXkXkXfX5X5X5X5X2X2X>X2X2X>XY.B.I q r 0.V.V.M.M.C.o.r r e e 9 ",
"i i & i.sX3XmXCX3XBXBXBXBXNXCXcXzXcXcXcXzXcXzXcXmXmXhXhXmXlXmXgXmXgX6XmX3XgXsX3X5X2X,X>X2X>X,X,X`.`.`.R.`.].S.~ A v u i S * d S v % 3 7 l 3 l 6 l l q c 7 6 3 3 5 5 7 6 q q 4 8 ` Z.1X%Xl.Y x.rX5XrXkXkX5XfXfX5X,X>X>X5X>X>X>XI.e.I t K 0.M.M.N.M.b.0.r r e e e ",
"i y p `.DXfXCXJXgXlXBXZXDXmXBXDXBXAXBXBXMXMXhXhXmXmXmXhXgXmXlXNXgXgXgX6XgX3XsX6X3X6X2X3X,X2X,X:X`.>XR.`.`.R.z.~ V p y s S * i t.s % 3 l a 3 l l l q q 7 7 c 7 4 5 l q 7 q q q q O.E.1X$Xj.I ..^.rXeX5XlXkX5XfX6XkX2X>X5X<XR.n.2.Q j e J h.M.M.V.V.b.$.K r e e e ",
"s i C aXDXBXCXJXDX6XNXZXmXBXDXmXAXBXBXMXBXmXBXmXmXmXmXgXmXgXgXgXgXgXmX6XgX3X6X3X6X3X2X2X:X:X,X>X>X`.`.`.`.U.u.~ s 2 2 V S - d S u * u a l l l l l q l 7 7 7 7 7 b l 7 q q q 5 j l.^.1X$X9.U n e.<XkXeX5X6X4X5X3X>X%XR.I.z.4.2./ ^ L j K k.V.M.V.b.b.0.K w r e 9 ",
"f p 3.CXJXlXCXKXVXc.].NXmXZXDXmXAXAXBXMXMXMXmXmXmXmXmXmXgXmXgXlXgX6X6XsXgX6XsX5X3X2X3X2X:X,X>X>X%X`.`.`.`.U.4.Z 2 $ & V b - s S * * 3 a a l l l l l q q l 7 7 7 7 5 7 q 7 7 q ^ ^.-X1X$X..t I x.&X2X5XrX2X2X4X:XU.z.5.' ~ / &.Q / L e K k.C.M.N.V.b.$.K r e 9 9 ",
"s p 7.CXCXlXJX5Xc.M j.6XNXmXBXmXmXBXAXBXBXmXBXmXgXmXmXmXmXlXgXfXfXgXgX6XsX6X3X3X3X3X2X,X:X>X>X].>X`.`././.S.~ h $ o u s z * a H * * 3 c c l l l l q c q l b c c c l b b ] z.B.B.=X;X1X+X..K O.&X:X%X>X<X/.c.e.] U M / / Q Q / / 2.U e L k..XM.M.V.b.$.J w t 8 9 ",
"i p 6.kXxXkX`.j.4.( O.c.NXZXmXmXMXAXAXBXmXmXmXmXmXmXmXvX XmXfXkX6XfXfXfXfX6X3X5X2X,X:X:X:X,X>X'.].].R.`.R.e.V 2 O $ v a p % p S * % a c c c l l l q c q l l l b e.I.^.^.4XgX2X^.E.=X1XXX| I e.wXwX4X:Xj.' ` Y _ ' ' ~ / / ~ &./ O.R j L v.oXM.m.N.b.$.K w e 9 9 ",
"i i k ,XsXU.8.X.] 4.] X.^.mXmXmXBXBXmXmXBXSXBXgXgXmXmXmX3X3XzXxXlX5X:X4X5X5X5X2XfXlX3X>X].:X:X>X:X`.R./.S./ u $ o $ Z u * $ 2 S 2 % a v b c l l c q c c c l e.W.vX5X6X6XvXvX-X^.$X;X-XN.I P N.eXrXlXY.X.' ` ! ` ~ / ^ ~ / / *./ / R L L l.V.M.b.V.n.$.K r w e e ",
"i f i :.6.] X.O...4.4.' t.[.DXmXBXAXBXmXmXmXmXmXmXmX X6X2X].&XrXVXxXNXlX2X/.Y.^./.].,X,X].`.`.>X`.U.`.^.e.V $ o . * V * % $ & S * 2 a b b c 3 v b c b l c ] W.mXmX[.gXNX6XvX&XE.$X1X-Xm.I I Y.uXuX5Xz./ ` ' ) ` ' ! / ~ ! / &.&./ Q L L l.V.V.b.n.M.$.e e 8 e e ",
"p i f p ~ 3./ X...O.' ' ' c.3XAXAXmXhXmXmXgXmXBXmXmXmX3X6XgXlXlXrXlXlXrXrXeX4X:XI.I.].,X,X].>X:X/.`.`.c.Z 2 O . O v a % $ * - S % 5 g b b c l b m b l q ] ].vXmX~.vXNXmX6XwX^.$X*X;X-Xv.E ( =XuXrX%Xe.' ' ` ' ' ! / ! ' / ~ &./ Q Q L ^ n.V.m.b.n.l.$.r K e e 9 ",
"i i i s ~ 5.' ' X.4.^ X.5.5.u.sXAXhXhXhXBXBXBXBXMXmXgX3X,X>X/.%X5XkXkXrXkXfX2X%XI.I.,X>X`.,X:X`.%X>Xz.' 2 O o . % S * % % * - b 2 a b b c c n c c b g M W.vXmXmX2XmXvXmX6X&X$XE.$X-X$Xk.T +.0XeX4Xc.' X.' ' ' ` _ ^ ~ / ~ / ;./ / ^ j O.x.C.m.m.m.n.+.r r e e 9 ",
"y i y s s ;.;.X.X.' ' ;.6.4.5.c.sXAXBXhXdXmXhXNXmXhXgXgXlXfX5X:X/.c.c.z.e.j.z.c.U.].fX:X:X>X>X/.R.I.;.h @ o O o a Z $ $ * * * v a c v b b n c c n b m e.mXmXvX[.6XmX[.vXrX^.E.&X$X-XE.0.I l.wXeX:Xj./ X.` ` ` ) ' ! ` ~ ^ ~ &./ / Q j +.C.M.M.m.N.b.+.e e 8 e 8 ",
"V p s i h ~ ' ' X.X./ ] 5.3.5.,.z.[.cXzXgXhXgXzXNXmXhXfXfXfXlXrX5XkXfX>X5X2X5X5X,X:X:X,X>X`.`./.I.' m n > o o O b a $ & p % 3 x v b m b b b c b M c ) /.mXvXmX3X[.mXmXmX6X^.E.$X+X@X+X9.t XXtXeX%X4.' X.` ' ` ` ` / ) / ~ ~ ;.&./ ^ j h.V.x.m.m.b.m.O.r J 8 8 8 ",
"%.k s p s V _ ;.X.4.' ;.5.5.3.,.5.u.'.hXBXhXBXhXzXmXgXfXfXkXfXfXkX5X5X5X5XfX5X2X,X:X:X<X:X:X/.B.;.g g Q > O O , Z * X - - % 3 s Z b m m m m m c c b z.NXvXmXvX3XvXmXvXmX6XB.B.E.^.+X+X+.K -XeXeXB.X.X.^ ! ^ ! ' _ ^ / ~ Q ' &.~ / ^ I j.E.M.v.m.l.N...r e e e e ",
"~ =.p z s A V ' ' X.X.;.5.3.5.5.7.:.7.J.hXcXfXzXhXgXgXgXfXfXlXfX5X5XfX5X3X5X,X>X2X>X%X:X%XI.c./ g , j Z > o o 2 Z * $ - = % - v b b b M M M b b c ) ^.mXvXmXgX[.mXmXvXsX].z.c.E.@XE.C.o.I -XeXuXc.X.] ^ ^ ` ` ` _ ^ ~ ~ ~ / *.Q Q / } 8.Z.m.l.m.v.n.R e L e J 9 ",
"~ r.A s i C h Z ' ' ;./ 5.3.5.3.:.3.:.,.S.aXzXfXfXgXgXgXgXfXgX5X5XfX3X5X5X,X2X,X2X2X:X/.%Xc.Q j , , L Q > o o c s O 2 u & & N b Z Z b M M m m m M e.6XsXNXmXvX6X3XmXmX X].] x.E.E.+XC.o.E ;XeXwXj.X.' ^ ' ' ' ! ^ _ ` Q Q &.&./ / Q 2.B.C.m.m.m.n.b.R J e e e e ",
";.5.r.v p N C m ~ 4.;.;.5.3.6.3.:.:.:.,.:.u.R.fXgXzXfXfXgXfXfXgXfX5XfX3X3X,X:X>X,X:X%XY.5.U R m 9 5 m m : o o M u $ i p & * v b b b b M M M M b ] ].vXvXNXNXvXsXmXmXmXvX].( h.E.Z.+XN.| ..;XtXwXj.' ' ` ' ' ` ) / ^ / Q ~ / &.Q Q / 8.OXV.m.V.b.n.8.L J e e e e ",
";.=.i.>.i N ;.N Z 5.X.;.5.3.7.3.7.:.:.:.:.&.3.H.sXkXgXgXfXfXgXsX3XsX3X,X,X,X,X>X>X%Xc.^ W ! U U < , j U : o , Z 2 $ p i - 3 3 b b Z M b M M Y M z.NXvXmXNXNX3X3XvX XvXmXE.b ] E.+XZ.M.( +.0XuX4Xe.^ / ` ..' ` ' ) ^ / ~ Q &.&./ / Q 8.V.N.b.m.M.M.8.J e 8 8 e e ",
"' =.,.A.-.z >.Z b _ ' ;.5.5.5.2.3.7.:.*.:.3.:.;.u.^.5XfXhXkXfXsX3X3XsX3X,X:X`.:X/.4.U U U U ! j 9 > t n # o g M * * p = y p * b b b M M M b b b ^.ZXrXNXNXlX5XgXgXNXlXkXB.M U B.+XE.M.E $.0XuX4Xh.' ` ! ` ' ` ' ^ ~ / ~ Q ' &.Q Q / 8.Z.N.b.m.m.m.0.e 8 w w 9 e ",
"' ] ;.c.D.H H =.f A _ ;.5.3.3.7.3.7.3.*.3.3.5.;.&.4.H.,XfXsXfXsXfX3X,X,X,X3X].c.4.! ^ Y Y Y Y U , 5 c n O O Z v * * p % z * * b b M M M ) b b e.2XNXNXCXNXgXgX6XgXlXlXlXI.n P n.$XZ.m.I h.wXeXeXj.' ! ] ` ` ` ! ) _ ` ! V &.&./ / / z.V.M.m.b.m.m.9.r w 8 w e 9 ",
"X.X.4.5.F.s.H H - x A ;.3.3.5.7.:.3.:.3.3.3.3.3.3.*.&.7.S.`.aX5X'.,XfXfX:XI.4.Y R ^ ^ Y ! U R n < 8 m c O % S p * z 3 u v $ 1 b M ( b M M M b c.NXCXfXBXfXBXgX5XrXlXxXeX$XI t j.E.V.j.K l.wXwXeXB.` ` ` ) ) _ ) ! ' ~ ! m ' / / Q X.n.M.m.x.m.m.l.| e w w e 8 9 ",
"X.X.;.3.a.g.s.H x s Z ;.3.3.3.6.3.3.:.3.3.2.3.3.3.;.~ ~ *.6.H.>XfX,X`.I.e.! ^ ` R Y Y R Y U Y c , 8 m q O 2 Z - p S z N 2 o + b M M ) b ) ) e.].NXmXfXlXlXlX5XfXlXrXxXrXOXY L ..B.N.h.t x.wXwX4X^.X.' Y ` ) ' ) ) ' ! ! Q ;.Q Q ^ 4.n.n.m.m.l.b.k.E 8 e w w 9 9 ",
"X.X.' ;.i.F.g.w.F - N ~ :.3.3.7.:.3.3.3.3.3.3.:.2.*.3.3.3.;.:.u.I.I.u.' m M ^ ! ^ U R Y R R Y n , 4 m 5 O p s * N S C S %   # b ) M ) ) ) ) I.vXNXlXNXlXzXlX5XfXrXrXuXxX%XW t T l.N.o.r N.9XeX:X:Xj.] Y ! ( ) ) ! ! _ ! / ' / Q Q 8.N.N.m.m.v.m.8.L 8 J e 8 e 8 ",
"X.X./ ;.r.D.g.i.w.d s A :.3.3.3.:.3.3.2.3.3.3.2.;.2.;.;.;.;.;.~ ~ ;./ Z V Q U U ! R Y R R U U n : 8 m g @ p u p S z S v + o o l M ) ( ] M ) 2XmXNXNXCXBXBXlX5X5XkXlXxXxX=X} t U h.N...t n.<XwX;X4XZ.' ` ` ` ! ) ) ! ^ ! X./ / Q ^ j.N.N.m.l.x.v.} e J J 8 w 8 8 ",
"X.4.' ~ e.f.g.g.i.A s C :.3.3.3.3.3.:.3.3.3.3.*.&.*.3.*.%.&.;.;.~ ~ Q Z U m ' X.U R Q R U U M j , 8 j g % * & B S S S * O . X 3 ) ) M ) Y z.6XfXlXzXBXlXlXzX5X6XkXrXrXxX%X^ L W +.C.E t B.;X9XeXeX&Xj._ ` ` ! ) ! ! ^ Q ' / ^ ^ ^ N.N.N.m.l.l.l.[ e 8 8 8 J e e ",
"X.X.] ) _ i.f.g.f.<.s B %.;.,.:.2.3.3.3.3.3.3.2.;.2.*.;.&.;._ ~ ~ ~ ' Q U ! ! R Q R R R U U U c : 6 m g $ & & H S =.S O + X . 4 ) ) ) ) ] ^.gXlXCXlXlXlXgXgXfX5XlXkXuXxX=XW I W o.N.T t V.9X9X9XwX4XE.X.` ! ` ` ` Y ^ Q X.^ ^ ^ 4.N.N.N.m.m.l.0.L w J 8 8 8 e 9 ",
"X.O.4._ ;.5.f.f.g.d.z p C %.*.*.3.4.3.3.2.2.2.;.*.&.&.;.&.~ ~ ~ &.2./ Q Q ^ Y ^ W R R R U R n j : q Y 5 $ = i =.=.=.c X o o . 1 ) ) ) ) e.2XmXvXlXlXNXlXzXlXfX5XlXrXrXeXY. .R L L #.L K .X9X9X9X4X4X<XI.4.W ! ` ^ Q ` ^ ^ ^ ..} j.n.x.m.N.N.v.o.J 8 w w 8 8 e 8 ",
"' ..X.] ' >.i.D.f.f.S d k %.:.*.3.3.2.2.2.3.;.2.;.2.&.&.&./ ~ / / ' ^ ^ ! Y ^ R Q R R R U U n g ; 9 M , $ , k -.,.=.* . . . . > ) ) ) ) c.vXmXmXzXlXlXgXlXhXfX2XrXrXxX<Xn.4.L J L { L L .X9XtXeXwX=X4XuXI.X.Y ) ! ! Y ` ` ! Y 4.l.x.b.b.m.m.N.T w w w w w w e 8 ",
"+.X.' ' ] _ i.f.s.g.H x i %.&.:.*.2.;.2.2.2.*.*.2.&.&.&.&./ &./ / / ^ Q Q Y W ^ R R U U I U U q , q U , $ y A -.t.N O . . o . + b ) ) ] ~.vXmXmXlXlXlXgXgXgXfX:XeXkXrXOXz.o.L K L L K L V.9XtX9X9XwX4X4X&XI.h.^ Y ^ Y ` ` W ^ j.N.N.l.l.v.m.#.J w w w w e e e 8 ",
"' X.X.;.] ] t.D.s.g.w.x i ~ -.:.2.2.3.2.2.2.2.2.*.&.2.&.&.&.&./ / / Q Q Q Y Q R R R U U U m n 9 , j m % % u H >.H p X . . . o o M ] ] e.2XvXNXmXlXlXlXlXlXfXfX:X5XrX9XI.j.O.L r K J J T XX9XtXeX9XwXwX%X:X<XY.5.` ! ^ ..W ^ ..l.c.N.m.j.v.h.J 8 w w w w e e e 8 ",
"e.` X.X.X.;.t.f.g.g.w.D d x ;.:.3.2.2.2.2.2.2.*.*.2.&.&.&.&.;./ / Q Q Q Q R R R R L R R I n U 5 , e U @ & f =.,.S % . . . . o . b ] ] ^.vXmXmXsXlXlXlXkXkXfXhX5XeX5X<Xl.4.n.W e w J J L oX=X9XtX9X<X<XwX&X:X>X%Xz.X.X.X.^ Y 8.l.b.N.b.b.8. .8 J w w e J e e 8 e ",
"^.+.` X.' ] =.c.K.g.d.F i d =.:.3.2.2.2.2.*.2.*.2.&.&.%.%.&.;.;./ Q Q Q R Q R R R R Q L U U m 4 , q m % , k =.>.z $ X . o . o o b ) ] 2X3XvXmXvXlXlXlXgXkX5XlX2XkX9XI.4.8.OXR e e w L L XX9X9X9X9XeX<X<X<X;X<X<X&XZ.8.W W } l.n.l.n.n.m.8.J 8 8 w w e 8 J e 9 9 ",
"CX&Xh.X...X._ i.G.g.g.H - d S >.3.3.3.3.2.2.2.&.&.&.*.:.=.%.~ ~ / Q R Q R R R R R R Q R U m I , , q c % 2 N =.=.v $   . . o . o l ) I.mXvXmX3XvXrXlXrXlXlXrXrX<X5X;Xj.^ B.<XR e j e L L OX<X<X<X9X<X;X<X;X<X=X8X=X7XZ.b.o.$.V.n.l.l.N.h.L 8 e 8 w 8 8 J L Q 9 j ",
"HXHX4Xl.` X.! r.g.d.g.<.d - S t.3./ &.2.*.2.2.3.*.*.%.%.%.~ _ ~ Q h Q ^ R R R R R R U U U U c 4 ; q g > 2 B :.=.s $ o o o o . o l e.W.vX XmXvXmXlXlXrXrXlXlXeXuX%XI.o.2.<XeX} j j e j } OX<X9X9X9X9X;X9X;X<X;X9X;X$XOX=XC.l.n.n.n.M.8.K 8 8 8 J 8 J 8 e } L 9 h ",
"FXFXHXuXB.+._ t.d.d.g.w.d - v =.4.2.3.;.=._ _ _ %.=.=.=.%._ Z v h h U R R R R L R R U U U n g , 1 g g > u S ,.=.s + . . o o . o 1 e.2XmX6XlXNXlXrXgXlXrXrXrXrXwXB.l./ B.<X<X^ e j j e } %X9X9X9X9X9X<X9X<X9X;X9X;XOXOXOXn.b.n.l.V.8.T 8 8 e 8 t 8 t w E W 9 g h ",
"HXJXGXFXVX^.e.t.d.K.d.w.x p C >.3.' ;.' H >.=._ A V N d u 2 % o , U Q R R R R Q R U U U n U q 4 ; j a % a S ,.=.u $ . . + o o o % c.6XvX6XrXNXrXrXrXkX6XrXlXwX/.c.h...;X<Xn.L e K e e X.OX;X9X<X=X<X<X=X;X;X;X<XOXOXoXOXb.l.n.n.8.U 8 8 r 8 8 8 w r K ..I 9 h U ",
"VXFXGXGXZXVX].i.d.d.d.d.x * * % 2 5 2 u 3 * * * $ $ X X X X X O a Q Q U R R R R U U L U U c q 4 1 n q % 5 G >.=.u * . . o o   o c /.vX3XlX6XNX6XvX6X6X6XrXeX=X^.l.X.j.<XY.} e L e e e 8.;X;X9X<X=X9X<X=X;X=X;X#X;XOXV.n.n.n.b.8.I e 8 r 8 8 w 8 8 r { ..9 j Q Q ",
"VXFXFXKXHXZXBXH.d.d.g.p.x - % X o . . .         .     X X X o % n Q R R L R L R L U U U I h 9 > ; b 5 % u _ >.=.2 * o . o . o + e.6XmXgXNXrXgXgXgX6X6XlXeX&X&XZ.k.^ Z.;X8.U e j e e 9 8.;X;X9X9X<X=X<X=X<X=X9XOXOXoXXXv.8.V.8.L 8 t e e t e 9 8 8 e h.U , j L Q ",
"FXFXFXKXVXVXgXD.d.d.d.d.z * a $ O o . +   X X   X X X X X O . 2 M Q R U R R U U U U U U U g 4 : 6 m 4 + 2 ~ =.=.s % . . . . o 3 ^.mXmXvX[.mXvX6X4X5X6X5X2X4X$XN.I ..N.O.^ T 9 t e e U n.<X9X;X<X=X=X<X=X<X;XOX;XOX.X8.n.v.8.L 8 t e 8 8 e t e 8 j o.8.L L L h Q ",
"FXFXFXGXZXAX[.D.w.w.d.d.C u b a % + X X X X X           X X + a M Y R U R R L U L U U U U g 4 : 5 m > O & A -.>.v % + . o o + 9.vXvX6X6XmXvX6X6X6X6X2X&X4X4Xx.W I W | +.o.t 8 K e e K Z.;X;X<X;X<X<X=X9X=X;XOX;XOXb.n.N.8.J 8 8 t t 9 w t 8 8 I } k.R L 2.$.^ Q ",
"GXFXGXVXVXNXW.d.<.<.d.d.C u S S % o X X X X                 % b Y Y R R L R U L U U U U I q , , q c , O % z >.>.b % + X o + 3 ^.mXmXvXvX6X6X6XNXNXvX&X:X4X1XO.n K K j.N.R w t t e 8 } OX;X>X=X;X9X>X=X<X;X;X;XOXZ.8.b.8.J 8 8 8 8 w t I e e I 8.8.o.J } V.Z.V.z.",
"rXFXFXxXNX6Xd.w.<.p.d.d.v S W.D.] + .                     . 7 m Z U R R L R R L U U L R j 5 < , j c > O $ a H >.S * % o . + ] 2X3XvX[.mX6X6X6X6XmX].:X6X:XZ.Y r t o.N.{ K r e 8 K e l.Y.;X;X;X;X<X=X=X=X;X;XOXOXn.b.o.L 8 J J e w e e 8 w T h.k.$.L L n.Z.Y.Y.B.",
"<XxXFXxXxX>XD.r.D w.d.d.d S ].vX].b +                     + b b U U U I U U U U U U I U j 5 : 5 c c > o $ p C ;.=.a # o . 6 c.6XvX6X6X6XvX6X6X6X2X].3X^.O.n t I r $.$.t t w r K L R OXOX=X<X;X;XOX<X;X=X&X=X$Xn.8.8.L e w J e w 8 e w 8 W h.+.9.} L 8..XM.V.Y.n.",
"=XlXxXxXlXU.F.-.D d.d.w.x d W.].].c.3   X                 1 m c b U U U Y I L U U U n U 9 > : 5 c c % . $ y V >.>.b % X X M ].6XgX6XgXvX5X6XrX6X2XE.] Y l.W t r { $.K L r K e t J n.OX=X<X=X<X;X%X=X&X-X=X;X%Xh.#.e e 8 e J e 8 8 e J R C.N.$.9.L L n.n.OXn.OXOX",
"B.5XxXhX].H.y.x <.p.w.<.b b ].vXvX].M +   X   X     X . o j Y m Q R L U I U U U I U Y m 7 > # 7 m 5 + O $ * * C >.A 2 , % D.5XfXhX6X6X3X6XwXvXE.9.( 9.V.Z.T r P [ L r e 9 t t 9 ' OX>XOX;X<X<X%X%X%X%X^.%X=Xn...J e J e 8 e J L e e o.C..Xj.q.E R V.OXOXOXOXOXB.",
"z.`.CX,XH.t.<.x w.w.d.B S H ].2X].vXc.1 X X X       X o : q n q 9 5 8 e t 9 q q t g j g 5 @ # 5 c 1 o o + * a s S ;.p % ] ].fXlX3X6XvXVX1XwXN.O.| x.C.Z.b.E J r J 8 8 9 9 9 9 m B.>X%X=X<X=X<X:X>XR.I.z.e.4.o.L e e j e 8 e 8 , 0 m l.Z.n.8.] l 8.OXY.XXOXn..XOX",
"c.z.,XU.=.1.z F w.d.H d Z >.].vXvX].^.b X           + o , : , 8 , 8 , , : : : : : : : : 1 # # 1 5 + o . . u 2 * a ;._ h U.fXhXzX3XlXlXeXeXj.P $.N.C.Z.Z.o.K J K K J e e e 8 9 c.`./.:XOX;X<X%X%Xc.] 4 1 < 8 U 8 8 K 9 8 8 8 0 4 + + e | 9.] 6 9.z.B.B.OXOXOXOXB.",
"e.u.z.~ =.A - w.p.w.x x S S W.^.x.x.x.) * X +   X     * ) n 9 5 , : : 8 8 , 8 , , , , , > # # > 1 @ . . . * * $ & p A t.,X5XzXkXfX5X4X4Xl.n x.E.C.Z.x.0.T K r r J K K L 9 U j.%X:XOX:X%X%X%XI.X.4 o o o : j 9 e e j 8 8 q 6 < + o . + ( 9.l 1 b z.B.B.Y.S.V.n.OX",
"z.' h v =.f H w.H z z C S ~ e.9.e.e.t.] 3 X X       X M e.j.e.8.X.R j 9 8 8 , < < , ; ; > # ; ; 1 o . o . $ * $ 2 O k H.sXfXzXlXfXrX6Xc.( h.C.C.m.9.I K w J w J J J r e O.Z.<X&X&X].%X:XY.$Xe.# X X o # 4 t t e r e 8 8 1 : +     + c 9.c ; + + 4 c / z.B.Y.B.OX",
"M u a ;.a x >.x - - B A s V t.9.e.9.e.] ] *     X o % j././.Y.Y.Y.OXI.l.8.X.R j j q 9 4 ; @ : % 1 o o O . X * X $ $ ~ R.hXkXfXkXkXrX^.n W x.B.j.E P K J w J J J w L o.V.>X=X=X%X:X&X:X%X^./.O.o o . . + , 4 t 9 w e 9 4 @ o     + 3 ] M ; o + . . o @ , L 8.S.n."
};
