/* XPM */
static char *out[] = {
/* columns rows colors chars-per-pixel */
"128 128 250 2 ",
"   c #141313",
".  c #383132",
"X  c #463537",
"o  c #493334",
"O  c #53403F",
"+  c #4D3D45",
"@  c #4F4C4D",
"#  c #56454B",
"$  c #584A56",
"%  c #684B49",
"&  c #624D53",
"*  c #695458",
"=  c #77575A",
"-  c #65615F",
";  c #685965",
":  c #7A5B63",
">  c #786769",
",  c #726C6F",
"<  c #88565B",
"1  c #89545E",
"2  c #8D5662",
"3  c #825D63",
"4  c #8E5963",
"5  c #915B65",
"6  c #945C69",
"7  c #985F6E",
"8  c #886869",
"9  c #956265",
"0  c #96616B",
"q  c #99636C",
"w  c #916F6F",
"e  c #996968",
"r  c #9D6B6B",
"t  c #9B6573",
"y  c #986975",
"u  c #9D6A75",
"i  c #9E6A7A",
"p  c #897778",
"a  c #997677",
"s  c #A16D6E",
"d  c #A3736D",
"f  c #A26D74",
"g  c #A26D7C",
"h  c #A57274",
"j  c #A4727C",
"k  c #AA7A78",
"l  c #8C827E",
"z  c #A9826E",
"x  c #AD8276",
"c  c #B38779",
"v  c #B58C7A",
"b  c #B9927E",
"n  c #5C6B8A",
"m  c #6F7590",
"M  c #6F7FA0",
"N  c #8D7A85",
"B  c #A46F81",
"V  c #A57283",
"C  c #A97584",
"Z  c #AB7B85",
"A  c #AA7689",
"S  c #A47A89",
"D  c #AC7C8B",
"F  c #B17E8B",
"G  c #A67E93",
"H  c #AE7E91",
"J  c #B17F91",
"K  c #7B859C",
"L  c #7888A7",
"P  c #7D91B4",
"I  c #988888",
"U  c #8F8D91",
"Y  c #AD8284",
"T  c #A68987",
"R  c #AD818C",
"E  c #B18484",
"W  c #B2838C",
"Q  c #B78B88",
"!  c #B58A8C",
"~  c #AD928D",
"^  c #BC9686",
"/  c #BC938C",
"(  c #AE8192",
")  c #AA8897",
"_  c #B28394",
"`  c #B58A94",
"'  c #B98C93",
"]  c #B58698",
"[  c #B88798",
"{  c #B68A9A",
"}  c #BA8C9C",
"|  c #A99897",
" . c #BD9394",
".. c #B8979A",
"X. c #BC929C",
"o. c #B2A29C",
"O. c #8C92A6",
"+. c #8793AA",
"@. c #8798B8",
"#. c #B08EA1",
"$. c #BC8EA1",
"%. c #AC96A7",
"&. c #BE93A2",
"*. c #B999A6",
"=. c #B096AB",
"-. c #9AA4BA",
";. c #A7A5A8",
":. c #B0A8AF",
">. c #B9A8B8",
",. c #B8B6B8",
"<. c #C0988B",
"1. c #C29D8D",
"2. c #C39C93",
"3. c #C59896",
"4. c #C1959C",
"5. c #C39B9C",
"6. c #D19B99",
"7. c #C4A18E",
"8. c #C6A493",
"9. c #C9A595",
"0. c #C8A997",
"q. c #C6A699",
"w. c #CAA49B",
"e. c #CCAB9B",
"r. c #D7A59E",
"t. c #CDB19C",
"y. c #C195A4",
"u. c #C49BA3",
"i. c #C79BA6",
"p. c #C59BAA",
"a. c #CA9DAC",
"s. c #CC9EB0",
"d. c #C6A1A3",
"f. c #CBA5A4",
"g. c #CEABA3",
"h. c #C5A5A9",
"j. c #CBA4AB",
"k. c #CDAAAB",
"l. c #D1ADA4",
"z. c #D9A8A3",
"x. c #D2ADAC",
"c. c #CEB1A1",
"v. c #C9B3AD",
"b. c #D3B3A5",
"n. c #D3B8A7",
"m. c #D5B4AB",
"M. c #D8B6AC",
"N. c #D6BAAC",
"B. c #D9BAAD",
"V. c #CCA5B2",
"C. c #D2A5B5",
"Z. c #D3ACB4",
"A. c #D2A6B8",
"S. c #D5ACBA",
"D. c #D9AEBD",
"F. c #CAB8B7",
"G. c #D5B4B2",
"H. c #D9B6B2",
"J. c #D6BAB3",
"K. c #DBBCB3",
"L. c #D4B7BC",
"P. c #DAB2BE",
"I. c #DCBDB9",
"U. c #CDC2BC",
"Y. c #DDC2B5",
"T. c #DEC2BA",
"R. c #D8C6BB",
"E. c #DAD1B8",
"W. c #E0C4BC",
"Q. c #E2CBBD",
"!. c #E5D6BA",
"~. c #DCE2BE",
"^. c #889EC2",
"/. c #94AACB",
"(. c #96ACCE",
"). c #98ABC9",
"_. c #AFB0C6",
"`. c #B9B7C5",
"'. c #BEBBCC",
"]. c #A6B8D6",
"[. c #BDBED1",
"{. c #DCAEC1",
"}. c #C6B7C7",
"|. c #C1BDCE",
" X c #DCB5C2",
".X c #DABAC6",
"XX c #DEB9C5",
"oX c #C1BFD1",
"OX c #E2B9C8",
"+X c #E2BCCA",
"@X c #E8BFD0",
"#X c #BEC6CC",
"$X c #B9C7D9",
"%X c #B6CAD9",
"&X c #BFD0E1",
"*X c #C6C7CA",
"=X c #DBC3C3",
"-X c #DBCBC5",
";X c #D8C8C7",
":X c #DBD3CA",
">X c #C3C2D4",
",X c #C9C9D8",
"<X c #D4CBD9",
"1X c #C8D2DB",
"2X c #D8D8DB",
"3X c #E5C7C7",
"4X c #E3CCC3",
"5X c #E3C5CB",
"6X c #E3CCCC",
"7X c #E4D3C4",
"8X c #E5D4CD",
"9X c #E9D5CE",
"0X c #E7D8CC",
"qX c #EBC4D4",
"wX c #ECCCD4",
"eX c #ECCAD8",
"rX c #F0CCDA",
"tX c #E5D5D1",
"yX c #EAD6D2",
"uX c #E6DBD3",
"iX c #EADDD5",
"pX c #EAD6DB",
"aX c #EDDDDA",
"sX c #F1D4DC",
"dX c #F2DEDA",
"fX c #DBE3C5",
"gX c #EAE0D7",
"hX c #E5E0DC",
"jX c #EDE3DB",
"kX c #F1E5DE",
"lX c #F2E8DF",
"zX c #C8CFE0",
"xX c #C9D7E3",
"cX c #D8DBE4",
"vX c #E5DCE4",
"bX c #F3DCE2",
"nX c #DCE2E6",
"mX c #E4E4E5",
"MX c #E9E6E7",
"NX c #EBEAEC",
"BX c #F2E6E1",
"VX c #F4EBE3",
"CX c #F8E7E9",
"ZX c #F6EEE9",
"AX c #F8EFE9",
"SX c #F6F1EB",
"DX c #FAF3ED",
"FX c #ECECF1",
"GX c #F2F2F4",
"HX c #FCF4F1",
/* pixels */
"0.0.0.0.q.q.w.R V Z / 0.e.c.n.Y.Y.n.t.t.g.b.l.5.A D ' l.b.m.T.m.' _ D _ d.m.B.Y.7XQ.Y.n.B.B.B.B.Y.B.Y.Y.B.B.Y.B.Y.Y.7X7X3Xi.y.K.K.K.W.Y.T.G.aXHXHXHXGXbXD.i.y.a.T.9X7XW.W.W.H.y.Z.OXW.W.W.Y.x.y.y.S.W.4XW.4XW.9X4XI.I.W.W.4XW.j.p.I.4X4XQ.4XI.h.P.9X0X7X7X7X0X!.",
"0.0.0.0.q.q.2.Z V Z q.g.e.e.t.Y.t.t.c.c.t.l.e. .A D  .l.b.N.T.c._ ( D ! f.M.B.T.Q.Q.B.B.B.B.B.Y.B.B.B.B.B.Y.B.Y.Y.Y.7X7XK.X.u.K.K.W.W.Y.T.v.CXHXHXHXHXbX5Xs.y.y.H.W.9XW.W.W.T.&.d.W.W.W.W.W.H.y.&.a.I.W.W.W.W.4X9XT.G.W.W.I.W.x.y.P.=XT.W.=XOXd.V.6XiX0X!.!.!.!.",
"0.0.0.0.0.0.2.V V Y w.e.g.c.N.U.c.c.c.t.b.e.l.' A D  .e.b.N.K.d.J H D _ l.M.K.W.Q.E.B.B.B.B.B.B.B.B.Y.Y.B.B.Y.B.K.W.7X4Xb.} j.K.K.Y.Y.Y.H.=XDXHXHXHXHXCXrXL.y.y.j.W.7XQ.W.W.W.p.y.H.W.W.W.Y.T.y.&.y.D.W.W.T.W.Q.0XW.k.T.W.3XW.G.y.Z.W.W.W.W.=Xh.h.-X9XiX!.!.!.!.",
"0.0.0.0.0.0.Q V V W w.e.e.c.Y.Y.v.c.c.c.e.l.e.! A R 5.l.b.N.N. .F J A ' b.M.B.E.!.Y.B.B.B.B.B.B.Y.B.B.B.Y.Y.B.Y.Y.W.7XW.d.4.x.K.Y.K.W.K.H.8XDXHXHXHXHXHXbX5Xa.*.y.H.3X4XW.K.Y.z.y.d.Y.W.W.T.W.j.&.&.V.T.W.I.W.Q.8X4Xx.I.W.W.W.G.y.a.T.W.W.T.3Xk.u.L.9X0X0X!.!.!.",
"0.0.0.q.0.8.W V j ! 0.g.t.c.Y.Y.t.c.c.c.c.e.l.W D D 5.l.l.m.g.` F D D 4.b.M.B.Q.Q.K.B.B.B.B.B.B.B.B.Y.B.B.K.B.Y.Y.Q.4XK.4.X.H.K.K.Y.K.I.x.kXDXHXHXHXHXHXbXeXP.y.y.j.I.4XW.Y.Y.H.y.y.L.Y.W.W.T.H.y.$.p.I.W.I.W.W.4X4XI.m.W.W.T.I.y.p.I.W.T.W.W.P.p.Z.4X9X0X7X7X7X",
"q.0.0.0.w.8.Z j V  .w.q.t.t.n.n.c.c.c.c.g.c.w.F D R 5.b.b.b.d.R F D D i.m.b.Y.E.Q.B.B.B.B.B.B.B.Y.B.B.B.B.K.K.K.Y.Q.Q.m.&.4.K.Y.K.Y.R.J.I.VXDXHXHXHXHXDXHXsX5Xa.$.y.K.W.W.W.W.I.&.&.x.T.W.Y.T.K.y.$.y.L.K.T.H.T.Q.0XW.x.I.W.T.T.d.y.I.T.W.T.W.T.y.k.W.0X0XE.:X:X",
"8.0.0.0.q.8.C j V 2.q.e.q.c.Y.t.t.c.c.e.c.e.w.Z D F 5.c.b.l.4.D D A W g.b.M.Y.Q.Y.N.B.B.B.B.B.B.n.B.M.M.B.B.B.Y.W.Q.R.i.a.i.B.K.Y.Y.Y.G.6XAXDXHXDXHXHXHXHXBX5XS.y.y.a.K.I.Y.Y.Y.h.$.u.H.Y.W.K.W.u.$.&.j.W.I.Z.T.W.7XW.k.I.W.W.I.j.&.L.T.Y.Y.T.W.d.h.=X9X0X~.2X:X",
"0.8.q.q.8./ j V V 5.e.q.e.c.Y.c.c.c.t.g.e.c.w.F Z R w.g.b.g.' F D Z _ l.n.B.Q.Q.Y.N.M.B.B.B.B.B.B.M.l.B.Y.B.B.Y.Q.4XH.Z.y.f.K.B.B.Y.I.T.tXDXDXDXHXDXDXHXDXCXpXqXa.y.i.H.Y.Y.Y.Y.m.&.&.Z.Y.W.W.K.x.$.$.y.H.T.G.I.T.3X4Xz.H.W.W.I.Z.&.G.Y.W.W.W.W.h.p.J.7X0X:X:X1X",
"q.0.8.0.8.! V V a 5.0.q.g.b.N.t.e.b.e.c.e.t.2.C A R w.g.l.w._ F A D ' l.M.B.Q.W.B.B.M.B.M.B.M.B.B.m.f.B.B.Y.B.Y.E.W.G.OXX.x.K.Y.Y.B.M.9XVXDXDXDXHXHXDXHXDXHXkX3X X&.&.j.Y.Y.K.Y.H.X.y.y.I.Y.W.W.I.&.$.$.x.Y.H.J.T.Q.4XH.k.Y.W.W.G.&.j.T.I.K.W.I.V.&.G.4X9X8X:X:X",
"8.8.q.8.q.Y i V V 8.e.e.t.c.Y.t.e.e.b.e.b.e.4.C A R w.b.l.5.F A F Z  .l.N.B.E.Y.B.n.B.B.B.B.B.M.M.w.l.B.N.Y.B.Y.Q.H.j.S.4.K.K.K.Y.W.Q.0XDXDXHXHXDXHXHXDXHXDXCX9XqXy.&.&.G.K.W.W.I.y.} y.Z.Y.K.K.I.u.$.&.a.I.I.Z.T.W.7XI.j.Y.T.I.H.&.j.I.I.K.Y.T.F.y.h.=X9X7XE.fX",
"0.8.8.8.2.Z V j j 2.w.q.t.c.n.c.b.e.e.b.e.e.3.C A R w.g.l.' D D C D 5.b.m.Y.E.Y.n.B.B.B.B.n.B.M.b.X.m.K.B.B.B.Y.W.Z. Xs.i.B.K.K.K.K.iXiXDXDXDXDXHXHXHXHXHXDXAXdXqXD.&.&.d.K.K.K.Y.j.y.$.i.Y.W.Y.K.k.$.$.&.H.K.k.K.Y.3XQ.j.K.W.K.I.&.d.T.K.H.T.T.G.&.p.T.7X0X:XfX",
"8.0.8.q.8.Z i g Z w.e.e.e.b.b.l.c.l.e.b.l.e.Q C A R g.g.w._ D A A D z.b.N.Y.W.M.B.B.B.B.B.M.M.B.5.4.M.B.B.B.K.Q.K.Z.qXp.x.K.K.Y.K.I.0XlXDXDXHXDXDXHXHXDXDXDXHXCXtXqXp.&.y.Z.K.Y.Y.H.} $.4.G.K.Y.K.x.} $.&.j.K.k.m.W.W.3Xk.H.T.W.K.&.y.I.T.H.Y.I.I.&.p.J.7X:XE.~.",
"0.q.q.9.2.j i V Y 8.0.e.e.b.c.e.e.b.e.b.l.e.W C A W f.l.w.F D A A ! x.M.b.!.Y.b.b.B.B.B.M.B.N.l. .d.M.B.K.B.Y.W.m.P.@Xy.m.K.K.K.I.dXyXAXDXDXDXDXHXDXDXDXHXDXHXDXsXqXD.&.&.&.K.K.K.K.6.$.$.j.K.K.Y.K.X.$.$.u.H.Z.k.I.T.4Xx.x.I.K.K.y.y.I.Y.J.K.T.T.y.y.J.-X0X7X~.",
"8.8.8.8./ j V g E w.w.e.e.b.c.e.e.e.e.e.e.e.F A A F e.z.4.Z A A Z 4.l.b.B.Y.Y.B.B.b.M.M.M.M.b.5.} x.M.B.B.B.K.K.x.qXS.u.K.K.K.K.-XdXkXDXDXDXHXDXHXDXHXHXDXDXDXHXCX6XrXa.&.&.z.K.K.K.a.[ } &.H.K.Y.K.i.$.{ &.G.H.j.K.T.4XH.d.K.T.K.i.&.H.I.J.T.I.I.*.&.k.4X7X7XE.",
"0.9.q.8. .j a g W w.w.e.e.e.e.t.c.e.e.b.e.e.Z A A W f.e.W A A A Z 2.t.n.Y.Y.n.n.n.n.M.M.M.m.z.'  .m.M.B.B.B.K.H.OXqXy.x.K.K.K.J.kX8XAXAXDXDXDXHXHXDXDXDXDXDXDXDXCXsXwX{.&.$.y.K.K.K.x.} ] $.k.K.K.Y.z.$.#.$.j.H.i.H.R.W.T...K.I.K.a.} G.I.H.I.K.I.i.&.k.Q.7X7X~.",
"8.9.8.q.Q j V g Q 9.e.0.e.e.e.l.e.l.e.e.e.w.Z C A F e.3.F A A C E r.b.t.Y.Y.n.B.b.b.M.b.b.b.X._ 5.b.M.M.B.B.K.d.qXOXy.H.K.N.I.8XdXaXAXDXDXDXDXDXDXDXHXHXHXDXHXDXDXBX5XrXp.$.} k.K.K.K.X.$.{ 4.H.I.K.H.} } } &.H.d.k.K.K.W.u.H.K.K.d.$.x.K.K.K.R.I.d.&.d.Y.7X7XE.",
"8.q.8.8.Y i g g / 9.0.e.e.e.e.e.e.e.e.b.e.w.C C A Z w.4.A C C C W l.b.B.Y.n.n.B.b.B.b.B.M.f.` W l.n.M.M.B.B.z.OXeXS.d.J.K.K.G.kX9XAXAXDXDXDXDXDXDXDXDXDXDXDXDXDXDXDXyXeXOX&.} y.M.K.B.j.{ } } j.K.K.K.4.$.} } Z.j.u.K.Y.R.k.Z.K.K.k.} x.J.J.K.I.K.j.&.*.K.4X7XE.",
"8.8.8.8.x j j j / 9.0.e.e.e.t.e.b.e.e.e.w.6.C C A F w.' A C j F <.b.b.B.B.n.n.n.b.b.M.b.f.` F ' b.n.B.B.M.H.j.rXqXu.x.B.N.J.aXaXiXAXDXDXDXDXDXDXDXDXDXDXDXDXDXDXDXDXbX6XeXp.&.} i.K.K.z.} [ } 4.G.K.B.x.] { { u.z.5.M.Y.K.m.k.K.K.x.} j.I.m.K.Y.J.j.&.&.J.E.7XQ.",
"8.9.0.2.V j j u / w.9.0.0.e.e.e.e.e.e.e.e.3.C C C Z 6.Z C C B F 0.b.b.Y.n.b.n.b.M.M.b.z.4.W F 5.b.M.M.M.N.k.OXrXA.i.m.K.K.J.VXtXAXAXAXAXDXDXDXDXDXDXDXDXDXDXDXDXDXDXDXwXeX+X&.} X.G.K.M.} } [ } z.K.K.H.} { } } V.X.x.K.K.H.d.H.K.Z.{ d.K.H.J.Y.Y.k. .X.x.E.7XQ.",
"9.8.0./ j i i g <.9.9.e.e.e.e.e.e.b.e.e.e.3.j C C C  .A C C j W r.b.b.B.b.b.b.b.b.b.b.9.W F _ f.M.M.M.N.m.C.eXeXi.x.K.J.G.jXdXdXAXAXAXDXSXDXDXDXDXDXDXDXDXDXDXDXDXDXDXkXqXeXs.$.} u.H.B.d.} [ } 4.G.K.M.y.} ] } u.X.i.K.K.K.5.H.K.m.{ i.H.m.B.B.K.k.&.X.k.R.7X7X",
"q.8.7./ j i i j 4.9.0.0.e.e.e.e.e.e.e.e.e.Q C C C C F C C C A ' b.t.M.b.b.b.b.b.b.b.w.' W J [ b.M.M.M.M.i.5XrX{.u.H.K.M.-XCX8XBXAXDXSXSXSXSXDXDXDXDXDXDXDXDXDXDXDXDXDXCXyXeX+X&.} } x.K.x.y.[ } [ x.M.B.d.} [ [ } &.X.K.K.H.5.x.J.m.' *.K.m.K.Y.K.k.$.X.j.R.4X7X",
"8.8.2.Q j j a f 3.9.0.0.e.0.e.e.e.e.e.e.e.E j B g C j C C j Z 6.t.r.b.b.b.b.b.b.b.r.' _ [ _ 6.b.b.M.M.b.D.rXeXy.k.H.J.x.BXdXkXAXAXAXSXSXSXSXSXSXSXDXDXDXDXSXDXDXDXDXHXAXbX5XrXC.$.} u.H.H.A.$.[ } y.m.K.H.{ ] [ } $.} x.B.K.d.f.K.m.{ 5.K.m.B.K.K.G.{ &.d.I.7X7X",
"8.9.9.W i i i f 3.w.0.0.0.e.e.e.e.e.e.e.e.Z V C C C C C C j W e.b.b.t.b.b.b.b.b.b.3._ [ a.[ l.M.M.M.b.j.eXrX Xy.m.N.G.uXBX9XVXAXZXAXSXSXSXSXSXSXSXSXSXSXSXDXSXDXAXSXAXDXCXwXeX+Xy.$.} f.H.z.A.} [ } k.H.M.X.{ [ [ [ } f.B.K.f.u.H.G.{ &.H.b.J.K.K.m.$.{ y.I.R.7X",
"8.7.2.E j i j j 2.0.0.e.e.0.e.0.e.e.e.e.6.C C j C g B C j A ' z.t.b.b.b.b.b.b.b.3.W _ s.' 3.b.M.b.M.j.+XrXeXy.k.m.G.J.BXiXkXVXAXAXAXAXSXSXSXSXSXSXSXSXSXAXDXSXAXDXZXDXDXCXsX6XrXA.$.$.5.Z.G.D.y.$.} 4.H.H.j.[ ] [ [ } i.K.B.x.u.H.m.{ &.H.b.K.J.J.x.X.} *.H.E.7X",
"8.8.2.Z j j i j 2.9.e.0.e.0.e.e.e.0.e.e.6.j C g g C C C g F 6.r.e.b.b.b.b.t.l.u._ J 4.a.[ z.b.M.b.k.{.eXeX{.&.m.m.v.BXBXyXAXAXAXAXZXAXAXDXDXAXSXDXZXSXSXAXDXAXDXAXAXDXAXAXCXwXwXqXy.4.} i.H.Z.{.$.] $.j.H.l.{ [ ] [ ] X.H.m.m.u.m.J.{ &.H.v.B.Y.J.m.$.{ &.v.T.7X",
"1.8.3.k f i i i 2.9.9.e.9.e.e.0.e.e.e.e.3.g C C C g g C g F w.r.c.b.b.b.r.t.6.W D ] {.&. .b.b.m.l.a.qXrX@X&.k.m.f.8XBX8XkXAXVXAXAXGXAXAXAXAXDXAXAXDXSXDXDXAXDXAXDXAXAXGXDXCXsX3XrXD.$.[ } x.x.@Xs.[ { X.m.H.X.] ] ] [ { x.J.K.X.m.N.{ X.m.n.N.J.J.x...{ ..k.R.7X",
"9.7.<.j a i i h 2.9.9.9.9.e.0.e.e.e.e.w.<.g C g g B C C C 3.e.c.e.b.b.b.b.q.R D J C.C.[ f.b.b.x.y.+XrXqXa.u.m.f..XBXkXgXVXAXAXAXAXAXAXAXAXAXAXAXAXAXAXAXAXDXDXAXDXAXAXAXAXAXkXwXqXrXs.$.} 4.Z.S.@X$.{ { f.M.f.} ] _ ] ] d.H.H.5.f.H.{ X.m.m.B.B.J.x.{ {  .k.T.7X",
"8.2.<.g f i i j 2.9.w.2.9.e.e.e.9.e.w.6.<.g g C C g g g C w.r.t.c.b.e.l.6.W D J y.OX} 4.b.M.l.u.OXeXeXXXX.g.h.k.jXkX0XVXVXAXAXAXAXAXDXAXAXAXAXAXDXAXAXAXAXDXAXAXDXAXAXAXAXAXCXdX5XrXOX$.} [ i.s.@X{.$.] ' x.M.} ] _ ] [ 4.M.B.d.&.m.{ } m.m.B.K.B.m.} { { d.K.4X",
"8.7.Q j u u i j 2.9.9.<.9.e.e.0.e.e.e.9.F g j g g C C j Q e.e.l.e.l.l.3.F D F _ OXA.} f.l.m.4.A.eXeX@X&.u.d.u.kXlX0XVXVXVXAXAXAXZXAXVXDXAXAXAXAXAXAXAXAXAXAXAXAXZXCXAXAXAXAXAXkXsX5XrXS.4.[ $.p. XeXp.[ } y.m.5.[ _ [ [ } m.m.j...M.[ } x.m.K.J.J.m.{ { { d.Y.Q.",
"2.2.c g i g u j 2.9.9./ 9.9.e.e.0.e.e.9.F g j C C g g C 2.e.l.e.z.e.' Z D D J A.{.[ 4.l.l.5.V.eXqXqXa.{ X.X.6XkX0XjXZXZXAXVXAXVXZXZXAXDXAXAXVXAXAXAXAXAXAXAXAXAXDXAXAXAXAXAXAXAXpXrXqXqXy.[ J ] y.qX+X$.[ { z.k._ _ _ _ _ f.H.z.{ x.' } x.m.m.B.N.x.X.{ $.*.J.Q.",
"8.1.Z i u i g j 2.9.2.^ 9.r.9.e.0.e.9.6.k C g C g g g F w.e.e.e.w.Q F A A J p.@Xi.' f.l.y.p.@XeXqXs.[ { X.=XBXaXgXVXVXAXVXAXAXAXZXVXAXVXAXAXAXAXAXAXAXAXAXAXAXAXZXAXAXAXVXAXAXAXCXsX6XwXOX$.$.$.$.{.rXA.} ] } k.[ ] _ _ [ X.b.x.} l.` { x.m.B.J.J.l.{ { { &.J.Q.",
"8.2.k g u u u k 2.8.1./ 9.0.e.0.e.0.e.2.g C g g g g g 3.e.e.e.3.Z A C A D y.@X{._ 5.f.4.y.@XeXqX{.] { X.Z.BXgX9XlXAXVXVXAXVXAXVXZXZXZXAXAXAXAXAXAXAXAXAXVXAXAXAXAXAXVXDXAXAXAXAXCXbXrX6XrXA.$.J [ y.qXeXp.{ [ u.p.J ] _ _ _ f.x.' i._ } x.g.N.N.K.k.{ { { y.K.E.",
"1.2.j u t g f j 2.9./ / 0.9.e.0.0.e.9.3.g g g g g g C 6.6.6.<.F j C C F [ OXOX[ [ z.4.y.OX@XrXOX_ [ { v.BXkX9XVXVXVXVXZXAXAXVXAXVXAXAXAXAXAXAXAXAXAXAXAXAXAXAXAXAXAXAXAXAXAXAXAXAXZXbXwXqXeXp.} [ $.{.rXOX$.] ] s.J J J J J y.A.y.4.J ] g.g.m.J.N.g.{ ] ] &.N.E.",
"7./ j u t i i j 1.2./ 2.0.e.9.e.e.9.9.<.g g g g B g Q 6.[ F g C C C A [ {.@Xa.J y.J [ @X@X@X{.[ _ { V.jXkXtXBXVXVXZXVXVXVXAXAXVXAXAXVXAXAXVXAXAXAXAXAXAXAXAXAXVXVXAXAXAXAXAXAXAXVXVXCXsX6XqX@X&.$.[ y.@XrX{.$.] $.$.J J J J J s.y.J ] ] k.g.H.N.M.x.{ { ] &.H.R.",
"1./ j u t i g k 7.2.Q 2.9.9.w.0.0.e.9.Q g g g g f C [ Z C C C C C C [ {.@XA.J J J [ @X@X@X{.[ [ { v.aXaX8XBXVXZXZXVXZXZXAXVXAXVXVXAXAXVXVXAXAXAXAXVXAXVXVXAXAXAXAXAXAXVXVXAXVXAXAXZXVXbXsX3XwX X$.J $.{.rXqXy.] J J G J J J =.y.y.J ] [ f.f.N.B.H.g.} ] { X.m.R.",
"2.Q f u t t t j 1.1.E 2.9.e.9.e.0.9.6.F g g g f t g j j B B B C C F {.@X{.J J J [ @X@X@XOXy.J [ k.gXaX9XkXBXVXVXVXZXVXVXVXAXVXAXVXAXAXAXVXAXVXAXAXAXAXAXVXAXAXVXAXVXAXVXAXAXAXAXVXAXAXCXdXsX3XqXA.$.] $.{.{.s.J J G J J J J J J _ H J ] k.d.m.N.M.f.[ ] { X.m.Y.",
"1.E u u u u u k 1./ c 2.9.e.9.r.9.9.9.k f g g i g g B B B B C C J {.@XOX[ J J $.OX@XqXS.[ J [ Z.gXuXuXkXVXVXVXVXZXVXVXVXZXVXAXVXAXVXAXVXAXVXAXAXVXVXSXAXAXVXDXAXAXAXAXAXAXAXVXAXDXDXAXVXVXsXeX.XA.$.] ] $.OX@X{.$.J J G J J J #.J J J J s.i.N.N.B.d.{ ] ] { n.R.",
"1.k u u t u u k 1.Q Z 9.9.9.0.0.9.8.2.h g g g i g g g g g C C J {.@XOXy.J J $.OX@X+XC._ J 4.L.aXuXgXlXVXVXVXVXVXVXVXAXVXAXVXVXVXVXAXAXVXAXVXVXAXAXAXAXAXZXAXVXAXAXVXAXVXAXAXAXVXVXVXVXVXiXwXI.V.S..Xs.$.$.s.qXeXA.J J J y.J J J ] J H $.i.d.M.M.M.u.{ { ] { c.Y.",
"1.h u t t t t Z 1.E E 6.9.9.9.9.9.6.6.g g g t g g g g B g C J {.{.{.y.A A y.OX@X@Xp._ ! } =XiX8XlXBXBXVXVXVXVXVXVXVXVXVXVXVXVXAXVXAXlXVXAXAXAXVXVXAXVXVXVXAXVXZXAXAXAXVXVXVXVXVXVXBX9XT.W.T.yXsXsXeX@Xs.$.$.{.@XqX$.$.J p.J J J J J J J i.w.m.M.M.6.{ ( ` { x.R.",
"/ h u u t u t k 1.Z E 9.9.9.9.e.6.6.Q f f g t g g g g g C [ z.s.s.F C A J J $.$.] D R X.3X6XiXkXBXBXVXBXZXVXVXVXZXVXVXZXVXZXAXVXVXAXfXVXVXAXVXAXVXAXAXVXBXVXVXVXVXSXVXVXVXVXdX8X3X=XT.tXdXVXVXVXsXsXeX@X{.#.$.{.qX@X$.$.J {.y.J ] J J #.X.d.M.m.m.u.] { ) { g.Y.",
"/ u t f t t f k <.k E 9.9.9.9.9.9.9.<.g g t t g g B B F s.OX+XOXy.D _ A.OXD._ D H F  .f.J.=X7X9XgXkXBXBXVXBXlXBXBXlXVXlXVXSXVXVXVXlXuXVXVXZXVXZXAXZXVXVX0XVXjXuX0X0X9X9X4XT.T.R.7XiXVXVXAXAXAXVXZXbXpXrXrXXXy.&.V.@X{.] [ &.{.y.] ] H ] } w.n.M.m.5.] ] ( { k.Y.",
"Q f t t t t t F Q C Q 1.9.9.9.e.9.9.k f g t g g B C _ D.@X+XOX$.J [ OXOXC._ _ _ X..XiX4XR.I.K.J.K.J.T.8X9XaXkXgXgXgXkXaXgX0XfXVXlXE.VXVXSXVXZXZXVXZXAXVX:XjXZXBX0X!.4X4X4X8XgXAXVXVXAXAXAXlXVXAXZXVXCXsXrXrXeXS.&.&.S.s.{ { A.OX&.] ] _ ` f.M.b.N.X.{ ] ] { h.Y.",
"Q f f 7 t t t k Z j Q 9.9.9.9.9.9.2.k g f t g C C i.OXOXOX{.{ _ y.{.a.{ _ ` ..T.gXgXkXjXkXjXgXaXuX-XR.R.W.W.T.T.Q.W.Q.Q.-XgXlXlXuXlXVXZXVXAXAXVXVXAXVXAXZXuXVXVXVXlXlXBXVXVXVXAXAXZXAXVXAXVXAXVXVXZXZXZXBXbXsXeXqX.X*.&.] ] } D.@XA.] [ _ g.N.M.m...` _ ( ` g.N.",
"E u t t 7 f j k k g ^ 9.8.9.9.9.9.1.j g g g C [ C.OX@XOXa._ W { y.[ { ..h.=XgXjXlXkXlXlXBXBXBXBXjXlXjXjXiX9X9X0X9X9XiXgXlXlXVXmXVXVXVXVXVXVXAXVXAXVXAXZXVXVXBXVXVXVXVXVXVXVXVXAXVXAXVXZXVXAXVXAXZXVXZXVXZXZXVXbXbXsXeX+X{.V.&.y.{.@Xy.[ _ g.N.M.m.X.` _ ) ` h.Y.",
"c t t t t t J F h h <.7.9.9.9.9.9.<.g g g Z y. XOXOXZ.y.! R ( { y.j.=XuXgXgXjXjXjXlXlXlXBXlXBXBXjXVXMXVXlXNXBXBXVXVXBXVXSXVXVXVXVXVXVXVXVXVXAXZXVXDXVXVXVXVXVXZXVXVXVXAXAXVXAXVXZXVXVXCXVXCXZXVXVXVXZXVXZXZXVXZXNXVXVXsXsXrX Xy.$.V.&.] _ l.m.M.m..._ ] _ ` f.N.",
"j f t t t i [ C f k <.9.7.9.9.7.2./ g j [ D.OXS.} D _ ` *.R.8XtXiXgXjXjXjXhXjXlXlXjXlXlXlXBXBXBXVXBXlXlXlXBXVXBXlXBXlXVXlXSXVXVXVXVXAXAXAXVXVXVXVXVXVXVXAXZXVXVXAXZXVXVXVXVXVXVXVXVXVXVXVXVXVXZXVXVXVXVXVXVXVXVXVXVXVXCXBXpXrXqXs.$.] ] _ l.B.m.b.{ ] ( _ { k.N.",
"h t t t t A 4.g f k 7.9.7.9.9.7.9.Q C a.D.i.{ R R ..=XiXgXjXgXjXjXgXgXjXlXlXlXhXjXlXBXBXBXBXBXBXlXlXBXlXVXlXVXlXVXBXlXVXlXlXSXlXVXVXVXVXVXVXVXVXVXVXDXVXVXVXAXVXVXVXZXVXAXVXVXCXjXbXaXpXpX8X=XF.;XuXmXBXBXVXVXZXVXCXVXVXAXBXbXsXeX.X&.] _ l.m.N.m. ._ ( ( ` h.n.",
"h t t t i 4.[ g g k 7.7.7.9.9.9.9.E C _ D F ` h.-XuXgXjXgXjXjXlXjXjXjXjXjXjXjXlXjXlXjXMXjXjXlXlXlXlXMXVXBXBXVXBXVXVXlXlXlXlXlXlXVXVXVXVXVXVXVXVXVXVXVXVXVXAXVXVXAXVXVXVXVXBXiX.XL..XL..X;XpXdXCXCXVXVXVXVXVXVXVXVXVXVXAXBXAXAXBXCXeXV.] ` l.B.m.m.' _ _ _ ] k.c.",
"u t t t g s.[ g f Z 1.8.7.9.9.9.7.c Z ( ..v.tXiXgXgXgXjXjXgXgX:X:X-XU.U.R.R.R.=X;XR.=X=X=X.X;XtXpXBXBXBXBXBXBXBXSXlXlXlXlXlXlXlXVXlXVXVXVXVXVXlXVXVXVXVXVXVXAXVXVXDXVXVXVXpX.X.XtXbXBXCXCXVXVXBXVXBXVXBXBXBXBXbXBXBXVXBXkXVXVXVXCXwXZ.{  .l.m.m.m.` _ _ _ _ f.c.",
"u t t t A C._ g g E 2.8.7.9.9.9.8.3.T.-XtXuXiXiXgXhXgXgXgXjXgXgXgXgXgXgXjXgXuXuX9X8X;X;X=X=XV.k.F.qXkXkXBXBXBXBXlXlXVXlXlXlXlXlXlXVXVXVXVXVXVXVXVXVXAXVXAXVXVXVXVXZXVXVXBXyX6XBXBXBXkXaXaXvXtX:X.Xv.| | T I p p , N I I :XBXVXVXMXwXC.{ { b.N.N.m.` _ _ _ ` f.k.",
"u t t i F D.W g g Q 7.8.9.7.9.9.q.L.uXiXiXgXiXgXjXgXgXgXgXgXgXgXjXjXjXgXgXhXgXjXgXgXgXgXaXgXiX5X.X5XpXBXBXBXVXBXlXNXlXlXlXlXlXlXlXVXVXVXlXVXVXlXVXVXVXAXAXVXAXVXVXVXVXVXBXaXaXF.;.I I p > > 8 p a I S a w * & + $ $ $ : *.jXBXCXVXwXj.[ { m.N.B.m.' _ ( ( ` f.h.",
"r t t i y.D.F g f / 7.7.9.9.9.9.q.4XgXuXiX8XtXuX:X:X-X-XU.U.U.U.U.U.=X=X-X;X;X;X-X;X-X;X-X-X:XiXaXtXiXkXlXlXBXVXlXlXlXlXlXlXSXlXVXlXVXlXVXlXVXVXVXVXVXVXVXVXVXVXVXZXVXVXBX8X..p : * & # # # # # * a S B : & + + + # + @ $ I }.6XtXwX&.] ..m.m.B.m.` _ ( ( ] g.q.",
"t t t g A.D.F f j <.1.7.7.9.7.0.0.0XiXiXR.p > l p * * & & = 8 w a a h a a w 8 > * $ & & * * = I 8XgXjXjXBXlXBXBXlXlXlXlXVXlXlXVXlXlXlXlXVXlXVXVXVXVXVXVXVXVXVXVXVXVXVXBX;X~ a 8 8 > ; * $ # # $ 8 i a p 8 > ; # @ + # + + & ; N ;XqXX.( X.b.N.K.b.` _ _ _ ` f.o.",
"t t t A D.{.C g h <.9.9.9.7.9.0.v.0X0X0XU.p O X X o X . X X X # = a a w = % o X X X o X O O % = 8 o.7XgXhXVXlXBXlXlXlXlXlXlXVXlXlXVXVXlXlXVXlXVXlXVXVXVXVXVXVXVXVXVXBXF.~ x I T I I N , > m N m m m m m m O.M m -.-.N $ + + + N tX5X_ _ X.m.B.K.M.` _ H ( ] g.q.",
"t t g 4.{.{.B g k <.7.0.7.7.7.0.J.0XR.I O o X . . o X X X # & : 0 w u y 3 # X X . X + X O # % < 8 w v U.gXgXlXjXlXlXlXlXmXlXVXlXlXVXlXVXVXlXVXlXVXVXVXVXVXVXVXAXVXiXU.v.o.~ | F.tXZXcX`.-._.[.+.P +.M M +.+.+.K _.zXzX_., * & & > s._ ( d.b.B.Y.x.! _ H _ ` k...",
"t t g i.{.A.B f x 7.7.0.7.0.0.b a * O o o . . X X + + @ ; > > , ; ; ; ; ; ; ; ; @ $ $ - * = > 8 w a o.| o.U.hXlXlXlXlXlXlXlXlXlXVXVXVXVXlXVXlXVXlXVXVXAXVXVXVXVXVXVXkX-X| o.*XGXGXGXGXFX[.[.zXL @.(./.@.L @.@.+._.zXzXzXoX> = * ; y H ( d.b.N.T.b.` _ H _ { g. .",
"t 7 f y.{.s.g f F <.6.9.7.7.7.b = o o . . X + ; O.-.%.U #X*X2X*X-.O.K O.:.M n m m m n m M U N m l l T E.gXgXgXlXlXlXlXlXlXlXVXVXlXlXlXVXlXVXlXVXlXVXVXVXVXVXVXVXVXVXjXo.F.MX*XGXGXGXGXnX].P L L P (.(.(.^.P P L _.xXzXzXzX#.p 8 p ..D _ f.b.n.W.M._ _ H _ ` d. .",
"t t 7 [ {.a.g f <.<.9.t.0.7.7.d o o o o @ , %._.#X#X_.#XNXFXNXNXNX'.-.>XxXL n n @.^.P L L +.+.K ,.v.~ ..0XgXjXlXlXlXlXlXlXlXlXlXVXVXlXlXVXlXVXlXVXVXVXVXVXVXVXVXVXVXU.U.MXZX`.*XnXnX&X%X].P L L ^.(.].(.^.^.L +.,XFXcXcXzX) a T =X&.( R f.b.B.Y.M.` _ H D ` u.~ ",
"t 7 7 F D.i.g f <.7.9.e.7.7.7.< o o O = %.`.>X$X$X,X_.1XNXFXFXFXNX2X].].P n n n P ^./.^.L +.+.K ,.MXiXo.o.hXlXhXlXlXlXlXlXlXlXlXlXlXlXVXlXVXlXVXlXlXVXlXVXVXVXVXVXjXU.hXBXNX`.-.%X].].].].(.P ^.].(.].(.^.].@.O.cXGXFXcX>XT T J.iX&._ W f.M.B.Y.l.W _ _ _ ` X.~ ",
"t f A C C.4.g j <.7.0.9.7.7.^ % % % > >.oX$X,X,X,X$X`.;.2XmXNXnX$X].).).P n n n P /.^.^.P /.L K >XVXlXkX-Xv.jXlXjXjXlXlXlXlXlXlXVXlXlXlXVXlXVXlXlXVXlXVXVXVXVXVXVXhXVXBXVXGXcX).].].(.(.].].].].].].].(.].].(._.FXGXFXmX:.~ U.kXaX..( W l.b.M.Y.M.` _ F H { ' ~ ",
"t B a.C 6.J g j <.7.0.9.7.7.^ < < = p *X>X,X,X,X2XnX2XK +.-.).-.@.)././.^.L n L (.(./.^.^.(.).+.nXVXlXjXjXgX:XlXVXlXlXlXlXlXlXMXlXlXVXlXlXlXlXVXlXVXlXVXlXlXVXlXVXBXVXBXMXVXFX_.].].].].%X&X&XxX&X&X].].$X$X].zXNXGXGXuX..F.kXVXaXX.( ( l.b.B.Y.b.' _ H _ ` ] | ",
"t J A.J J A f C 1.7.t.9.9.7./ a 9 9 w ,.$X,X,XcXMXmXnXO.L +././.@./././././././.(.(././.(.(.).-.mXMXlXjXjXlXlXlXjXlXlXlXlXlXlXlXlXlXlXlXlXVXVXlXVXlXVXlXlXVXlXVXVXBXBXVXVXVXGX1X].].].%XxX&X&XxX&XxX&X&XFXnX[.FXGXGXNXF.F.jXBXBXyX{ ( ] l.b.M.W.l._ ( ( ( _ ` *.",
"t y.{.i.C B g k 1.9.t.9.7.9.0.E.b w d l *X,XnXmXMXNXnX`.+.-./././.@././.(.%X%X%X].].(.].].].].'.MXlXjXlXlXlXjXjXlXjXlXlXlXlXlXlXlXlXVXlXlXlXlXlXlXlXVXlXlXlXlXlXVXVXVXBXBXVXNXFX[.].].&XxXnXxXxXxXxX&X&XFXcXFXGXGXZX2X;XBXVXMXkX:X` ( ` l.b.n.Y.b.` ( J ( { ` v.",
"C A.C.C.A g t <.1.9.t.9.7.9.Y.!.~.o.z l ;.uXNXNXMXNXMXcXO.)./././././.%X%X%X%X%X&X&X&XxXzX]._.cXlXjXlXjXjXlXlXlXlXlXlXlXlXlXlXlXlXVXlXlXlXVXlXVXlXlXlXlXVXVXlXVXBXVXBXVXBXBXVXZXNX].].&XxXFXFXFXFXnXzX$X$XcXGXGXGXNX:XjXBXVXVXBXI.` _ ` l.b.n.W.b._ H ( ( ( } }.",
"A V.a.C.} g g / 7.0.t.0.7.q.-X0XuX0XR.| I F.mXMXNXMXMXmX<X).).).).).%X%X&X%X&X1X1X&XxXFXNX1XfXlXlXjXjXlXjXlXjXlXkXlXlXlXlXlXlXlXVXlXlXlXVXlXlXlXlXlXlXVXlXVXlXlXlXVXBXlXlXVXVXVXMXnX#X#XxXMXMXNXNXnX&X].cXGXGXGXmX6XbXMXBXBXBXkXv.] ( _ g.m.n.Y.b.` D _ ( ( $.<X",
"4.D.S.a.j.f j 1.7.0.t.7.8.q.0XuXuXuXiX0Xv.~ ;XmXmXmXNXNXMX*X).).).).%X%X2XnXnXnXnXcX1X1X1X*XMXjX~.lXlXjXlXjXlXlXkXlXlXlXlXlXlXlXlXlXlXVXlXlXlXVXlXVXlXlXlXlXVXlXVXBXVXMXlXVXVXlXVXVXjXhXuX,.,.*X1X#X`.mXNXFXNXpXpXqXjXVXVXBXVXjXh.] ( ` l.b.N.Y.b.` _ H ( _ } <X",
"a.D.P.S.y.j c 1.7.t.t.7.0.v.uXgXuXgXiXuXiX-Xv.*XMXNXNXmXMXmX1X-.).].%X%XnXmXmXnXnXnX1X,.#XaXjXjXlXlXjXlXjXlXjXlXlXlXlXlXlXlXlXlXlXlXlXlXVXlXlXVXlXlXlXVXVXlXlXlXBXVXBXlXVXVXBXlXVXBXBXVXBXBXBXjX0X:X;X;X;X;XwXtXdXCXkXCXVXVXBXaX*.] ( R g.b.B.T.b._ W ( ( ) $.2X",
"A.OX XD.4.g E 1.^ t.0.8.q.N.:XuXuXuXgXuXuXuXpX;X:XmXNXMXMXMXMXcX#X-.%X%XfXnXhX*X*X*X*X2XjXhXlXlXlXlXlXjXjXlXlXlXgXlXlXlXlXlXlXlXlXlXlXlXlXlXlXlXlXVXlXlXlXlXlXlXlXVXBXVXVXlXVXMXBXVXVXlXBXBXBXBXkXlXlXBXCXbXBXBXkXVXkXBXVXBXBXiX.._ ( _ l.n.N.Y.l.` ( ( ( ` $.vX",
"D.P.P.S.X.j Q 7.0.t.t.8.q.R.uXuXgXhX0XgXuXaXuXuX;X*.<XaXvXvXmXmX2X*X,.;.;.;.U.uXgXjXjXjXlXgXlXjXlXgXlXlXlXlXjXlXlXlXlXlXlXgXlXlXlXlXlXlXlXlXlXlXlXVXlXlXlXlXlXlXlXlXVXVXBXVXVXVXVXBXBXVXBXBXBXBXkXkXkXkXBXBXdXBXBXBXkXBXBXBXBX8X.._ H W g.m.N.T.b.` H ( ( ) =.MX",
"D.C.P.D.` a / 7.0.t.0.8.q.7XgXuXuXuXuXgXuXaXgXuXuXtXtXF.;X5X=XF.U.;X;X:X0X0X0XgXgXgXgXhXgXgXgXjXgXlXgXlXjXlXlXjXlXlXgXlXlXlXlXlXlXlXlXlXlXlXlXVXlXlXlXVXlXlXVXlXVXlXlXVXBXBXkXVXVXBXVXBXBXVXBXBXdXCXkXdXdXkXdXBXdXBXBXkXBXBXBX6X.._ R R f.b.B.Y.m._ ( ( ( ] *.MX",
"V.D. XS.Y j 7.7.0.t.7.0.v.0XuXgXgX0XhX0XuXiXiXuXiXtXiXtXyXyX9X9XyXiXiXiXiXiXiXiXgXgXgXjXgXlXjXjXjXjXjXlXlXjXlXlXlXlXlXlXlXlXlXlXlXlXlXlXlXlXlXlXlXVXVXlXlXlXlXlXlXlXlXVXVXBXVXlXBXVXBXVXBXBXlXBXkXdXkXCXdXCXBXdXBXdXdXkXkXkXkX=X{ _ D _ f.m.b.Y.m._ ( H G ] =.vX",
"V.P. Xs.j E ^ ^ t.t.7.0.n.tXuXuXuXhXuXgXiXuXiXiXiXiXiXiXiXyXiXiXiXuXaXaXdXgXiXiXjXaXgXkXdXjXjXjXlXjXgXlXjXlXjXjXkXlXlXlXlXlXlXlXlXlXlXlXlXlXlXVXlXlXVXlXlXlXlXVXVXlXBXlXVXVXlXlXBXVXBXBXlXlXjXjXdXkXdXdXkXdXdXBXdXCXBXkXkXkXkXL.{ ( D D w.b.m.R.M.W H ( ( ] p.vX",
"S. XP.x.C Q <.7.t.t.7.0.Y.:XuXuXuX0XiXuXuXiXuXiXuXiXyXyXiXyXiX9XiXyXiXiXyXiXiXdXiXdXdXjXjXjXjXjXjXlXlXjXlXlXjXlXlXlXlXlXkXlXgXlXlXlXlXlXlXlXlXlXlXlXlXlXlXlXlXlXlXlXlXlXAXlXlXAXlXVXkXCXCXkXdXkXCXkXdXkXkXdXkXkXlXAXlXkXkXdXdXG._ _ ( D 5.b.M.Y.b.W ( H ( ` h.<X",
"S. X{.a.j / / 7.t.0.7.q.Y.0XuXuXhXgXuXuXuX9XuX9XuX0X9X9XiXyX9XiXyXyX9XiXyXiXiXiXdXdXiXiXiXdXjXdXlXgXgXlXlXjXlXjXgXlXlXlXgXlXlXlXlXlXlXlXlXlXkXlXlXlXlXlXlXlXlXlXlXlXlXlXlXlXlXAXVXkXVXkXkXkXkXdXdXdXdXdXdXdXkXdXkXlXkXkXdXkXdXj._ _ D Z 5.b.N.Y.b.W H H ( ( k.;X",
"C. XD.u.k 7.7.0.t.8.0. .R.tXtXuX0XuXuXuX9XiX9X9XyXyXyXtXyXyXyXyX9XyXyXyX9XyX9XdXdX0X0XdXgXkX!.kXgXkXjXlXlXjXjXlXlXlXlXgXlXlXlXkXlXlXlXkXlXlXkXlXlXlXlXlXlXlXlXlXlXlXlXlXlXAXlXlXVXBXVXkXkXdXdXCXCXdXkXdXdXdXdXdXdXkXdXdXkXdXaX*.( H F A 3.c.v.Y.b.W H H ( ] x..X",
"C.P.D.y.k / ^ 0.t.8.7. .J.tXuXuXfXuXuXuX0XiX9X9XyXiXiXaXaX9X9X9X9XyXyXyXdXyX9X0X0X9XdXdXdXgXlXlXlXgXlXgXjXlXjXlXgXlXlXlXlXlXlXlXkXlXlXkXlXlXlXlXlXiXdXlXlXlXlXlXlXlXAXlXlXlXlXlXkXlXkXCXkXkXkXkXdXkXdXdXdXdXdXdXdXdXdXdXaXkXyX.._ J D Z 4.l.n.Y.b.W H H ( ` k.F.",
"C.P.P.} Y  .7.t.0.7.8.g.P.tXuXuXuXuX0XuX0X9X9X9X9XyXjXaXaXtX9X9X9X9X9X9X0X9XdX9XdXyXdX9XdX0XdXkXgXlXgXlXlXjXlXlXlXlXgXlXlXlXlXkXlXkXkXlXlXkXlXkXdXwXyXdXlXlXlXlXlXlXlXlXlXAXlXlXVXlXkXVXBXkXdXbXdXkXdXdXdXdXdXdXdXdXdXdXdXdX-X{ R J D A X.b.b.Y.b.R D G ( ` v.G.",
"a.S.D.` E ^ ^ t.q.8. .m. X=XtXuX0XuXuX9XuX9X9X8X9X8XyXiXyX9X9X9X9X9X9XdX9X9X9X9X!.dX9XdX0XdXjXlXgXgXlXgXgXlXlXjXlXgXlXlXgXlXgXlXkXlXkXkXlXkXlXkXwXrXrXsXlXlXlXlXlXlXlXlXlXlXlXVXkXlXkXkXBXdXkXdXdXdXdXkXkXdXdXdXdXdXdXdXdXjXL.` J D D Z  .l.b.Y.l.W W ( R ] k.m.",
"S.p.Z.R ^ ^ 0.t.8.1.2.k..XXX8XtXuXuXuX9X8X9X8X8X9X9X9X9X9X9X9X9X9X9X9X9X9X9XdX9XdX0X0XdXkXdXkX!.gXlXlXlXlXgXgXlXkXlXlXlXlXlXlXkXlXlXlXkXkXkXBXdXsXwXwXyXlXlXlXlXlXlXlXlXlXlXlXlXVXlXlXkXkXkXBXdXkXdXdXdXdXkXdXdXdXdXdXdXjXdXn.] J D A A  .g.b.K.m.D H D R ( f.J.",
"D.P.k.R / ^ 0.t.7.8.5.k. XXX6XuXuXuXtXuX9X9X8X8X9X6X9X8X9X9X9X9X9X9X9X9X9XdX9X9XdX!.dX0XdX0XlX0XkXgXgXgXlXlXgXlXlXlXgXlXgXlXlXlXjXkXlXlXlXlXlXkXdXyXrXyXkXlXlXlXlXlXlXlXlXlXlXlXlXlXlXlXkXBXkXkXdXCXdXdXdXdXdXdXdXdXdXkXdXdX0.! F D A D ` g.m.K.l.W D D G ( ..m.",
"D.L.j.F ^ 7.0.t.7.^ d.g. XXX5XtXuXuXuXuX9X9X9X8X8X8X8X8X9X9X9X9X9X9X9XdX0X9X9X9X9XdX0XdXdXdXdXdXlXgXgXlXgXlXgXlXlXlXlXgXgXlXlXlXlXjXlXlXjXlXlXlXlXgXiXyXkXlXlXlXlXlXlXlXlXlXlXlXlXlXlXlXlXlXkXkXkXkXbXdXkXdXkXbXdXdXkXdXdXaX*._ D H A A ` g.b.B.l.R D G D ( ` x.",
"C.S.a.k ^ 7.0.0.^ 8.Z.x. XOXXX6XuXuX9X0XuX9X9X8X8X8X6XtX9X9X9X9X9X9X9X9XdX9X9XdX9X9XdXdX0XdXjXiXgXgXlXgXgXlXlXgXgXlXlXlXkXlXlXgXjXlXlXjXlXlXlXlXlXlXlXlXlXlXlXlXlXlXlXlXlXlXlXlXlXlXlXlXlXBXBXkXdXdXkXBXdXdXkXdXbXBXdXaXkXiXX.D D D A A ! g.b.N.l.R D H ] _ ) k.",
"g j.4.E ^ 7.t.0.8.5.G.Z. XXXXX=XtXuX0X0X9X0X0X9X9X9X9X9X9X9X9X9X9X9X9X9X9X9X0X0XdX9XdX0XdX0X0XlXgXlXjXgXgXlXlXlXgXlXgXlXlXlXlXgXlXlXkXlXlXlXlXlXlXlXlXjXkXlXlXlXlXlXlXlXlXlXlXlXlXlXlXlXlXBXBXkXBXkXdXdXBXdXjXkXkXkXdXBXdX=X` ( D D V S ! g.b.B.l.R D ( =.h.{ d.",
"0 u C E ^ ^ t.0.8.h.G.P. XXXXX+X8XuXuXuX0XtXtX9X8X9X9X9X9X9X9X9XdX9X9X9X9X0XdX0X9XdX0XdXjXlX0XjXgXlXgXlXlXgXgXlXlXlXgXlXgXlXlXlXlXjXlXjXjXlXlXjXlXlXlXjXiXlXlXlXlXlXlXlXlXlXlXlXlXlXlXlXlXBXBXlXkXBXBXkXBXBXBXjXkXkXkXBXjXh._ D D A S A W q.b.N.l.R H ( V.}.) X.",
"0 0 e E ^ 7.t.^ 2.x.Z.P.XX{.OXXX5XuXtXtX0X9XuX0X9X9X9X9X9X9X9XiX0X9X9X9X9XdX0XdX0XdXdXlXdXgXgXjXjXjXjXgXjXgXjXlXgXlXlXlXgXlXlXlXlXjXlXkXlXlXlXlXlXlXjXjXgXlXlXlXkXlXlXlXlXlXlXlXlXlXlXlXlXBXBXBXBXBXkXBXjXBXBXBXkXdXBXBXjX..( D A A A A H d.b.m.g.R H ( }.<X] { ",
"0 6 q v ^ 7.t.7.3.x.Z.P. X XD.XX+X6XuX0XtXuX9X0X9XyX9X9X9X9X9X9X9X9X0XdX0X9XiX0XdX0XdX!.iXjXdXgXgXjXjXjXjXlXgXgXgXlXgXlXlXlXgXkXlXlXjXjXjXlXjXjXlXlXlXjXjXjXlXlXlXkXlXlXlXlXlXlXlXlXlXlXlXBXVXBXBXBXBXBXBXBXjXBXkXBXBXjX:X{ ( D A A A A W f.l.b.g.D H ( }.<X*.) ",
"6 6 w Q ^ 7.0.^ / D.Z.P. XOX X XXX=XuX0XuXuX0XuXyXuXiXiXyXuXiX9XdX0X9X0XdX0XdXdXjX0XgXgXgXgXjXgXgXjXjXjXjXjXjXlXlXgXlXlXgXlXlXlXjXlXkXlXjXlXlXlXlXjXlXlXlXlXlXlXkXlXkXkXlXlXlXlXlXlXlXlXlXVXBXVXVXBXBXBXBXBXBXBXBXBXBXjXL.` H A A B A H Z w.l.b.f.Z H #.<X<X>.] ",
"6 6 r Q 7.0.0.^ 3.Z.x.D.D. XP.D. XXX:XtXuXtXuXuXuX0X9XuXyX9X9XiX9XdXdX0XdXiXdX0XdXkXgXgXgXgXgXlXjXjXgXgXjXjXgXlXgXlXlXgXlXgXgXlXlXjXjXlXkXjXlXjXjXlXjXjXlXlXjXlXlXlXlXkXlXkXlXlXlXlXlXlXlXBXBXVXBXBXBXBXBXBXBXBXBXBXBXaX*.( D H A A A A Z w.l.b.d.D H =.<X1X}.] ",
"6 9 d b <.0.7.^ r j ' ` ` [ 4.4.S. X=XtXuXtXuXtXuXuX0XuXiX0XgXfXiXiXiXiXiXiXiXgXiXiXgXjXgXjXjXgXgXlXgXlXgXgXgXgXgXjXjXkXjXjXkXjXjXlXjXjXlXlXjXjXlXlXjXlXlXlXlXlXlXlXlXkXlXjXlXlXlXlXlXlXlXBXBXBXVXkXMXlXjXBXlXBXBXBXjXtX) ( A A C C A A Z 5.g.b.w.D ( >.<X<X<X#.",
"5 6 k ^ ^ 9.<.b r h j u u t u g }  XOX6XtXuXuXuXuX0XgXgXuXiXgXuXiXiXiXfXgXgXgXgXgXgXgXgXgXgXgXgXgXgXgXgXgXlXlXgXjXjXjXjXlXlXjXkXkXjXkXkXjXlXlXlXjXlXjXlXlXlXjXlXlXlXlXkXlXlXlXlXjXlXkXlXjXlXBXBXkXBXlXBXBXlXBXlXlXBXjXF._ D S A B C C A Y 3.g.c...D _ }.<XzX<X#.",
"6 6 z ^ ^ 0.^ v y f j t t q t t j a.XXOXtXtXuXtXuXuXuXuXiXuXuXgXiXiXiXgXiXgXgXjXgXgXgXjXjXgXjXgXgXlXkXgXgXgXgXlXjXjXjXlXjXjXjXjXjXjXjXlXlXjXjXlXlXlXlXjXlXjXjXlXlXlXkXkXlXlXlXlXlXlXkXjXlXlXBXBXBXkXBXlXlXlXlXBXlXjXuX*.( D S A B A A C D  .g.g.5.R ) |.zX<X,X=.",
"5 6 c b 7.7.^ k 0 h r 6 6 6 7 7 i F P. X5XtXuXuXuXuXgXuXuXgXuXgXiXiXgXgXiXgX0XgXgXgXgXgXgXgXjXgXgXgXgXjXgXlXjXgXjXjXjXjXjXjXjXlXjXlXjXjXjXjXjXjXgXjXjXjXjXlXlXlXjXjXkXkXjXlXjXlXkXlXlXlXlXlXMXjXBXBXBXBXlXMXBXjXlXhX=X` R D A A B C A S R 3.g.g. .( #.,X<X<XoX>.",
"< 0 c ^ <.7.b d 0 h t 7 6 6 6 t t i &. XOX;XuXtX0X0XgXgXuXuXgXuXgXgXiXgXfXjXkXgXgXgXgXgXgXgXgXjXjXjXgXgXjXgXgXjXjXgXjXkXjXgXjXjXlXjXlXjXjXjXjXjXjXjXjXjXlXlXVXlXjXlXjXlXjXlXjXlXlXkXlXlXkXlXlXlXhXlXlXMXlXBXBXlXjXiX..( G A A V V B A A W  .f.g.$.G $.>XzXzX<Xs.",
"4 9 c ^ <.7.b r q h 0 6 6 6 4 6 6 t V V. XXX8XuXuX2XgX0XgXuXuXgXiXiXgXuXiXgXgXgXgXgXgXgXgXjXgXgXgXgXkXgXjXgXkXgXgXkXjXgXjXjXjXjXjXjXjXjXjXjXjXjXjXjXlXjXjXjXfXlXjXlXlXlXjXlXlXlXlXjXlXlXlXlXlXlXVXlXlXBXhXBXVXhXjX=X` S A A A V A A A A R  .e.g.J J >.<XzX<X,X>.",
"5 5 c b <.^ b 0 6 h 6 6 6 6 4 6 0 t t W P.OX=XtX0XhXhX0XgXuXuXuXgXuXuXgXiXgXiXiXgXiXgXgXgXgXjXgXjXgXgXgXgXjXjXjXgXjXgXjXjXjXjXlXjXjXjXjXjXjXjXjXjXjXjXjXjXjXjXlXjXjXlXjXlXjXlXjXlXlXkXjXlXjXkXlXlXlXBXBXlXlXlXjXtX*.S A A A V B A V V S W  .f.g.[ H }.>X,X,X,X_.",
"5 4 c b ^ ^ c 0 0 h 7 5 6 6 5 6 6 6 t i X. XXX6X:X0X0XhXuXuXgXgXuXgXuXuXgXiXgXiXgXgXgXgXgXgXgXgXgXgXgXgXkXgXgXjXjXgXkXgXjXjXjXjXjXjXjXjXlXjXjXjXjXjXjXjXjXlXjXjXjXjXjXlXjXlXlXjXjXlXlXkXjXkXlXlXBXjXjXlXjXlXjXhXL.( A A A V B B A V A S ' ! g.d._ #.oX,X,XzX>XA.",
"5 9 c b <.b c q 6 h 7 5 6 6 5 6 6 6 7 f g s.{.OX6X9XuXuXuXgXuXgXjXgXgX0XgXgXgXgXgXgXgXgXgXgXgXgXgXgXgXgXgXgXgXjXgXkXgXgXkXgXjXjXjXjXjXjXjXjXjXaXjXjXjXjXjXjXjXjXjXjXjXjXlXjXBXhXBXBXlXBXlXlXhXlXMXlXlXlXjXlXjX8X4.A C C A B B B A B G A  .Q g.f.` #.oX,X,X,X>X}.",
"5 9 c b b b k 9 7 h q 5 6 5 6 6 6 7 6 7 t F D.{.OX9XuXtXuXuXuXuXfXuXgXhXuXgX0XhXgXgXuXgXgXgXgXgXgXgXgXgXgXjXjXgXjXgXgXjXjXgXjXgXgXjXgXkXjXjXaXdXgXgXgXgXjXjXjXjXjXjXjXlXjXhXlXlXlXhXlXBXhXBXBXBXlXjXBXBXmXjXaX:.J A B C B A B B A A B A 4.` w.f.( :.oX,X,X,X>X>.",
"5 9 c b ^ b d 9 q d 7 5 5 2 6 6 6 6 7 7 7 t J {.OX5X8XuX0XgXuXgXuXgXgXuXgXhX0XgXgXgXgXgXgXgXgXgXgXgXgXgXjXgXgXgXjXjXjXgXgXgXjXjXjXgXgXgX9X0X3XW.R.L.U.=X;X8XgXgXjXjXjXjXjXjXjXBXhXVXlXhXBXBXBXBXjXmXjXjXjXaXR.! A A B B B B B A V A A G  .' f.d.R >.oX>X>X,X>X_.",
"4 9 c ^ b b d 0 6 d 6 7 5 2 5 6 6 6 6 6 7 t t 6.D.P.XX9XuX0X2XuXuXuXuXgXuXgXgXgXgXgX0XhXgXgXgXgXgXgXgXgXgXgXgXjXgXgXgXgXkXgXjXgXgXiX4Xk./ Y s 5 8 > : : > p F.gXjXjXjXjXjXjXlXhXhXlXlXlXhXlXjXBXlXjXlXjXjX:X` D A B B B B B B A V B V H ' ` e.w.) `.oXoX>X>X>X>.",
"4 9 c b b b r 0 6 s 7 5 6 2 6 6 6 6 6 7 7 7 7 j y. XXX4X0XuXtXuXgXuXuXuXhXuXgXuXuXgXgXgXgXuXgXgXgXgXgXgXgXgXgXjXgXgXjXkXjXgXaXaXW.z.6.6.6.6.6.6.E h 4 = * : p ;XjXjXjXjXhXjXlXBXlXlXjXMXjXMXjXjXjXBXjXjXpX..R S C B B B B g B B B V V W W ' g...G oXoXoX>X>XoXs.",
"4 9 x b b b d 4 7 s 6 5 2 2 6 6 6 6 6 6 7 6 7 7 j i. XOX;XuX0XuXuXuXuXgX0XgXuXgXgXuXuXgXgXgXgXgXgXgXgXgXgXjXgXgXjXgXgXgXgXgXiXI.b.r.z.r.r.r.6.6.6.6.6.h : = : v.hXjXjXjXlXjXjXjXlXjXlXjXlXBXjXlXMXjXjXgXh.R A S C B B B B B B C V V C W Z  .q. .>.oX[.>XoX>X[.=.",
"4 0 z b ^ v e 0 7 f 6 7 2 2 5 6 6 6 6 6 6 7 7 7 t j j.P. X4X0X2XuXuXgX0XgXuXgXuXuXgXuXgXgXgXgXgXgXgXgXgXgXgXgXgXgXgXgXgXgXgXT.z.z.r.r.r.r.r.r.r.r.r.6.6.Z < : | gXjXjXjXjXjXjXjXlXmXjXlXjXjXjXjXjXgXaXx.R D S V B B g g g B B B B V A ` Z  .q.) >.oX[.[.>X>X[.=.",
"4 4 k v b b r 4 7 f 7 7 2 2 6 6 6 6 6 6 6 6 6 6 7 i V a. XXX6X0XuXuXuXhXgX0XuXgXgXuXgXuXuXgXuXgXgXgXgXgXgXgXgXgXgXjXgXgXaX0Xz.z.z.z.z.r.r.r.r.r.r.r.r.r.w.a > v.gXjXjXjXjXjXjXjXjXBXjXjXjXMXjXjXjXgXU.) D Z V V B B g g g B B B B A V } Z  .d.` _.oXoXoX>X>XoXG ",
"4 5 d b b b r 9 4 h 0 5 2 2 6 5 6 6 5 6 6 6 6 6 7 t t A i. XXX5XtXuXuXuXuXuX0XgXgXgXhXgXgXgXgXuXgXgXgXgXgXgXgXgXgXgXgXgXgX7Xb.b.z.z.r.r.r.r.r.r.e.r.l.l.z.o.v.uXjXhXjXjXjXjXjXjXjXjXjXjXjXjXjXjXiXU.) Z C C B B B g B g g g B C B j Z ' Z  .u.] }.oXoX[.oXoX_.J ",
"4 4 d v b v e 9 4 a q 5 2 6 5 5 5 5 6 6 6 6 6 6 6 6 7 t V i.P.XX=XuXuXuXgXuXhXgXuXgX0XgXuXuXgXgXgXgXuXgXgXgXgXgXgXgXgXgXgXuX9XT.M.M.b.M.M.b.b.l.t.Y.T.4X9XaXgXjXjXgXgXjXjXhXjXjXjXjXjXjXjXjXgXgX=X` Z A C C B B g B g t g g B B C C W W A ..5.#.[.oXoXoXoXoX>.G ",
"4 4 9 v b v r 4 5 r r 4 2 6 5 5 6 6 6 5 6 6 5 6 6 6 7 q t V X.P. X5XtXuXuXuX2XgXuXhXhX0XgXuXuXgXgXgXgXgXuXgXgXgXgXgXgXgXgXgXgXgXdXiXiXiXiXiXaXaXgXgXgXgXgXjXgXgXgXjXgXjXjXjXjXjXjXjXjXjXjXgXgXR.) S A V B B B B B g g t g B B B B C ! Z Z ..4.*.[.oXoXoX>X>XG G ",
"4 4 9 x b v d 4 5 q r 5 2 5 2 5 6 2 6 6 6 6 6 6 6 7 7 6 q t g ' P.XXXXtXtXuX0X0XgX0XuXgXuXgXgXgXuXuXgXgXgXgXgXgXgXgXgXgXgXgXgXgXiXaXgXgXgXgXgXgXjXgXhXgXgXgXjXjXjXgXjXgXjXjXhXjXjXjXgXgXhXgXF.R S V V V B B g B g g B g g B g B B V [ Z Z 5.4._.oXoXoXoX[.>XG G ",
"2 4 9 k v v d 9 1 6 s 2 5 5 5 5 2 2 6 6 6 6 5 6 6 6 7 6 6 t t i ( Z..X=X8XuXuXuXuXhX0XgXgXuXgXuXgXgXgXuXgXgXgXuXgXgXgXgXgXgXgXgXgXgXgXhXgXgXjXhXgXgXgXgXhXjXjXgXjXhXjXgXjXjXgXjXgXjXjXgXuXv.G V j V g g g B g g g g g i g g g B B C ' V D 4.{ `.[.oXoXoX[._.G G ",
"2 4 9 d v v d 4 5 5 d 2 5 5 5 5 2 6 6 6 6 5 5 6 6 6 6 6 7 7 0 t i _ A.XXXX:XtXuXuXuX0XuXuXgXuXgXgXfXgXgXgXgXgXgXgXgXgXgXgXgXgXgXgXgXgXgXgXgXaXjXhXjXjXjXgXgXgXjXjXjXhXjXfXlXjXgXjXgXgXuX*.S A B g g g g g g g g B g g g g B g B V D W V A 4...`.[.oX[.oX[.J G G ",
"4 4 4 e v v z 9 5 2 r 5 5 5 5 2 2 6 6 2 6 6 5 6 6 6 6 6 6 q 7 t i } D.S. XXXqXtX0XuXgXhXuXgXiXhXgXgXgXuXuXgXgXuXgX0XgXgXgXgXgXgXgXhXgXuXhXhXhXgXjXgXhXjXgXgXgXjXfXjXgXjXgXjXgXjXgXgX9Xo.R S B B i g g g g g g g g g g g g B g B C ! Z V H y.J _.[.}.[.[.[.G G J ",
"4 2 < e v v c 9 5 2 9 r 5 5 5 1 2 2 6 6 5 6 6 6 6 6 6 6 6 6 6 7 i  . X.XS. XXX=XtXuXfXuXgXuXuXuXuXuXuXgXhXuXgXgXgXhXgXgXgXgXgXgXgXgXgXgXgXaXjXjXhXjXgXjXgXgXgXjXgXjXgXjXgXgXgXgXiX:X..Y V j B t i g g g g g g g g g t g g g g B V ` V A H y.J }.[.[.[.[.=.G G _.",
"9 2 1 9 k v v 9 5 5 7 s 5 2 2 2 2 6 6 2 6 6 2 6 6 2 6 6 6 6 7 7 t y.P. XOXP.V.XX+X6XuXuXuXuXuXuXgXuXuXuXuXgXuXgXgXgXuXhXgXgXgXgXgXgXgXuXfXhXjXgXgXgXjXjXhXhXgXgXgXgXgXhXgXgXgXuX-X~ S V B B B B t i i g g g B i g i i V g g g C C W V V W ~ ) `.|.'.|.`.G G G `.",
"9 2 2 9 d v v r 5 5 6 d 5 5 2 5 6 2 6 2 6 6 6 2 2 7 7 2 6 7 7 7 u u. XXXXXXXXX{.D.XX=XtXuXuXuXuXuXuXgXgXgXuXgXgXuXgXgXgXgXgXuXgXgXgXgXU.,.2X*X;.:XgXfXgXuX:X,.2XgXgXgXfXgXgXiXU.W S V j 7 B t B g t g g i g i i g i i i g g g g F Z V V ! W { `.'.|.|.=.G G =.|.",
"9 r 5 2 9 c v d 5 5 5 r 7 2 2 5 2 2 6 2 6 2 2 2 7 6 6 6 2 7 6 7 u a.P.OXXXXXOXXX XS. X.X6XuXuXuXuXgXuXgXuXgXgXuXgXgXgXgXuXgXgXgXgX0XI @ - - - , @ ,., , , @ - - , U , - o.:XF.R V j g g t B B t g t g g g g i B g g i g g j g C ' S V V ` ! ( F.'.'._.G G G _.}.",
"1 r 9 9 9 z v k 9 2 5 6 e 2 5 5 6 6 2 2 2 6 2 2 6 2 2 7 7 7 7 7 u C. X X XXXXXXXXX.X XS. X=X6XuXuXuXuXuXgXuXgXuXgX0XuXgXuXgXuXgXgX:X- #XfX;.l ;.X @ ;.fX,.,.U.U.- @ ,.fX@ | Y j j g g i 7 B t B g t i i g g B y g i g i i B g j W i V V  .W { >.`.}.#.S G =.}.oX",
"2 9 d 9 5 r v c 5 5 2 9 d 2 5 2 2 6 2 6 6 2 6 6 6 6 6 5 7 6 7 7 u S. X XXXXXXXXXXXXXXXXX XV..X6XtXtXiXuXuXuXiXgXhXgXhX0XgXuXgXgXgX:X@ hXnX2XU @ #X. l nX;.;., ,..     ;.- 8 j g g g t g t g B t g i i i y B y B g i i i g g V F Z V B S ! ! ` :.`.=.G A G `.|.|.",
"1 5 d r 5 9 c v e 9 2 5 s 9 2 5 2 2 2 6 6 2 2 2 5 5 6 6 2 7 6 2 u P. XOX X XXXXXXXXXXXXXOXXX XS.=X:XtXuXuXuXuXuX0XgXgXgXgXuXuXgXgX:X@ *X:.U U ,.,   U mX,.U.U ,.@ - $ O.. y g g g g g i t i y B i i t B B i B B g t g i g g j W C j j Z ! ! ! %.>.G G G >.'.|.|.",
"2 2 5 d r 9 d v k r 9 2 9 s 2 2 2 2 2 2 2 2 2 6 5 6 6 6 6 5 1 6 y. X X XXX XXXXXXXXXXXOXXXXXXX XZ. X=XtXuXuX0XhXuXhX0XhXuXgXgXiXgX:X@ *XhXU l #X-   U mX,.#X;.,.+ , U + * g g i i t g t i t B t B B B B S S B S B t B B g g j E g B g C / ~ R ) G G A =.}.|.|.oX",
"1 2 5 d k 9 r v c d r 9 5 d 2 5 6 2 6 2 2 2 6 2 2 6 5 6 5 1 q a.D.{. X XXXXXXXXXXXXXXXXXXXXXOXXXXXXXS.A.;X0X0X0XuX0XgXuXuXgXuXhXuX;Xl 2XmX*X@ ,..   U , U.| *X;.@ X U X : g g i i g i t g B B B B S N G | %.%.%.) N B i g g C F j g B C / ! Y i B A G _.'.oX|.oX",
"1 1 2 e c d 9 z v d k 5 5 e r 2 2 4 2 2 2 4 4 5 6 6 5 6 4 i j.P.OXD. X X XXX XXXXXXXOXXXXXXXXXOXXXXX+XXX XS..XtXtXtXuXgXuXuXuXiXgX:X, @ ;.X . ;.. ;.. , @ , @ , . . * . : i i g g g i i a B S S %.:.#X#X#X#X#X#X`.T B B i B F F B i i Y 2.Y R a S G >.'.[.|.|.>X",
"1 1 2 2 d c d d v x z d 5 5 d 5 4 4 4 2 2 4 5 6 6 6 0 6 8 j.D.P. XP. X XXX XXX X X.X{.XXXXXX XXXXXXXOX+XXXXX XS..X6XtXuXuXuXuXuXuXgXgX, . ;.l @ l fX*X& - . X . > ` : : i B V V B B i i S %.%.,.#X%X#X#X#X*X#X1X`.N B i i i Q j i B B Y 2.Y Y S G >.'.'.|.>X|.|.",
"1 1 2 2 9 c c d z v z c e 4 e 9 2 4 2 2 6 2 5 6 6 7 i ' k S.P. X X X X.X.XP. XXX XXXXXXXXXOXXXXXXXXX+X.XXXXX.X.XXXS.{.;XtXtXuXuXuXhXuX:XfX2X:X:XfXgXuX;XF.L.;XL..X X XP.D.A.y.&._ Z S ) >.`.`.|.#X#X#X*X#X*X#X#X,.G B i i V W j i V i Y 2.R Y W =.`.[.'.*X|.>X|.",
"1 1 1 2 9 d c c d v v z k 9 5 k 4 2 2 2 6 6 6 0 t G V.y.T A.P. X X X X X X.X XXXXX XXXXXXX{.XXXXXXXX.X+XXXXXXXXXXXXX.X XL.L.:XtXuX0XgXgX0XgXuXuXfX:XF..XXX+X+X=X+X+XOX+XXXXXXXXX.X X XL..X.X}..XL..XF.}.F.,.U.,.:.S B i i j Z g B a j Q ..R R X.>.'.'.'.'.'.|.|.",
"1 1 1 1 < e c v v z v z c r 6 r y 2 2 5 6 6 t V y.Z.S.a.R S. X X X X X X.X X.X XXXXX.X XXXXX XXXXX X XXX.XOXXXXXXXXXOXOX.X X X X=X:XtXuXtXuXtX0X-XL...P.XX+X+X5X+X+X+X+XXX+X+X+X+X+X+XXX.X+X+X@XXX+X+X+X=XXX+X.X:.A i B i i V i i i Y  .q.v.,.>.;.`.`.`.`._.`.`.",
"1 1 1 1 < < z v v v v v z x 9 9 u 4 4 6 6 i R V.S.D.P.V.Y V. XD.D. XP. X.X X X X{. X XXXXXXXXXXXXXXXXXXX+XXXXXXXOXXXXXOXXX.X.XXX.Xx.L.=X:X8X-XL..XXX..P.+X+X+X+X+X+X5X+X5X5X+X5X+X+X+X5X+X+X+X<X+X5X+X+X+X5X+X.X>.S B i i i i i i i Q ..q.;XcX2X#X,.,.:.;.:.-.;.",
"1 1 1 < < < r v v b v v k c k 9 s e 4 6 V j.Z.D.D.D.D.Z.R h.D. X X XP.P. X X.X X X.X X.XXX XXXXXXX XXXXXXXXXXXOXXXXXXXOXOX.XXXOX+X+X.XXXXX XXXXXXXXX..L.OX+X+X+X+X+X+X+X@X.X+XXX+X+X+X+X+X+X+X+X5X@X.X+X.X@X+X.X>.S B B i i i i u j  .0.q.*XnXmXnXnX1X:.;.U U U ",
"1 1 1 < < < 9 z v v v z v d c r 0 f 7 [ C.S.S.S.P.D.D.L.` d.D.D.D. X X}. X X X X X X X X X X XXX X X XXX X XXXXXXXXXXXXXXXOXXXOXXX.XXXXXOXXXXX+XXXXX..P.XXXX+XXX+X+X+X+X.X@X+X+X+X.X5XXX+X+X+X+X+X+X@X.X@X<X+X.X=.B B i i i i i i ! 8.0.q.;X2XnXnXmXnXnX,X:.K , "
};
