/* XPM */
static char *out[] = {
/* columns rows colors chars-per-pixel */
"128 128 233 2 ",
"   c #040304",
".  c #0B0404",
"X  c #090709",
"o  c #100506",
"O  c #150C05",
"+  c #1A0E06",
"@  c #150E0A",
"#  c #1B0E0A",
"$  c #16100A",
"%  c #1A140A",
"&  c #1A120C",
"*  c #100F12",
"=  c #151515",
"-  c #1B1514",
";  c #171916",
":  c #1A1A16",
">  c #181719",
",  c #171B19",
"<  c #1B1B1B",
"1  c #200E0C",
"2  c #24140E",
"3  c #2A160F",
"4  c #231613",
"5  c #291711",
"6  c #251B16",
"7  c #2D1C15",
"8  c #241D1A",
"9  c #2D1D1A",
"0  c #301E16",
"q  c #311D1A",
"w  c #29221A",
"e  c #2D221C",
"r  c #322117",
"t  c #33231C",
"y  c #39261F",
"u  c #34291E",
"i  c #3A2A1E",
"p  c #1E1F20",
"a  c #291E20",
"s  c #311F21",
"d  c #1C2120",
"f  c #242323",
"g  c #2C2422",
"h  c #2A2925",
"j  c #2C2C2C",
"k  c #342521",
"l  c #392622",
"z  c #352A23",
"x  c #3B2B24",
"c  c #362D2A",
"v  c #3C2D2A",
"b  c #2F312D",
"n  c #3C3126",
"m  c #35312C",
"M  c #393529",
"N  c #3C332C",
"B  c #362D31",
"V  c #3B2F33",
"C  c #353333",
"Z  c #3B3233",
"A  c #3D3B34",
"S  c #353638",
"D  c #3C3C3B",
"F  c #412E26",
"G  c #412F2A",
"H  c #423126",
"J  c #43342C",
"K  c #49362E",
"L  c #43392E",
"P  c #4A3B2E",
"I  c #433632",
"U  c #493731",
"Y  c #453C35",
"T  c #4C3C33",
"R  c #413739",
"E  c #463D3A",
"W  c #493E3A",
"Q  c #513632",
"!  c #513E36",
"~  c #513F39",
"^  c #3F4133",
"/  c #3E423B",
"(  c #49422F",
")  c #424435",
"_  c #4E4134",
"`  c #44443A",
"'  c #4B423C",
"]  c #46493C",
"[  c #48493A",
"{  c #514135",
"}  c #53433B",
"|  c #59463D",
" . c #54483E",
".. c #5B4A3E",
"X. c #393C44",
"o. c #383E50",
"O. c #3D424A",
"+. c #444443",
"@. c #4D4442",
"#. c #464943",
"$. c #4A4B43",
"%. c #43464A",
"&. c #4C4C4B",
"*. c #524642",
"=. c #594641",
"-. c #544A44",
";. c #5C4C44",
":. c #544D49",
">. c #5C4D49",
",. c #4E504C",
"<. c #5C5147",
"1. c #575448",
"2. c #54544D",
"3. c #5C524B",
"4. c #454C57",
"5. c #4D5255",
"6. c #545453",
"7. c #5B5553",
"8. c #5C5A55",
"9. c #555959",
"0. c #5B5B5B",
"q. c #614E45",
"w. c #614E49",
"e. c #684B49",
"r. c #635146",
"t. c #685546",
"y. c #64534B",
"u. c #69564D",
"i. c #65594E",
"p. c #6B594E",
"a. c #72504E",
"s. c #655651",
"d. c #6A5651",
"f. c #655A53",
"g. c #6D5B53",
"h. c #645D5A",
"j. c #6C5E5A",
"k. c #745453",
"l. c #7A5453",
"z. c #715E55",
"x. c #715E59",
"c. c #795A59",
"v. c #5E605B",
"b. c #656057",
"n. c #6D6055",
"m. c #63625C",
"M. c #6D625B",
"N. c #726056",
"B. c #73625B",
"V. c #78695E",
"C. c #575B62",
"Z. c #6A5F60",
"A. c #5C636B",
"S. c #646463",
"D. c #6C6662",
"F. c #6B6A65",
"G. c #666969",
"H. c #6C6D6C",
"J. c #736561",
"K. c #796661",
"L. c #746A64",
"P. c #7B6B65",
"I. c #746D6B",
"U. c #7C6E69",
"Y. c #6E716C",
"T. c #74726C",
"R. c #7A756B",
"E. c #7C736D",
"W. c #666B73",
"Q. c #776F70",
"!. c #6D7276",
"~. c #737473",
"^. c #7C7572",
"/. c #7C7A74",
"(. c #757978",
"). c #7C7C7B",
"_. c #816D68",
"`. c #83736D",
"'. c #86746D",
"]. c #837672",
"[. c #897673",
"{. c #847A75",
"}. c #8A7B75",
"|. c #857E7A",
" X c #8B7E7A",
".X c #917D7A",
"XX c #7E807D",
"oX c #898176",
"OX c #85827C",
"+X c #8B827D",
"@X c #92837D",
"#X c #98857B",
"$X c #7D7D82",
"%X c #837F80",
"&X c #7E8281",
"*X c #848483",
"=X c #8C8582",
"-X c #858985",
";X c #8B8A85",
":X c #8A8788",
">X c #868A8A",
",X c #8C8C8C",
"<X c #918582",
"1X c #978983",
"2X c #918D8D",
"3X c #8D908E",
"4X c #90918D",
"5X c #8D8E91",
"6X c #918F90",
"7X c #8E9191",
"8X c #8B9499",
"9X c #929292",
"0X c #999997",
"qX c #9B9B9B",
"wX c #A28F89",
"eX c #A1A19F",
"rX c #A4A5A4",
"tX c #A4A9AA",
"yX c #ABABAB",
"uX c #B3B3AF",
"iX c #B4B4B4",
"pX c #B9B9B7",
"aX c #BCBCBC",
"sX c #BFC0BA",
"dX c #C4C4C4",
"fX c #CCCCCC",
"gX c #D0D1CD",
"hX c #D4D4D4",
"jX c #DBDBDB",
"kX c #E1E1DF",
"lX c gray89",
"zX c #EBEBEB",
"xX c #F4F4F4",
/* pixels */
"Z V V V V S Z Z G V V R V V V R V V V V C Z A N N m N ;.f.g.g.z.N.g.y.w.g.z.y.d.d.w.;.;.l G d.x.x.x.x.g.x.g.x.d.g.x.B.k.*.0 K y.g.x.x.g.g.x.x.d.w.U q K w.g.x.x.x.x.x.g.x.d.z.g.z.g.g.N.n.N.p.n.P i { p.N.p.N.p.p.q.y.g.N.z.Q } R E @.R R R E E R E Y E Y T E E ",
"V Z V V V V V R V V V V R V V V V V V V Z N m N Z N ' f.f.z.g.u.g.u.u.f.d.u.u.u.;.w.y.U y q.z.c.x.j.g.x.x.x.x.x.g.z.B.u.J q ~ g.g.x.x.g.g.x.z.g.! q J y.x.d.N.x.x.x.x.x.z.x.z.z.g.g.g.N.n.p.N.t.H F { p.N.p.N.N.p.q.u.g.z.N.x.W ' E R R R E E R E R R Y E E T E ",
"V V V V V V V V V V V V V V V V V V B V Z Z c m c I 3.n.f.p.f.p.q.y.x.d.d.d.w.| q.p.~ 0 K p.x.x.z.z.x.z.x.g.x.g.d.z.z...0 F q.z.g.x.x.g.d.x.z.q.F G e.g.c.B.B.x.x.g.x.z.g.z.x.x.g.g.g.p.p.p.p...H H | p.N.N.N.a.p.| r.z.p.t.[.>.W E Z W E R E R R U E E E _ ) E ",
"V Z V Z V V V V V V V V V V V R V V B S m Z N N N -.f.f.p.z.z.p.q.u.z.u.u.u.;.;.p.w.l q q.p.z.N.z.z.z.z.g.z.z.x.z.g.p.K 5 K e.z.d.x.x.z.z.z.d.| T y.z.z.N.B.x.z.z.z.z.g.x.g.g.z.N.n.t.<.p.n.u.{ n H ..p.N.p.N.p.g.! ..p.g.~ k.B.W E I R R E E R E Y E Y E E E T ",
"V V V V V V V Z R V V R R Z Z Z S V Z B m Z Z c ' f.p.u.p.N.z.r.y.p.y.u.y...q.d.u.K r K p.N.z.N.p.z.z.z.z.z.g.z.N.z.;.y 0 ! p.z.z.z.z.z.z.g.t.;.t.N.N.B.N.z.z.z.z.g.z.x.g.z.x.z.N.g.y.r.n.f.;.J i K ;.z.N.a.N.p.g.P ;.p.z.} ! J.-.@.E Z E E E Y R Y A Y E E ) T ",
"V V V V Z Z R V V V V V V V V Z V V V C N Z N Z 1.n.i.n.g.z.u.r.g.t.y.r.q.;.y.z.q.F 0 ..N.N.B.z.p.z.z.z.g.z.g.z.N.N.{ 0 i ;.p.d.z.g.p.z.z.z.y.q.g.N.V.z.z.N.z.z.g.z.z.d.g.g.z.z.g.y.u.g.g.u...x y U ..N.N.N.N.p.k.K ;.z.z.e.l g.j.*.E Z E E E R Y Y Y T E E E E ",
"V V V V V X.V V V V V R V V V S S V S Z m Z c *.y.f.g.n.N.t.r.r.y.w.q.q.| ..z.p.K 0 F u.N.z.N.N.z.z.z.p.z.z.z.z.k.u.H 0 H u.N.g.z.z.p.z.z.z.q.y.z.z.z.N.z.z.z.g.z.z.z.z.x.B.z.u.<.r.g.j.p.;.;.z y K | N.z.N.z.p.y.J q.g.z.w.l ~ P.$.W Y Y Y Y I Y Y E E E _ T ) ",
"V V V R V V V V R V V V V V V S V V C V c c I 3.f.s.p.N.t.q.r.u.e.=.u.....z.d.q.F 0 ! k.N.z.z.z.z.z.z.z.g.z.z.N.z.q.y 0 K p.x.d.z.z.g.p.z.z.q.t.z.z.z.z.N.z.z.z.N.z.g.z.x.B.g.} ;.i.u.u.;.r.u.t x J ;.N.z.p.u.k.y.F ;.g.z.e.l J L.f.' Y Z Y Y Y Y Y Y E E E E T ",
"V V V V V V V V V V V V V V V V V C Z B B c ' j.j.g.u.p.t...t.t.q.q.w.q.u.k.u.! 0 l y.x.z.x.z.x.z.z.z.z.g.d.g.x.g.! 0 t } d.z.z.x.g.g.g.g.u.q.d.z.z.z.z.z.x.z.g.g.p.p.z.g.q.| ;.d.g.r.;.u.B.u.y H F y.z.x.w.y.z.w.x ;.g.z.w.x l f.R.' E A I Y I Y A Y Y ) E E ) ",
"V Z V X.Z V V V V V R Z V Z V V Z Z Z V c Z 3.f.g.g.t.t...t.t.t.w.w.=.y.x.z.q.F 7 K g.x.x.z.z.z.z.z.g.g.d.u.d.z.w.F 7 x q.g.z.z.x.z.x.d.g.q.q.g.z.z.x.g.d.x.x.z.z.N.B.z.| K | z.B.s.w.s.B.U.r.x G F y.x.d.=.w.c.;.l q.g.z.q.F q _ ^.<.' I A I A Y Y I E T E E T ",
"V V R V Z Z V V R V V V Z V Z Z Z V Z Z c @.j.y.i.f.r...t.t.t.q.u.w.;.g.x.x.*.y 0 | g.x.B.x.z.x.B.x.z.d.d.w.u.g.| t 0 F f.z.z.g.x.x.z.g.d.=.y.g.z.d.z.g.g.d.d.x.B.t.<.K F | g.f.j.;.u.P.].[.;.x G J y.x.w.~ d.g.} y q.g.z.e.x q z R.f.$.E L Y Y I Y Y E E ' T E ",
"V V V V Z S V V V V V X.C Z C Z Z S Z v c >.j.u.u.p.q.q.t.t.q.t.d.q.w.g.g.g.U 0 q q.d.g.x.z.z.g.x.g.x.d.q.q.f.f.U 7 q K x.z.g.z.z.N.z.z.d.=.r.k.z.d.u.d.z.d.g.f...K r x ..z.d.>.} s.P.].}.}.;.x x K d.g.q.W w.d.~ l w.g.z.y.x t e M.B.' ' I Y Y Y Y Y E E E T ) ",
"V V Z Z V Z V S V V V S S S C C C Z Z c G w.u.u.p.t...t.t.q.t.u.e.| g.g.z.u.F 0 G u.d.x.g.z.z.z.z.g.z.y.| q.g.y.v 7 r U n.n.k.p.z.K.V.z.....k.a.e.! w.w.w.u.;.J t 7 n ;.f.<.=.~ J.L.I. X X].-.v l U g.g.} ~ w.y.T x r.j.j.r.N u t u.`.T ' U Y Y Y Y Y ` E T E E ",
"V V V Z Z Z V V V X.S S S V C C C Z I c W u.u.u.u...u.t...r.u.u.| q.g.d.k.=.y 0 ! d.g.z.z.z.z.p.z.g.z.r.~ y.g.| t r t ' g.g.p.z.z.k.p.z.| ! | | q.q.w.q.| T x 7 e T y.u.;.;.y.I.{.].{.[. XE.;.v l U f.g.T ~ d.w.G x w.x.f.>.v t t ' }.;.W U U Y Y E R Y T ) _ E ",
"V V V V V C V V B V V V S S S C Z V V G -.u.g.t...r.u.t.t.p.p.u...p.p.z.f.T 0 q ;.z.g.z.z.z.z.p.z.z.p.;.~ f.u.L 7 r t { g.p.u.p.z.z.z.z.| q.y.t.q.! U | } J t x -.r.;.' ;.B.].`.].].}. X XP. .v e T u.s.G } g.w.x F w.j.d.;.x t t N }.j.E E I Y Y Y T Y E E E E ",
"Z Z Z Z Z V V V V V X.V S V C C Z c V R <.p.p.r...t.t.r.t.N.p.t.w.d.p.z.w.F 0 l w.z.z.g.N.z.z.z.z.z.z.| | g.q.z 6 w e  .g.p.r.f.z.p.u.q.~ ..~ ! ! u.N.q.v 7 N >.;.;.*.n.{.}.].|.].[. X X XP.' u e T f.q.x =.d.=.l x w.g.s.;.x k t z `.P.' W I A Y Y E E T E ) T ",
"V V V X.X.Z Z V V V Z C S C C C Z Z N E y.p.r.q.t.y...t.p.p.p.t.u.d.z.g.q.y 3 H t.p.N.g.z.z.p.z.z.z.z.! } g. .r w 5 r ;.g.t.q.p.z.t.u.*...p.g.`.[.V.~ l x W -.' ;.f.`.}.}.}.E.`.}. X|..X XU.' 7 q T u.=.k ;.d.T l x y.g.y.=.z u t l K.'.*.' I Y Y Y E E T E T E ",
"V V V Z V Z Z Z S Z Z Z C Z m c N N I *.f.q.q.t.r...t.N.p.p.t...z.g.z.p.! r 0 K p.k.N.N.z.z.N.N.z.z.g.T ;.g.K w r w r -.g.....p.z.z.p.} B.}.}.}._.L 2 v } U @.n.{.+X X+X+X{.E.].<X X}.%X%X_.U 5 t U y.J l ;.w.U k v y.d.;.;.J i u u M.}.;.' I Y Y R E E ) E ) E ",
"V S V Z V V D V Z Z Z C C Z N c Z c I *.u.<.r.t...r.u.p.z.p.t.q.z.g.z.t.K 0 r ! g.g.N.N.z.z.z.z.z.z.u.K r.u.J r e H u ;.f...;.p.z.g.u.-.P.}.}.`.;.9 t v *.B.{.oX+XOX X XoX{.].}.=X X}.<X.XI.J 7 t T q.J l w.w.x t G w.s.} ;.v t z u j.}.>.' I D Y Y E E E T T E ",
"V V Z Z V Z Z Z Z Z V Z C N C N N Z I =.r.t.r...r.u.z.p.p.t.r.r.z.g.g.w.H 0 y } g.g.z.N.z.z.g.z.z.z.=.L u.q.n 5 n ;.i ..p.} { r.r.u.g.y.P.'..Xy.t 7 v s.E.}.|.{.[.OX=X+X{.^.{.+X.X%X.X%X}.J.v 7 t T =.G I d.~ q t G ;.y.Y ;.v t u t u.@X>.' Y I Y R Y E E ) T E ",
"S V V S V S Z Z Z Z Z Z Z Z m m N I I ;.w.y.r.q.p.p.N.N.p.p.r.t.z.g.g.=.l 0 s =.g.z.z.z.z.z.g.z.z.k.{ J p.| y 7 -.i.n ..;.K <.u.r.;.<.j.{.oXB.J t x f.}.+X+X=X+X=X=X|.|.{./.}.+X+X X=X X Xf.z 7 e T | v ~ y.I 0 q G ;.;.J ;.x u u t r.1Xy.' Y Y A Y T E E E E T ",
"V S V V V Z Z Z Z V Z Z Z N N N Z I I ;.q.q.r.p.N.N.N.p.N.t...u.g.z.d.~ q 0 l w.g.z.z.z.x.z.z.z.z.p.P K f.U t x M.p.u  .p.K q.p.f.i.;.u.`.E.T 5 q f.}. X XOXoX+X=X%X|.{.].}.}.+X+X=X X X[.<.t e 9 T T u | ;.F 0 t J w.} v -.x t t l ;.1Xf.' Y I Y Y Y E E _ E ) ",
"V V X.V Z Z Z Z Z Z Z Z N Z N m N L L ;.q...t.N.N.N.N.z.p.t...p.d.z.d.Q q 0 l a.g.x.z.z.z.z.z.z.g.d.K K u.J e U E.j.i { u.F ..u.f.N.;.' s.g.z z ;.}.}.}.{.}.+X{. X|.|././.+X|.OX<X<XOX X[.-.t 9 9 U T t =.*.l t q J y.W v } v t t t -.1Xf.' Y Y E Y U E E E E T ",
"V Z V V Z Z Z Z c V c V m Z J n v J q.q...t.p.z.N.p.N.N.t.r.t.p.z.z.u.l q 9 B w.d.x.N.z.z.z.j.x.x.y.v T ;.z e y.`.B.J T { y q.g.z.p.y.<.f.! q G _.}.}.oXoX}.oX+X=X X{.{.}.}.|.+X+X+X+X+X`.-.9 t l U J G s.U l t t J ;.T t T J k t l -.}.s.} E I Z Y E ) T E ) T ",
"S Z V V V Z Z Z N C c Z Z m N x x ..t.! { t.t.N.p.N.N.t.t.t.r.t.z.g.;.l q 0 v e.z.z.N.z.z.z.x.j.x.>.z W *.9 Y ].|.B.v U U l ;.g.z.p.y.i.B.G 7 ~ `.}.}. XoX#XoX+X%X|.[.{.}.OX X+X+X}.+X+X].*.t q k U v G >.G k q t J | U z T J l t t ! }.f.' E Z I Y E E E T E T ",
"Z Z Z Z V S Z Z C N Z Y N v v J T ..q.q.t.t.N.N.p.N.N.t.t.t.r.z.g.g.} q 9 9 B e.z.z.p.p.z.z.j.g.j.} t } ~ q ;. X[.K.U G J t | z.g.p.i.i.>.t t U w.P.].}.oXoXoXoX X X{.|.|.+X+X+XoX+X+X+X].;.l q q U v I ;.v t t q J } I t U L t t l T }.y.@.T Y A Y T E T ) T ) ",
"Z Z Z Z Z Z Z Z Z Z A Z Z m n } ..{ t.t...N.N.p.N.p.t.t.t...t.z.g.d.U 0 0 q G s.z.z.t.p.z.g.g.j.g.U e ~ v z M. X|.L.I v x t } z.n.i.1.P T l l V I ;.B.].}.{.{.+X|.|.{.|.+X+X+X+X+XoXoX}.].>.l q 9 G x W >.v t t t N } H e K L l e v ;.@Xf.' T Y I Y E ` E Y T Y ",
"Z Z Z Z V V C N N Z Z Z N A ' ;._ P t.....N.p.p.N.N.t.t.t...u.p.k.d.K 7 9 5 l a.z.g.t.u.z.p.g.x.d.U t E z } J.E.[.I.U x q q | B.N.p. .N U c 4 # 6 c U M.oXoXoXOX X|.{.{.OX+X+X+X+X+XOXoX].w.x y 0 z c ~ y.U k t q L _ v e L U t t n f.1Xf.' ` E Y Y ` T ) T E ) ",
"Z Z Z m Z Z Z Z N Z Z c Z E U J U  .r.| ..N.N.p.N.N.t...t...p.z.z.y.F 7 s 5 G s.z.g.q.t.z.z.g.g.u.J e I z s.J.-.Y c - 4 7 7 } x.g.g.-.N v z 4 # 4 g c P i.^.{.}.|.|.[.|.OXOX+X+X+X+X}.}.^.y.x q t q v *.f.W l t 9 n T v 7 J U u e J M.#Xf.} E Y Y Y E E T Y ) T ",
"V Z Z Z m Z Z Z A Z c A ' ' N N T { t.| ..N.N.p.p.p...| t...u.N.x.;.y 0 9 s G w.z.u...p.z.z.p.z.y.x t x N I.J.c + - # 4 6 9 ~ s.f.f.;._ v m Z c g k k z A i.E.{.|.[. X+X X X X+X+X+X+X}.{.i.v 9 k k l =.K.*.l t t z U v t v U t r J B. Xf.*.E U Y Y U ) E T Y T ",
"Z C Z Z Z Z Z m Z Z Z ` Y N N J T } t.} t.N.p.p.p.p.....t...u.N.k.} q q q 5 v e.g.t.| t.p.z.g.g.w.t q z *.3.e @ . @ k k 6 9 L d.g.n.f.M.*.A @.E Z V v z M -.f.L.|.{.|.|.|.OX+X+XoX+X+XoX{.s.N q q k z >.U.=.c t t l K z t x L t t U J.}.f.*.E Y ` Y Y Y E T ) T ",
"Z V Z Z Z Z Z Z Z R E C z N N L P ;.t...t.p.N.N.p.p.| t.u...t.N.y.Q q q q s v w.z.r.| u.g.z.g.g.;.t t J 1.e 4 - g *.F.7.z 9 I s.g.j.f.E.' 3.^.Q.7.E V c n <.M.m.M.^.|.|.+X}.+X+X+XoX+X+X].y.U q q q z s._.;.v t t l L z t z J t u T E.}.j.} ' Y E Y Y Y T E ) Y ",
"Z Z V C Z Z Z Z Z A Z Z N N m U L r.y.| u.N.p.z.p.p.| t.u.q.u.z.r.H 0 q 9 q l w.d.w.{ p.z.z.p.N.} t 5 { L.w f g 3.|.<XU.Z 9 v s.B.g.f.P.W D.Q.|.,XU.' ' f.M.].E.L.I.^.U.J.R.{.}.+XoX{.+X`.>.K y 0 s l f.].w.v s t l N z t u v t i } '.].M.' ' Y E T T Y E ) T E ",
"V Z Z V Z Z Z Z Z Z N Z Z M n U P u.y.} u.N.z.p.p.t.| p.t...u.p...F 0 y 0 q s w.d.q.! u.z.k.z.N.{ x t f.}.@.c >.OX2X=X|.W e x y.j.Z.f.f.W I.%X).%X%XD.[ f.{.|.=X=X{.E.L.T.{.|.+X+XR.^.{.E.;.! y 0 q l j.}.w.G t t k J l t t v t z ;.}.].B.' ' E ' E E E ) U T T ",
"Z Z V B V V V Z Z A Z m Z c N T L p.q...N.N.p.z.p.r.| p.w.;.f.u.{ y 0 5 q q q ~ d.q.~ d.N.g.z.p.J x T P.{.D.I 7.|.|.:X=Xf.w k >.j.Z.s.@.R @.&.D.%X:XOXL.3.^.OX XOX X X+XOX X X+XoXR.L.}.'.;.! F 7 0 v J.[.s.I t t k N l t t e u L u.@XU.m.' ' E Y E E T E ) ) E ",
"B B B B c V V V Z Z C Z c M I T K p...;.p.z.g.z.z...r.p.q.q.g.>.} y 0 7 q 0 q W g.w.T y.N.g.g.u.v 7 ' E.{.E.8.E T.,X,X:Xm.h g >.x.x.w.V V D +.&.S.2XOXoXL.E.|. X XOX+X+X+X=X=X+X=XR.D.E.`.u.( H q q F j.U.w.J k t q J x k k e l U B.}.V.n.' [ E Y E E E T E T E ",
"B B B V V V V Z Z Z C N m c U T K i...;.g.g.z.z.N.| w.z.q.q.u.;.} t 7 r 7 t q T d.w.K w.g.g.z.q.l 7 ;.].Q.{.^.7.f.*X;X,XD.c k >.Z.c.:.B E %.X.X.X.Q.*X=X@X XOX=XOXOX+X X{.E.E./.|.|.R.U.B.;.H r 0 5 9 *.j.} V k 9 e U c k l t z W _.`.B.f.` @.' E T E E E E T E ",
"V V V V V Z Z Z Z Z Z C m v I L _ i...q.d.z.x.z.g.! y.z.q.} ;.q.K r t 7 t F t J d.;.F q.g.z.p...t x J. X]. XQ.].7.Q.;X;X/.U z >.J.Z.7.@.S.!.6.X.C S.=X%X X<XOX X=X+XOX+X{.L.I.E.|.OX/.^.E.y.J 7 0 0 s >.`.s.U q 9 q ' U k l l x ;..XJ.M.f.` [ ' Y E W T T ) E E ",
"V S Z V Z V Z Z Z Z C N c c U L } u.| w.z.z.z.z.q.~ u.z.q.~ =.;.F r q 0 z T l x ;.;.F =.p.z.z.} 7 L `.}.%X.X[.I.D.S.=XOX{.' x >.Z.Z.7.5.h.C.9.4.%.G.%X<X X X X=XOX=X@X X X+X+X+XOXOX}./.j.L z l q 9 9 V J.s.U z q z y.I e t l L g.1Xd.B.3.Y $.E Y E E E T E _ E ",
"C B V V Z Z Z Z D Z Z C N M T N | t.| y.z.z.z.g.} ..d.d.| | y.} u y 7 7 J ! G l ~ ;.x ;.t.z.z.P 7 W }. X@X X.X%XU.f.I.|.OX-.l >.Z.Z.7.9.C.C.C.A.8X*X%X X<X<X X+X+X+X+X=XOX XOX+X+X+XOX}.M.E c c k 9 9 k s.>.U v z x f.I 9 e t Y K.1Xy.B.<.Y $.E Y E E E E ) T E ",
"Z Z Z Z Z Z Z A Z N c C N Z U J  .u.} u.g.g.z.f.| q.z.d.} } r.J 0 7 0 K T U G q G =.y K p.c.g.U 7 T }.+X.X X%X.X XI.f.R.+X>.c w.c.Z.7.0.H.!.G.W.5XqX%X X%X%X<X@X=X+X;X+X+X+X+X+X+XOX{.E.7.Y Z I g 8 9 g I } U k t v J.W 6 t l }  X`._ L.} A ' @.E E W W U E E _ ",
"Z N Z Z Z N Z Z N C C N m N P N  .y.| t.n.g.g.d.| w.g.w.| ;...x 0 q t I T T J q l } F G p.z.d.L q T I. X}. X}. X X|.^.L.M.T L f.c.h.S.H.~.~.!.~.%X:X*X=X.X#X<X+X+X<X@X=X=X+X+X+XOX+XOXR.m.H.Q.I.` 9 e t e z V x 9 } _.W 7 9 z y.1Xu.} U.' A $.' E E W E T E E E ",
"N Z J N J Z Z N Z m Z C c N L N ;.r.} p.z.g.u.u.| y.y.q.w...U t 7 t x U U W U l 9 Q G l y.z.d.F l ~ f.].+X X.X.X.X}.+XL.<.N  .g.j.f.Z.Q.Q.Q.%X5X,X;X=X@X<X+X+X=X+X=X+X@X+X+XOX+XOX{./.OX,X6X;X,XS.w 8 t 9 9 k 9 9 >.`.U e 9 N K.#XK -.U.' Y @.] E E E W E T E ) ",
"N L Z Z N Z N Z Z Z Z N N L N N ;.....p.g.u.t.w.=.y.e.u.u.T i 0 r x K U U T T v 3 G G q ..d.y.x t } s.L.@X X.X.X.X X}.E.3.N 1.n.f.>.>.7.7.s.I.%XOX+X+X+X@X<X+X=X=X+X=X<X<XOX+X+X+XOX}.OXOX>X,X5XY.c c L 9 # 1 6 k >.B.c t l T }.K.x y.M.T A ' ' T E T E T E E T ",
"Z N I Z N Z N Z A Z Z Z c I c n ;.| ..g.p.y.y.;.q.y.u.p.q.F 0 0 r H T U U U T G 0 0 x y K u.a.G 7 U f.f._. X.X[..X.X[.U.-.Y 1.n.j.e.j.h.s.3.3.D./.+X+X+X@X@X+X+X=X+X<X+X+X+XOX+X}.+X;XOX&X$XW.$X(.A g [ U 4 1 9 l ;.*.l k v g.@X} x g.s.Y N ] ] Y U E T Y E E T ",
"A N N N N N N Z N Z N N c Y v J r.{ ;.g.p.y.r.| ;.y.z.d.| l 0 7 r J } T K U T U y 0 t r F y.u.G 3 v u.3.s.[.[.[.[.[.}.`._ ' i.i.s.x.[..X.X[.I.s.f.^.+X+X+X+X+X=X+X=X+X<X<X+X+X+X+XOXOX-XW.O.S O.H.&.w >.3.9 6 k U J.U l q G [.}.J x B.;.I N ' ' Y E E E Y ) T ) ",
"A Y Y N A M N N N M M n z U i L q.! w.p.p.q.r.| e.u.p.| l t 7 t v T ! U P P T T x 0 7 7 y ~ w.x 5 q I y.s.x.'.[..X}.].x.U >.B.g.j.'..X[.[..X.X.X+X+X+X+X+X+X+X<X=X+X+X=X X@X X X|.+XXX&XC.o.o.o.4.G.V Y L.c : w U j.v 0 y d.wXx.e I L.} U I ' _ Y E E T T ) ' ) ",
"L N L L N L N N N M n m z P z K ;.| t.z.t.! q.r.p.u.=.l q 0 3 t F T { P P ! T T F r 7 q q v =.J 9 t x ~ d.w.V.}.[. X_.s.} y.B.y.x. X[.[. X[..X X+X+X+X+X@X+X+X+X=X+X+X+X<X+X X XOXOX-XXXC.4.$X4.o.H.%.c D.C - w W *.q 9 G _.wXU e } M.E U E ' ' U E T ) E T _ E ",
"M L N Y N M L N N N M n N J z T ;.| p.N.r.Q r.t.y.t.K y G q 7 y H ! { K ! { K T K i 7 r 7 t U J q u i F =.y.s.K.[.'.`.;.>.f.u.s.P.}.[.}..X.X.X X X X X=X+X+X+X+X=XOX+X%X@X.X+X+X|.OXOX~.5.W.W.4.O.~.~.] :.E @ 4 l v t J u.1XK.z w <.f.U Y E @.W U E E _ E E _ ) ",
"L L L L A L L N L N N N P N u } ....f.t...| p.N.t.P G | K 0 t F T T ! P T P T T U F r 7 7 e l u q 0 y v G ;.u.u.K.'.B.| x.g.<.K.[.'.}.[.[. X X X X X+X+X=X+X+X+X+X+X+X@X+X=X XOXOX+XOX(.C.C.4.4.A.(.,XM.C Z - 9 9 l G q.'.#X| t u j.1.I I ' ' E E T E _ T ) ' E ",
"N L N A N L N L L L J m T n u { | | y.q.r.t.N.u.! F =.q.l 7 q F ! T _ P ! P P ! T K r 7 7 0 7 7 7 5 t v x U >.>.d.J.s.w.j.y.z.'.}.].}.[.}. X X X X X%X=X+X+X X+X+X+XOX@X+X+X+X|.OXoXOXXXW.W.W.A.8XyX9X;X8.u 8 u l J ! a..X_.n e Z n.' E Y ' @.E E T ` ' E ` E ' ",
"I A L L L A L N M N N M I z u -.} ;.q.q.u.N.t.{ F q.d.T q q 0 y U K T ! ! P U ! T K i 0 7 7 0 7 0 5 5 t G v U r.w.>.;.d.;.y._.}.}.[. X}. X X X X X%X X@X+X+X+X+X+X+X+XOX=X+X+X{.XXXXOXOX!.$X$X!.8XtX4X,X/.A 8 t l y | _.#X=.t t ' j.` I E E E E E E E E E T _ E ",
"L L N L N L N N L M N L L u n ;.} | t.u.t.u.K F r.z.q.F q q 3 s i J P } } _ P ! T T J t 7 t t q 7 7 5 t v J H ~ >.| w.g.r.N.'.}.}.}.}.}. X X X X|.}.OXOX XOX+X+XOX@X=X X+X XE.7.V.OX{.).Y.W.!.&X8X8X7X,XOX' z l l K u..X'.H r t 1.s.Y E A ' E E E W E T T T E ` ",
"A N L N L A N L N L L N N e J <.! | t.p.t.J i ..N.z.! 0 q q 3 3 7 i H H H i x x x F i t 7 7 7 7 q 7 7 q t v G x ~ ;.w.~ w.'.}.[.[.@X}. X X X X X+X+X+X+X=XOX+XOX+X@X+X+X+XOXD.@.b.OXOX|.G.m.$X:X>X>X-XOXD.U N l l y._.#Xt.y u x f.&.Z Y A @.E E E E ` E E E E E ",
"N L A L N L L A L Y L N z t U  .| t.p.q.P P t.N.N.q.F 0 q q 3 q r r y i H L K H F H F y t 7 7 q t t 0 7 5 t K ~ >.q.~ *.u.U.@X}.}.oX X}. X}.|.|.}.OX|. XOX+X X+X+XOX+XOX+X+X|.E.L.R.|.|.T.h.h.).-X-X>XXXE U F y { l..X_.H r u J s.E R Z @.' E ` E +.E E ' E ' ' ",
"L N I N L L M L A I L N u t T ;.f.N.q.H K t.N.p.k.~ q q 0 0 q q r r 7 r H K K T T T U K x u 7 7 t t l l x J } =.U x K r.d.g.`. X#X}.@X X X|.{.].{././.{.{.|.|. X+X+XOXOXOX}.|. X{.R. X=X=XI.:.h.XX>X&Xv.u.| y H t._.#X..r y t E &.I E C @.D E E E W E ` E W ' W ",
"L N N L N L N L N N L N z t ' i.y...K ! p.p.p.p.q.F q 0 9 9 q q r 7 7 r 0 0 t F T T ! T L l t 0 0 t u t x x G u y J G ! y.w.j.[.}.@X@XOX|.}./.{./.{.{.{.oXoXOX|. X%X X+X X=X X|.]._.|. X|.].J.7.v.Y.G.G.L.Y 0 Q k.#XV.F i r t 1.@.A R ` E E E E E E E ' ' ' W ' ",
"Y L I ) ) N M L N M L N z _ y.i.T i ! g.z.z.d.p.K 0 0 7 q q 9 q q 9 r 7 q 0 0 y U ~ ~ } ! H l 0 5 3 v | T v q q G T K F =.y.y.'.}.{. X}.{.L.L.OX;X=X;X;X;XOXT.^.|.%X=X%X|.=X=X X X%X X.X X}.|.K.M.L.M.U.B.l G w.`.1X{ i r i z -.I Z D @.` Y E E E @.W W E ' @.' ",
"L I L L L L Y L L N m P ' f.r.T x T u.g.z.z.x.| l 9 0 q q q q q q q 0 0 9 9 0 q F G F v x y y t t t x | ;.;.~ F l x K T ~ s.f.M. X{.{.E.' w z :.M.T.XXOX+X;X;X{.{.|.|.=X=X|.|.|. X%X%X.X X X%X[.{.].[.}.=.y } B.@XK.v u u u A ) A A Y ` ` R E ) E E W E W W ' ` ",
"I I L N N Y N M N n J -.f.<.N J ! ;.z.N.N.z.d.G q 9 9 q q 5 q q q q q q q 0 9 0 q t 7 7 7 7 7 7 0 q t G J U | } U K } ! T y.>.j.{.}.E.` & O O % : u ] 8.F.{.;X=X%X{.Q.].|.|.|.|.%X<X X%X X}. X X X].[.U.J v w.`.+XT r t u u L M N A ` ` A E E E E E W W W W @.' ",
"L L N A L M N n M T ;.y.1.U L } q.p.x.g.d.z.K t q 5 q q q q q q q 0 0 0 q q q q 0 7 0 t y y t q t 7 5 7 5 r x H K P { | | T I f.}.].' % O % $ : $ O . $ 4 g @.T.|.%X2XOX^.|.=X X.X=X X X X X X<X X[.].d.k T g.<XM.7 e t e z n N A ^ ` E A E Y E E E E ' ' @.` W ",
"L L L I L m N N ' 1.<.' m I ;.y.u.N.g.g.p.} q 0 q 0 q q q q q q q q 0 0 q q q s q q l J K J T T K H r 3 r r i i y y r q q k } U.{.3.w % + % % O $ O O O $ & + - c :.U.|.|.R.|.OX X=X+X X}. X X.X[.[.].*.q w.'.}.P 5 t u e u U E Y ` ] A A Y ` E W E W E W ' ' @.",
"A N T T J M I -.y.3.P t z ' } q.u.z.z.g.y.H q 0 q q q q q q 9 q q q 9 q q 9 0 0 0 t J T T ! T { } ! v t 7 t } i.q.q.q.! ~ j.`.E.n.u O o . $ O O $ $ @ @ @ & @ @ 8 N E f.OX^.{.=X+X=X X X.X}. X XQ.[.P.G G g.1Xu.e t e i z w -.[ E ] E A Y Y E E T E W W E ' ' ' ",
"U L M m N L  .1.;.N 6 e J } ;.f.g.N.z.u.Q y r 0 0 9 q q q q 9 9 q q 0 q q q q q q q q K T K P { { { P H t r { u.g.p.p.u.f.'.U.P.Y + + + % $ O O $ $ % $ O $ $ & 8 M Z R M.I./.[. X+X X<X.X%X X X[..Xe.v *.`._.G w u i u u i f.1.E ` E A I E E W W E W E ' W @.' ",
"I L N M [ 3.<._ N t 7 z L ~ w.d.z.N.l.Q q 7 0 0 3 9 q q q 3 q q q q q q q q q q q t t J P T P { ( { { P x r ! i.N.x.z.u.u.K.J.s.4 O O 1 1 # O o O O + + + + O o O w M M m Y D.+X+X<X+X+X X+X X}.]._.@.G e.[.>.s t t t t u n M.1.Y ` Y A A E E ' E E T E ' ' ' @.",
"N I )  .3.-.n w z u 7 z T ;.d.z.z.k.| y 3 7 7 q q q 9 3 q q q q q q 3 q 3 q q q q 0 q J T P ! { { { Q P K H } p.N.N.z.u.*.s.L.*.6 7 2 2 1 1 2 2 3 1 1 o O O + + O O % 6 O w R.=X+X+X+X+X.X X X X].j.G U _.`.v q x 7 t t t M L.-.^ A ^ E E E E E E E E ' ' ' ' ' ",
"T ] -.-.T M x u u e 9 v >.d.d.d.k.q.i 0 q y 0 7 q q q q q q q q q q q 3 q q 3 q q q 7 H K T Q ( { { P P P { u.p.N.N.z.q.J ;.].U 5 5 s l G G G s 0 3 1 1 1 # O % O O O + O w R.+X+X+X+X+X X X[. X_.>.l w.@Xw.s l z t u t t I R.-.A Y D Y E E W R T W W W E ' ' ' ",
" .-.) n c M N m u 9 l W d.c.x.z.q.H 0 0 3 0 0 0 s q q q q q q q q 9 0 0 q 9 q q 0 t t F K ! { P Q P P { <.t.p.N.z.z.z.} l *._.I s G e.e.a.k.k.e.| Q Q q 3 # O + % % O O $ g L.+X<X+X+X.X X X|. XI.U v J.].U t y u e e t e _ oX[ A A A ` +.E W E E E E W ' ' E @.",
"[ N m M m A M c t 2 J i.x.g.g.y.! 0 q 0 7 l K ! Q G v s q q q q q q q q q q 9 q 0 0 9 x K T ! T P P ! } ;.t.N.z.N.z.y.K z ;._.~ Q e.e.k.k.k.k.l.a.a.a.Q Q F 0 + + + + + % u R.oX+X+X+X+X@X}.}.}.K.G G `.d.l q u t r w t e ' }.} A Y Y R ` W W W W E E ' ' ' ' ' ",
"N N Z A A Z C z e N r.g.g.f.g.T t 0 q q J ;.w.p.a.a.a.=.Q F q q q 3 q q 9 9 q q q q q l J ! { ! T P Q { y.g.x.z.z.k.=.l v ;.`.P.c.x.d.c.Z.k.k.l.l.l._.e.a.e.Q y 3 + % + $ H oXoXoX+XoX+X@X}. X}.w.x *._.U t t t t e 7 t t } {.@.Y E E E E W W W E W E E @.E ' @.",
"N A A Y E C M u N <.M.g.x.d.| l q q q z >.y.>.d.k.u.=.U F q q q q q q q 9 q 9 q s q t l x x x F J { u.n.x.z.z.z.f.=.l G <.i.B.oX[.[.K.k.e.Z.c.l.l.l.a._._.c.l.q.i + + O O [ oXoX+XoX#X<X+X+X+X'.I x d.g.t t t t t r e t t ;.`.U I E E E E W W R @.E E ' ' ' ' ` ",
"Z m N A A N z N ;.n.n.g.g.~ q 7 9 q 0 J w.} >.y.=.G l q q 3 q q 3 q q q 9 9 9 9 q q l l i v K } ;.p.g.N.z.z.u.w.} l 9 ;./.L.V.XX%X<X.X].K.k.k.k.l.l._.a.a.k.a.e.{ 2 + $ 2 b.XXoXoXoX1X+X@X@X{.;.s G f.-.e t l t t t e t t i.I.U Z Y E E +.W W +.E E E W W W W @.",
"A A Z L N n L r.g.p.g.f.} l 6 7 q q 9 I } U d.e.G q q q 3 3 q q q q q 9 9 q 3 s q s q q y G T q.f.p.p.p.u.<.T u e e _ L.+X{.oXoX{.|. X=X XP.g.d.e.a._.a.a.l.l.a.w.q o O z T.oXXX+X+X#X X+X Xf.l k l x.} u t t t e t t t u M.B.N I R R W @.R W R E W E W @.W @.W ",
"E D N N H P ..N.z.f.f.T t q 9 k l k q G I I s.U q q q q s s q q q q q q q s s q q 9 9 0 7 5 t y x F J J n t e r H 1.L.oX+XoXOXOX|.{.|./. X=X[.K._.l.a.a.l.l._.a.s.t # % [ XXXXXX@XOX@X X}.M.I 7 q G J.E i t t t t e t t t J.s.I v R R W @.@.@.@.R +.E W W W ' @.",
"D A Z v P r.N.N.z.u.T l r 7 t G l s s l l G =.s 9 q q q q q q 3 q q q q q q q q 9 q 7 9 0 t r r 0 7 7 w r w u _ V.R.oX+X+X+XOX+XOXOX).|.|.|.|. X_._._._._.a.Q a.y.k @ w b.XXXXoXOXoX<X+XJ.Y k e 9 U P.G 7 v x 7 t u t t l U.s.L V G R W R @.R W @.W W @.E ' ' ' ",
"A Z N ' t.N.N.p.y.T z q q q x v l a q s s I ~ s 9 q q q q q q q q q q q q s q q q q 7 0 r 7 0 0 0 0 r u i N L 3.R.+XoX+XOX+X4XOX+X;XOXOX|.|.|.[._._._._._._._._.B.-.I f.R.Y.R.oXOX+X@XD.T z k 9 0 I _.K t i v z z t t t z U.;.N c R W R R W @.R R @.W W ' W @.' ",
"N Z [ f.n.n.n.r.J l k 0 s s U l s 9 5 q s R G 9 q s q q 9 q q q q q q s s s s q q q q l y i l x z H J U P ' _ _ 1.E.+XoXoX@X+X+X;X;X+XOX=X X=X X+X+X}.}._._.[.[.].^.R.{.F.L.|.%XoX^.f.I k t e t q v J.T t 9 t v J z t r U E.*.U U Z Y R R @.R @.E @.W ` W ' ' ' ",
"Y y.M.n.B.V. .n t 9 q 9 s Q V s 9 9 s s s G s 5 s s q q q 9 9 q q q q q q s q q q q l I T T ! T ! } } } _ _ T T T -.L.oXoX+X+X@X+X;X<X=X<X<XOX=X+XoX+X+X.X.X.X[.|.R.D.m.D.+X|.{.E.3.c e e w e t q 0 d.y.e e t t t t x x y.P.E U I R I Y @.R W W E @.W ' @.W ` @.",
"y.j.n.f.i._ n w 9 9 s s =.=.s s a 9 s s s s s 5 9 s s 5 q 9 q 9 q q q q q s q 3 9 q x U T ! T ~ { ! ~ T T } _ ' _ _ <.].@XoX#XoX.X<X=X<X=X%X=X=X@X+X<X+X@X1X[.%XOX^.T.L.{.=X XI.E z k 9 e t 9 q s 7 ~ x.v q t t u t 7 t B.U.T ' ' E Z Y W @.W +.E W @.E W ' ' ' ",
"y.;.-.L e w 6 w 5 5 s *.=.G 9 s s s s s s s s s 9 9 s q s q 0 q q q s q q q q q 9 t x U } ! { } } { T { } { ' _ { _ P <.R.+XoX#X%X<X%X=X<X X+X=X1X<X+X+XOX.X%X<XOX-X|.|.=X{.3.v 9 g 9 w e t 9 u q q l j.N.L t u t t 9 e P.M.L Y W E Z Z W R +.W W W E ' W ' W @.",
"y.} L g 6 w w g w z W -.R 9 s 9 g s a 9 9 s 9 9 9 q s q 9 e 9 q q q q q q q 3 q q q H { { } { { { { { { { { { P { P Q ( ..V.#XoX#X.X+XoX@X<X<X+X+X+X+X+X+X@X<X+XOX+XOX|.f.v s 9 7 9 t 9 t t t t t k t u y.P.L 5 t 7 t t `.>.v I U ' Z c I R E U Z R E ' E ' ' ' ",
"A g 6 8 9 w 9 8 z @.>.&.R V V c g 9 9 a s s s a s s 6 9 t e 7 9 q s q q q 9 q q y y K { { { { { _ { { ( { { { { { { P { ( ..V.oX}.@X+X+X+X<X=X X=X+XOX+X+X=XOX X+XE.m.' k 9 9 q 7 t e t t t t t t t t t z ;.E.B.<.J t N J.W J L U Y T c c I N c c N Z m v m I E ",
"8 k E :.8.b.b.F.H.^.|.|.%X=X X^.Z s g W :.=.G s 9 6 9 k 9 9 k t 5 9 q q q 9 0 q q y Q { { { _ { _ { ( { { { { ( { ( { { P P ..V.oX#XoX+X+X<X1XOX+X<X=X X+X<X+X/.M.` k 9 4 8 k 9 9 q 9 r t t t t t t t t r r x ' ' t t v } G N J U Y I Y c k g z z h c z z c M c ",
"7.D.|.|.OXOX;XOX:X;X*X=X:X=X:X|.E j B E.%X%X|.Z.:.Y g 9 9 9 9 9 s 9 q q 0 0 q q y F Q { { ! _ _ { { { { ( { { { { { Q { ( ( ( ( N.[.+X<X+X+X+X<X1X<X=X+X+XE.j.' z w 4 e t 9 s t 9 9 7 q 0 t q 0 t t t e t z t e t x e s.B.T P E Y N I W Z k z l z z k z n v c c ",
">X%X).XXOX-X3X3X4X;X3X3X2X2X1X~.` f 2.-X-X-X;X-XOX/.8.M w w 9 e s s q q 4 s q 0 t L _ _ { _ _ _ _ [ { { _ _ { { { { _ ( { { ( ( _ f.]..X<X+X X X[.|. XU.:.N g 8 w e 9 8 9 9 9 9 9 7 9 0 0 t q t t e r t t t z t t e v B.f.L U U N W 1.W c c v m N N m L A N A N ",
"~.*X,X,X;X;X-XOXOX,X,X-X,X9X2X*X&.b ).:X;X>X*X-X-XXX;XXX] w 4 9 s 9 q q q q q q u U { } { ! _ _ _ _ { ( _ { { { { ( _ { { {  .{ _ T >.I. X<X+X X XB.@.z 9 k e 9 6 9 8 9 9 s q 6 5 7 7 t r q r r q t e t t z z t r t i U.;.J U c *.f.-.n z v Z I E I L A I Y ' ' ",
"+.&.5.m.(.XX-XXX>X3X7X9X3X,X3X-X,.v.-X&X&XXX(.(.).XXOXOX/.:.w 8 5 s a s q 9 s q x T { { { { _ _ { _ { { ( { { ( _ _ { { { { ( { ' T W =.-.f.J.s.W c 9 8 9 e 9 9 9 9 9 9 9 q q q t 9 q 0 t 0 q t t t t t t t t k t t N '.' n v | f.s.I c J N I Y E E Y N c L ' :.",
"D D / / ] 8.T.3X3X-X>X3X>X3X9X:X9.XX>X&X&X(.Y.9.5.6.v.F.T.OX] 8 4 s q 4 5 9 9 s J T { { { { ( { { { ( ( { { { ( _ { _ _ { { { { _ ' W I 9 9 g 9 9 8 9 9 8 9 w 9 w 9 9 q a q q q q q t t 0 t 0 t r t r e e t k t l t N `.} x U f.B.} z e L N L U E _ E Y n m ' -.",
"/ ) ] ) ^ ^ ^ XXXXOX3X&X8X3X>XOX).,X,X:X7X,X-X&X~.S.5.] ` 0.h.z a 9 e 9 7 7 e N ! { } _ _ _ { _ ( { { ( { { { ! { _ ( { { { ( { { { E v 9 9 9 9 e g k 9 9 9 8 9 9 e 9 9 q q q q q s q q 0 0 q t t t e t t t t t t k J ].} c <.M.g.N e w n n N T _ ' [ E N n Y @.",
"] ) ^ ) ) ^ b ) ,.XX>X&X>X3X7X-X2X6X,X6X7X7X3X>X-X*XXXv.#.` #.` g w g 9 w t z I } _ { _ ' ! { _ { { { { { { { ( ( { { { ( ( { { { ' U l 9 9 w g 9 9 9 9 9 q 9 9 9 9 9 q q q q q q 9 q q y r t t t t r e t t t z k k I _.W J j.M.-.n n u u u M N Y _ ' _ N c I ' ",
"] ] ) ) ^ ^ ) ) / 2.XXXX>X>X7X3X,X9X6X9X,X7X8X5X-X*X~.6.+.9.T./.7.c w g e z L _ T T _ _ _ { { { { { _ { { { ! { { { { { { { { { _ } I t 9 9 9 s 9 9 9 9 k s q q 9 9 q q q q s q q q q q 0 q 0 y 0 t r t t t t z t l I `.~ U y.g._ n L u e e z M Y _ ` ' L c Y ' ",
") ^ ) ^ ) ) ) ) / / / XX3X3X;X0X9X2X,X9X7X,X;X*X).~.G.F./.-X3X;X).&.w w v L _ { _ T T { { _ ! { { ( { { ( { { { { { ( { { { ( { { P v e 9 q q 0 9 7 9 9 0 q s q s q 9 9 q 9 q s q q q q 0 y q q t t r e t t t t l q K `.w.T *.f.E L ) n e u u n N ) E U v c Y ` ",
"/ ] ] ) ( ) ) ) ^ ^ / 1.XXXXOX@X3X2X,X4X3X,X-X-X&X*X-X:X,X:X>X&X*XG.A b L L P P P { { { { { { { { { _ { { { { { { { { { { | { { { K u e r 7 9 0 e t q t q q 0 9 q q s 9 9 9 9 9 q q q q q y y q u r r r e t t t l t G '.g.*.T <.L Y ) m t z h z I E E U v n L L ",
"#.] ^ ] ) ) ) ( ^ ^ ^ ] 1.XXOX3X;X,X,X,X,X3X,X7X8X3X,X3X9X9X,X>X>X&Xv.L Y T P L P P _ _ _ _ _ { { { _ { { ( { { { ( { { { { { ( { n w 9 t e 9 6 6 7 9 q l t 7 9 q s 9 9 9 9 9 9 q q q q q q y q r u r e t u u t q y l _.K.r.} -.N T T n h w t c T ' _ L v n N z ",
",.] ] ) ^ ) ) ^ [ ^ ^ ] ^ 1.XXOX,X;X4X;X,X4X3X,X,X:X,X,X>X-X-X-X&XXXF.1.` T P ( K K K P T _ _ _ { { { { { _ ( { _ { ( { { ( ( ( ( n w w a g 9 6 4 8 8 a s e e 9 9 9 9 s 9 9 s q q q q q q q y y u r r t r t t y y l t w.'.d.| ' N ) E n w w e c A _ _ c u v z z ",
"v.] ] ^ [ ^ ) [ ^ [ [ ^ ^ ^ v.XX4X,X4X,X,X4X,X7X3X,X-X>X>X&X(.(.(.XXR.Y.2.Y _ _ _ P J L P P ( _ ( { { ( _ { _ { _ { { ( { ( { ( P z w f p - *       X X o = 8 6 8 a a 9 5 s 9 9 q q q q q y q s u r u r t t t y t y t G `.j.*.L L T N c u u t c N I L n t u u N ",
"XX2.] [ ^ [ ^ ^ ) ) ) ) ) [ ] v.XXXX4X4X3X;X3X,X>X>X*X&X(.$X*X>X:X3X,X;X/.f.[ ' _ _ P M P P P _ _ _ { _ _ _ { _ _ _ [ ( ( { ( ( I g > * X X     X X X       X $ : a k a 9 9 s q 9 s 9 s 9 t l t e u t t r t t i t l t q B.B.| N I T n h k z g z c J x v z x n N ",
"XXXX[ ^ [ [ ^ [ ) ) ) ) [ ) ) [ XXXXOX0X-X3X3X-X(.~.*X-X>X,X3X,X,X,X,X;X;X{.f.$.' ' T _ { P H n ( _ ( ( ( { _ ( _ _ { { ( ( ( ( t @ o X         X X             o @ a s k s 9 q 9 9 g 9 9 x c 9 7 w t t t t t t t y 0 q } `.u.v U N n t z z L z t l u t x x J ;.",
"XXXX1./ [ [ [ ^ ) ) ( ) ) ) ) ) [ XX4XOX>X-XY.Y.&X*X:X>X3X,X,X3X,X2X,X,X,XOXY.-.Y [ _ _ P ( ( K H H ( P _ { { _ _ _ { { { ( ( ( e .   X       X * , f b C ^ b b f = . * - a 4 8 a g g k a z E v e t u u t 0 t t t q t t l K.r.N J x z e e z Z z k t c z N z ' g.",
"OXXX1./ ^ ^ [ ^ ) ) ) ) ) ) ) [ ) XXOX3X-XXX,.v.-X5X3X,X7X,X,X7X5X6X2X5X:X,X-XF.2.$._ _ { P { ( ( L P P P ( { _ { { { { _ { { { u O   X   X * h C S ^ / / / ` 0.~.m.Z - * # - 6 a g a h g k W I r u t u t 0 t t t y t t t ;.E.J x z z c k x J J c l v i z t T i.",
";X;XD.$.^ ^ ] ^ ) ^ ( ^ ) ) ) [ [ ] XXXXXXXXO.$.H.3X,X7X,X,X7X5X2X6X5X,X,X7X>X)./.L.<.L P { { { { ( P P K H ( { { ( { { _ ' { _ n 2 O o @ f R ` A L ) _ ) R E S.OX,X|.m.d @ , % - 8 f 9 g g R *.v l u u t t q u e z t t z v '.;.e i x l z z U ' c l v l F z ~ g.",
";X;X(.:.] ] ) ) ^ ^ ^ ) ^ ] ) ) ] ) 1.XXXXv./ O.6.&X>X5X,X7X,X9X9X2X5X5X>X>X>X>X)./.T.p...{ { ( ( { { P P L P P ( P P ( T { { _ L i u z V R R I Y ) _ ) ) Y @.F.(.I.G.G.2.d = ; < 8 < 8 a 8 v *.U l t t 0 t q t t t u l l x } P.N u t u x J } ' v l u J J F J } ",
":X-X).2.` ` ) ) ) ( ) [ ^ ) ^ ^ ^ ^ / XXXXv./ / 2.(.5X,X7X,X9X9X5X6X5X5X7X7X>X&XXXE.E.oX'.n...{ { { { { Q ( K P K P L P T { _ K K K U E U Y T { P ( _ _ [ E @.S.|.S.&.D / / , = 8 < - : 8 4 - k k 9 9 g u q t t t t t t z K N V.n.z t m v -.r.I v i t U J t J } ",
":X;X>XG.] ) ] ) ^ ) ) ) ) ) [ ^ ^ ^ ^ 1.2.[ ^ / / h.*X:X,X,X6X9X7X7X,X7X5X>X>X3X-X-X|.+XoX}.R.N...! } { } { P P K ) n M P K _ H P _ _ P { { ( ( ( ( _ { T U @.D.=XOX|.G.#.O.O.f = , > 8 < < < = - < 8 9 k g k t t t t u t T L T ].y.u M ' f.L z n u t z l x x E ",
":X>X>XH.#.` ) ) ) ) ) ) ) [ [ ) ` ) ) [ $.` ^ / / 6.).,X,X,X5X9X9X,X,X2X3X,X>X>X:X*X).^./.}.oX+X'.M.;._ _ { { _ _ _ ) L H ( L L L _ { _ ( T _ ( _ { { { { -.3.8.|.;X;X*X).W.S.,.d * < , < < > > < < 8 8 w w e e k z u t t H <.H <.{.1.1. .z u M n u u z z v v L ",
":X,X,X~.,.` ) ) ) ) ) ) ) ) ) [ ] [ ] ^ ^ / ) ) ` $.~.9X9X7X,X5X9X3X,X,X,X>X>X,X,X*X:X|.{.=X@X+XoX+X{.n. .( _ ' _ L ) P P ( P P P P T _ _ _ ! { { { { { _ 1.m.f.|.*X;X:X>X>XXXY./ , , < < > > < < < < - : w 6 e g z z t y l ;.<.u i.'.( w n L L M t z z n N v N ",
",X,X:X$X2.) ) ) [ ) ) ) ( ) ) [ [ ) ) ^ ^ ^ ^ ] ` / v.:X5X6X5X,X4X,X,X,X,X>X>X>X,X>X;X).7.G./.OXOX+X=X+XL.i. .( ( P L i r i n K _ { _ _ _ _ { _ { { ' P [ n.I.0.T./.=X*X&X&X&X>X).%.= > < < < < < , > > : : : w w e t t t y J u.{ n V.R.[ H M H n z u z N N v c ",
",X,X:X*Xv.) ) ) [ ) ) ) ) ) ) [ ) ) [ ) ^ ^ ) ) ] A &.).,X,X2X,X5X2X,X,X,X>X>X3X,X,X,X(.2.F.).XXOX;XOXoXoXXXV.1._ { ( n r r i T {  .' { ' _ { T { { _ { y.T.^./.;X-X).-X&XXX&X>X>X(.D @ > a < < < < - < d : : : w 8 w t y y t ;.M.{ n n.'.i.n u u u r u L T v u ",
",X,X,X>Xm.+.) ) [ ) ) ) ) ( [ ) A M [ ( [ ^ ) ] ` ^ ] Y.;X:X,X,X,X,X,X,X,X>X>X3X8X3X3XY.9.).$X(.(./.{.OX|.oXoXV.1.) _ _ L H K { } T T ' _ ' ' _ _ ' } 8.R.oXR.OX;X;X,X;X3X&XXX!.).>XS.f > < < p < < , < , , , : ; < 8 9 u l t G n.n.{ N p.].i.n z n t z U E N z ",
",X,X:X,XF.#.) ) ) ) ) ) ) ) ( ) ) ) ) ) ) ) ) ) / ] ` 6.OX,X3X,X7X:X9X,X:X3X,X7X7X3X>X!.S.*X>X&X*XOX).(.R./.XX+XR.1.[ { { _ } ' T ' } <.i.f.f.f.j.J.U.}.oXXXF.OX4X;X,X,X7X7X3X>X*X).(.%.= < < < < < < p < , ; ; : : : 9 k t u u  .B.B.<.T ..P.V.<.H u J ' T v e ",
"5X:X,X,XH.$.) ) ) ) ) ) ) ) ) ) ) ( ) ) ) ^ ) ) ) ` ) $.T.,X,X,X7X9X:X,X>X:X>X>X,X>X>X!.W.:X*X>X>X-X*X|././.H.F.{./.b.[ ) Y [ -.1.j.]. X+X+XOX|. X+X<X+XOXR.F.XXOX;X;X,X,X,X3X-X:X,X*Xm.< * > < p p p , < , , ; ; : : w 9 k e e n i.n.V.i.J L ..`.P.M.' L v c u ",
",X,X5X:X~.2.) ) ^ ) ) ) ) ) ) ) ) ) ) ) ) ) ) ^ ` ) ` ) 9.OX;X,X:X3X:X3X3X3X,X3X3X>X7X!.W.>X8X5X,X3X;X;X).OX;XOXXX/.R.F.M.h.j.L.].=X<XOX+X+X=X<X+X<X=XOX=X^.T.OXOX;X;X,X9X3X3X3X5X5X:X*X,.> > > > < > p d , , ; : : : 6 8 g k z u ;.g.n.B.n. . .{ ..y.f.y.-.I L ",
",X:X,X,XXX2.) ) ) ) ) ) ) ) ) ) ) ) ) ) ) ) ) ) ) [ [ ^ 1.XXOX3X:X,X>X5X:X:X2X:X:X,X7X!.$X5X5X,X:X,X:X:X).|.=X*X;X*XI.G.!.I.^.|.|.=X=X=X%X=X=X<X X%X%X X|.~.*XOX|.*X-X;X,X,X2X9X6X,X,X,X~.h = > < < , p < , , , : : : : < w w i t _ i.N.B.B.N.i.{ x v K T } ' } ",
",X,X,X,XOX8.[ ) ) ) ) ` ` ` ) E ) ) ) ) ) ) ) ) ^ ^ ^ ^ / Y.XXXX*X*X,X,X7X2X*X*X:X&X>X~.$X:X5X$X%X,X%X:XQ.^.:X;X*X*X&X!.~.$XQ.h.S.U.^.%X|.Q.I.|.%X%X|.%XF.f.~.OXOX;X-X;X:X;X:X,X9X,X,X*X$X&.> < > < > < < , , - : : ; ; , w h c u n <.V.V.n.B.p.J u L ' W W ' *.",
"5X,X,X-XOXv.] ` L ^ ) ) ) ) ) ) ) ) ) ) ) ^ ) ) ) ^ ) [ ^ ] 1.2.5.H.H.*X,X*XS.0.0.S.S.H.W.m.5.H.G.h.7.9.S.G.Q.H.H.F.9.0.0.6.0.h.%.7.S.7.@.0.0.@.w.h.7.6.7.v.D &.G.~.7.&.5.%.2.S.H.S.!.I.5.E S f > * = < < < < < , , : , < d h c z l ;.B.B.n.y._ x N E ' *.@.*.*.",
"5X7X3X>X-XF.] ` ) ) ) ) ) ) ) ` [ ) ) ) ) ) ) ) ) ) [ ) ^ , h eXeX*Xh 6.).6.9XS.5.5X6.S.Q.aXzXxXxXlXdX0.iXhXjXlXhXfX0.2.fXhXzXzXjX0X+.qXjXzXzXjXqXD %XxXxXxXzXhX5.6.rXxXxXzXhX~.&.rXzXjXyXH.rXj X.~.f < < , < < < < : < d : h Z v l } B.B.n. .z n A @.@.@.@.*.-.",
"5X5X,X:X-XF.] ` ^ ) ) ) ) ) ) ) ) ) ) ) ) ) ) ) ^ [ [ ^ ^ 1.7XpXlXfXaX6.6.).uX9.G.rXS.2.S.iXfXdXyXhX9Xj *XfXhXfXhXiXD D %.0XiXuXuX%XC H.pXhXdXyX9.C h.yXhXhXpX0XS D 0X0.= < %XW.%.eXkXjXaXqXv.> 0.qXh > > < < < < < 8 < p < 8 c R I Q y.j.f.) n R @.@.@.@.*.-.*.",
"5X5X5X,X*XF.#.] ` ) ) ) ] ) ) ) ) ) ) ) ^ ` ) ) ^ ^ ^ / / b d OXjXgXjX).O.pXjXaXhXzXhX*X0.aXhXkXdXzX5Xj eXfXhXhXhXdXD G.*X,XdXkXfXS.&.yXkXlXhXhXpX9.rXzXzXjXjXhX).%.rXyXeX0XaXS.+.yXlXhXyX:XrXB %.6Xf > f < < < < < 8 p < < < h I G W -.{ N N _ ' W @.@.@.@.@.-.",
"5X5X,X,X;XY.$.] ) ) ^ ` ) ) ) ) ) ) [ ) ) ) ^ ) [ ^ ^ [ ^ ^ XXgXyX0XsXyXC 6.0Xh %.6Xj < 9.aXyXjXfXrX).C +.;XdX(.,X(.X.Z X.rXjXhXfX~.8 ).hXjXjXfXH.f 9.hXhXyXhXuXC S rXqX).%XyX~.%.0XfXhXaXqX0.p X.%Xh = > < < < < < < < < < < a g U s.*.z n ) E R @.:.@.@.*.$.&.",
"5X5X5X:X-XY.$.] ` ` ) ) ) ) ` ) ) ) ) ) ) ` ) ) ) ^ ^ ^ ^ 8.sXpXiXpXpXiXv.S.4Xv.D.9X8.H.$XqXrXjXiX9XS j !.hXfXdXpXS.D 9.yXiXlXjXjX!.X.9XiXhXjXpX6XD G.aXpXtXfXiX2.%.rXS.S D 6XI.6.0XdXdX~.+.9X&.D H.< < , < < , < < - > < < f < g B I x z T T ' ' ' @.@.@.*.*.*.",
">X,X:X>X,X!.$.] ` ) ^ ] ) ) ) ) ) ] ) ) ) ) ) ) ( ^ ^ ) [ M OX3XeXeXrXuX9.T.0Xv.D.4X0.).,X9XfXxXjXjXqXS ~.dXzXkXhX9Xj $X9XyXuXH.aXH.h %.iX0XrXdXv.%.+.:XhXaXhX~.D G.yXlXkXjXjXS.%.rXhXyXyXaX~.C G.0Xb > = > < < p < p p p < p < f c z N E W ' W @.@.@.@.@.*.:.@.",
":X,X%X>X:XH.$.` ` ) ] ^ ) ) ) ) ) ) ) ^ ^ ) ) ) ) ^ ) ^ ^ ^ ^ ^ D / T.9.v.F.v.2.0.9.S.~.0.&.S.H.S.0.6.%.H.!.0.@.0.F.5.&.&.0.&.0.0.0.D 0.6.%.&.0.0.S.G.h.S.S.S.0.Q.!.8.%.+.D &.,.2.6.H.6.6.0.6.(.S > > < = < > , < < < < < < < > a z Z A E W ' W @.@.@.@.*.@.:.*.",
"5X5X:X>X;XF.#.] ) ) ) ) ) ) ) [ ) ) ) ] ) ] ) ) ) ) ) ) ] / ^ / / 9.S.T.XXOXR.OXXX~.*XXX).).*X).:X$X).).).0.6.*X*X*X).*X*X(.:X,X:X*X*X6.0.:X9X>X$X,X*X(.~.*X$X%X*X*X).).*X$XS.H.,X:X(.&X).%X5X,X8.> < < < , < = > < < p p p p p < j Y R E ' @.~ @.@.@.@.*.*.@.:.",
"5X:X:X5X*XS.] ` / ) ) ) ) ) ) ) ) ) ) ) ) ^ ^ ) ) ) ) [ ] / / / #.] m.OX;X;X3X,X;X-X;X2X4X,X>X9X6X5X:X,X9XH.0.>X5X9X,X,X,X9X,X:X5X0X:XH.0.*X,X5X9X6X9X9X,X:X:X5X5X;X>X).).,X*X(.*X:X,X:X6X5X,X>X~.> > > p w d < < < < > p > , , < g D E ` ' R @.@.@.@.*.*.@.:.*.",
",X>X5X:X*Xm.] ` ) ) ) ) ) ` ) ) ) ) ) ) ) ) ) ^ ^ ^ ^ ^ / / / ^ / / / ,.v.XX;X3X;X4X;X4X4X,X9X9X5X6X,X,X6X~.0.%X9X9X9X:X9X,X7X,X*X,X,X:X0.~.,X:X,X,X9X9X5X,X:X,X9X:X7X,X*X).*X$X!.*X,X,X7X7X9X,X).D = < , < : = = = , < , , , < > f B E @.W ~ R @.@.@.*.4.*.:.>.",
"5X,X5X:XOX0.#.] / ) ) ` ) ) ) ) ) [ ) ) ) ) ` ] ] ^ ^ ^ ] $.$./ $.` ` #.^ ) v.XX;X3X0X9X4X3X:X:X,X,X6X:X:XH.&.).:X,X9X7X9X,X,X9X5X:X,X%XH.H.,X*X,X,X,X:X,X9X5X0X,X,X,X5X:X>X&X8X:X*X*X*X5X7X*X,X,XS.h S D X.D D D S j h j j h f < p h D @.R @.@.@.@.@.@.*.*.*.*.",
":X5X,X:X).2.` ` ` ^ ) ) ` ` ` ) ) ) ) ^ ^ / ] ] ] ,.v.2.,.#.,./ #.O./ ] ) ] ] $.S.).-X:X,X4X,X9X,X6X5X,X,X).5.H.5X2X,X9X5X,X5X3X5X,X7X7X&XG.).7X3X7X7X5X9X,X5X,X,X6X7X7X5X5X&X&X&X>X>X>X>X5X5X5X5XS.< +.9.9.0.9.0.0.C.v.C.9.0.0.9.6.%.@.R @.4.@.@.@.*.*.@.@.4.>.",
":X:X:X:X).2.` ` ` ^ ` ) ) ] ` ` ) ` ^ ` ] ] ] m.Y.XXOX>XXXXXXXv.,.#.] / ] ] ` ^ / ,.S.*X:X,X9X5X2X5X5X5X,X).2.H.,X6X,X9X,X9X,X3X,X7X,X,X>XH.).3X7X,X,X9X,X9X,X9X7X,X7X7X5X>X>X&X&X>X>X>X>X5X5X5X5XS.f #.9.9.0.0.0.0.0.0.C.0.C.0.v.v.0.6.4.*.*.@.*.@.4.*.*.>.*.*."
};
